(.../pcb-gcode-3_6_0_4/pcb-gcode.ulp)
(Copyright 2005 - 2012 by John Johnson)
(See readme.txt for licensing terms.)
(This file generated from the board:)
(.../PolarStormControlBoard_smol_275_gnd.brd)
(Current profile is .../pcb-gcode-3_6_0_4/profiles/generic.pp  )
(This file generated 1/30/2018 12:21 PM)
(Settings from pcb-machine.h)
(  Tool Size)
(0.0070 )
(Z Axis Settings)
(  High     Up        Down     Drill)
(0.5000 	0.1000 	-0.0070 	-0.0320 )
(spindle on time = 3.0000)
(milling depth = -0.0100)
(text depth = -0.0050)
(tool change at 0.5000 0.6000 1.0000 )
(feed rate xy = F20.00 )
(feed rate z  = F10.00 )
(Settings from pcb-defaults.h)
(isolate min = 0.0010)
(isolate max = 0.0200)
(isolate step = 0.0050)
(Generated top outlines, top drill, bottom outlines, bottom drill, )
(Unit of measure: inch)
(Inch Mode)
G20
(Absolute Coordinates)
G90
G00 X0.0000 Y0.0000 
M03
G04 P3.000000
G00 Z0.1000 
G00 X0.6805 Y1.2855 
G01 Z-0.0070 F10.00 
G01 X0.6816 Y1.2853 F20.00 
G01 X0.6826 Y1.2849 
G01 X0.6835 Y1.2843 
G01 X0.6846 Y1.2832 
G01 X0.6869 Y1.2817 
G01 X0.6885 Y1.2805 
G01 X0.6919 Y1.2792 
G01 X0.6929 Y1.2787 
G01 X0.6957 Y1.2782 
G01 X0.6976 Y1.2778 
G01 X0.7000 Y1.2778 
G01 X0.7024 Y1.2778 
G01 X0.7051 Y1.2783 
G01 X0.7071 Y1.2787 
G01 X0.7099 Y1.2799 
G01 X0.7115 Y1.2805 
G01 X0.7134 Y1.2819 
G01 X0.7154 Y1.2832 
G01 X0.7165 Y1.2843 
G01 X0.7174 Y1.2849 
G01 X0.7184 Y1.2853 
G01 X0.7195 Y1.2855 
G01 X0.7258 Y1.2855 
G01 X0.7258 Y1.2845 
G01 X0.7191 Y1.2845 
G01 X0.7175 Y1.2838 
G01 X0.7162 Y1.2825 
G01 X0.7155 Y1.2809 
G01 X0.7155 Y1.2742 
G01 X0.6845 Y1.2742 
G01 X0.6845 Y1.2809 
G01 X0.6838 Y1.2825 
G01 X0.6825 Y1.2838 
G01 X0.6809 Y1.2845 
G01 X0.6742 Y1.2845 
G01 X0.6742 Y1.2855 
G01 X0.6805 Y1.2855 
G00 Z0.1000 
G00 X1.5675 Y1.6467 
G01 Z-0.0070 F10.00 
G01 X1.5675 Y1.6533 F20.00 
G01 X1.5665 Y1.6600 
G01 X1.5644 Y1.6663 
G01 X1.5613 Y1.6723 
G01 X1.5574 Y1.6777 
G01 X1.5527 Y1.6824 
G01 X1.5473 Y1.6863 
G01 X1.5413 Y1.6894 
G01 X1.5386 Y1.6903 
G01 X1.5392 Y1.6906 
G01 X1.5404 Y1.6915 
G01 X1.5407 Y1.6918 
G01 X1.5410 Y1.6920 
G01 X1.5413 Y1.6923 
G01 X1.5417 Y1.6926 
G01 X1.5427 Y1.6938 
G01 X1.5438 Y1.6949 
G01 X1.5440 Y1.6952 
G01 X1.5442 Y1.6954 
G01 X1.5445 Y1.6959 
G01 X1.5448 Y1.6962 
G01 X1.5456 Y1.6976 
G01 X1.5464 Y1.6988 
G01 X1.5466 Y1.6992 
G01 X1.5468 Y1.6995 
G01 X1.5469 Y1.6999 
G01 X1.5472 Y1.7004 
G01 X1.5477 Y1.7018 
G01 X1.5477 Y1.7019 
G01 X1.5481 Y1.7023 
G01 X1.5485 Y1.7029 
G01 X1.5490 Y1.7035 
G01 X1.5498 Y1.7049 
G01 X1.5507 Y1.7062 
G01 X1.5510 Y1.7069 
G01 X1.5682 Y1.7241 
G01 X1.5893 Y1.7362 
G01 X1.6128 Y1.7426 
G01 X1.6372 Y1.7426 
G01 X1.6607 Y1.7362 
G01 X1.6615 Y1.7358 
G01 X1.6622 Y1.7353 
G01 X1.6636 Y1.7346 
G01 X1.6650 Y1.7338 
G01 X1.6657 Y1.7335 
G01 X1.6664 Y1.7332 
G01 X1.6680 Y1.7328 
G01 X1.6695 Y1.7323 
G01 X1.6703 Y1.7322 
G01 X1.6710 Y1.7320 
G01 X1.6726 Y1.7319 
G01 X1.6742 Y1.7316 
G01 X1.6750 Y1.7317 
G01 X1.6758 Y1.7316 
G01 X1.6774 Y1.7319 
G01 X1.6790 Y1.7320 
G01 X1.6797 Y1.7322 
G01 X1.6805 Y1.7323 
G01 X1.6820 Y1.7328 
G01 X1.6836 Y1.7332 
G01 X1.6843 Y1.7335 
G01 X1.6850 Y1.7338 
G01 X1.6864 Y1.7346 
G01 X1.6878 Y1.7353 
G01 X1.6885 Y1.7358 
G01 X1.6893 Y1.7362 
G01 X1.7128 Y1.7426 
G01 X1.7372 Y1.7426 
G01 X1.7607 Y1.7362 
G01 X1.7818 Y1.7241 
G01 X1.7991 Y1.7068 
G01 X1.7995 Y1.7060 
G01 X1.7998 Y1.7053 
G01 X1.8007 Y1.7040 
G01 X1.8015 Y1.7026 
G01 X1.8020 Y1.7020 
G01 X1.8025 Y1.7013 
G01 X1.8036 Y1.7002 
G01 X1.8046 Y1.6990 
G01 X1.8053 Y1.6985 
G01 X1.8058 Y1.6980 
G01 X1.8072 Y1.6971 
G01 X1.8084 Y1.6961 
G01 X1.8091 Y1.6958 
G01 X1.8098 Y1.6953 
G01 X1.8113 Y1.6947 
G01 X1.8127 Y1.6940 
G01 X1.8135 Y1.6938 
G01 X1.8142 Y1.6935 
G01 X1.8158 Y1.6932 
G01 X1.8173 Y1.6928 
G01 X1.8181 Y1.6927 
G01 X1.8189 Y1.6926 
G01 X1.8205 Y1.6926 
G01 X1.8221 Y1.6925 
G01 X1.8228 Y1.6926 
G01 X1.8236 Y1.6926 
G01 X1.8252 Y1.6929 
G01 X1.8268 Y1.6931 
G01 X1.8275 Y1.6933 
G01 X1.8283 Y1.6935 
G01 X1.8298 Y1.6941 
G01 X1.8313 Y1.6946 
G01 X1.8320 Y1.6950 
G01 X1.8327 Y1.6953 
G01 X1.8340 Y1.6962 
G01 X1.8354 Y1.6970 
G01 X1.8360 Y1.6975 
G01 X1.8367 Y1.6980 
G01 X1.8378 Y1.6991 
G01 X1.8390 Y1.7001 
G01 X1.8395 Y1.7008 
G01 X1.8400 Y1.7013 
G01 X1.8409 Y1.7027 
G01 X1.8419 Y1.7039 
G01 X1.8422 Y1.7046 
G01 X1.8427 Y1.7053 
G01 X1.8433 Y1.7068 
G01 X1.8440 Y1.7082 
G01 X1.8442 Y1.7090 
G01 X1.8445 Y1.7097 
G01 X1.8448 Y1.7113 
G01 X1.8452 Y1.7128 
G01 X1.8453 Y1.7136 
G01 X1.8454 Y1.7144 
G01 X1.8454 Y1.7160 
G01 X1.8455 Y1.7175 
G01 X1.8454 Y1.7183 
G01 X1.8454 Y1.7453 
G01 X1.8560 Y1.7847 
G01 X1.8763 Y1.8199 
G01 X1.9051 Y1.8487 
G01 X1.9403 Y1.8690 
G01 X1.9797 Y1.8796 
G01 X2.0203 Y1.8796 
G01 X2.0597 Y1.8690 
G01 X2.0949 Y1.8487 
G01 X2.1237 Y1.8199 
G01 X2.1440 Y1.7847 
G01 X2.1546 Y1.7453 
G01 X2.1546 Y1.7047 
G01 X2.1440 Y1.6653 
G01 X2.1237 Y1.6301 
G01 X2.0949 Y1.6013 
G01 X2.0597 Y1.5810 
G01 X2.0203 Y1.5704 
G01 X1.9797 Y1.5704 
G01 X1.9403 Y1.5810 
G01 X1.9051 Y1.6013 
G01 X1.8763 Y1.6301 
G01 X1.8635 Y1.6524 
G01 X1.8632 Y1.6531 
G01 X1.8623 Y1.6544 
G01 X1.8615 Y1.6558 
G01 X1.8610 Y1.6564 
G01 X1.8605 Y1.6571 
G01 X1.8594 Y1.6582 
G01 X1.8584 Y1.6594 
G01 X1.8577 Y1.6599 
G01 X1.8572 Y1.6604 
G01 X1.8558 Y1.6613 
G01 X1.8546 Y1.6623 
G01 X1.8539 Y1.6626 
G01 X1.8532 Y1.6631 
G01 X1.8517 Y1.6637 
G01 X1.8503 Y1.6644 
G01 X1.8495 Y1.6646 
G01 X1.8488 Y1.6649 
G01 X1.8472 Y1.6652 
G01 X1.8457 Y1.6656 
G01 X1.8449 Y1.6657 
G01 X1.8441 Y1.6658 
G01 X1.8425 Y1.6658 
G01 X1.8409 Y1.6659 
G01 X1.8402 Y1.6658 
G01 X1.8394 Y1.6658 
G01 X1.8378 Y1.6655 
G01 X1.8362 Y1.6653 
G01 X1.8355 Y1.6650 
G01 X1.8347 Y1.6649 
G01 X1.8332 Y1.6643 
G01 X1.8317 Y1.6638 
G01 X1.8310 Y1.6634 
G01 X1.8303 Y1.6631 
G01 X1.8290 Y1.6622 
G01 X1.8276 Y1.6614 
G01 X1.8270 Y1.6609 
G01 X1.8263 Y1.6604 
G01 X1.8252 Y1.6593 
G01 X1.8240 Y1.6582 
G01 X1.8235 Y1.6576 
G01 X1.8230 Y1.6571 
G01 X1.8221 Y1.6557 
G01 X1.8211 Y1.6545 
G01 X1.8208 Y1.6538 
G01 X1.8203 Y1.6531 
G01 X1.8197 Y1.6516 
G01 X1.8190 Y1.6502 
G01 X1.8188 Y1.6494 
G01 X1.8185 Y1.6487 
G01 X1.8182 Y1.6471 
G01 X1.8178 Y1.6456 
G01 X1.8177 Y1.6448 
G01 X1.8176 Y1.6440 
G01 X1.8176 Y1.6424 
G01 X1.8175 Y1.6408 
G01 X1.8176 Y1.6400 
G01 X1.8176 Y1.6378 
G01 X1.8112 Y1.6143 
G01 X1.7991 Y1.5932 
G01 X1.7818 Y1.5759 
G01 X1.7607 Y1.5638 
G01 X1.7372 Y1.5574 
G01 X1.7128 Y1.5574 
G01 X1.6893 Y1.5638 
G01 X1.6885 Y1.5642 
G01 X1.6878 Y1.5647 
G01 X1.6864 Y1.5654 
G01 X1.6850 Y1.5662 
G01 X1.6843 Y1.5665 
G01 X1.6836 Y1.5668 
G01 X1.6820 Y1.5672 
G01 X1.6805 Y1.5677 
G01 X1.6797 Y1.5678 
G01 X1.6790 Y1.5680 
G01 X1.6774 Y1.5681 
G01 X1.6758 Y1.5684 
G01 X1.6750 Y1.5683 
G01 X1.6742 Y1.5684 
G01 X1.6726 Y1.5681 
G01 X1.6710 Y1.5680 
G01 X1.6703 Y1.5678 
G01 X1.6695 Y1.5677 
G01 X1.6680 Y1.5672 
G01 X1.6664 Y1.5668 
G01 X1.6657 Y1.5665 
G01 X1.6650 Y1.5662 
G01 X1.6636 Y1.5654 
G01 X1.6622 Y1.5647 
G01 X1.6615 Y1.5642 
G01 X1.6607 Y1.5638 
G01 X1.6372 Y1.5574 
G01 X1.6128 Y1.5574 
G01 X1.5893 Y1.5638 
G01 X1.5682 Y1.5759 
G01 X1.5510 Y1.5931 
G01 X1.5507 Y1.5938 
G01 X1.5498 Y1.5951 
G01 X1.5492 Y1.5962 
G01 X1.5492 Y1.6150 
G01 X1.5527 Y1.6176 
G01 X1.5574 Y1.6223 
G01 X1.5613 Y1.6277 
G01 X1.5644 Y1.6337 
G01 X1.5665 Y1.6400 
G01 X1.5675 Y1.6467 
G00 Z0.1000 
G00 X1.6675 Y1.6467 
G01 Z-0.0070 F10.00 
G01 X1.6675 Y1.6533 F20.00 
G01 X1.6665 Y1.6600 
G01 X1.6644 Y1.6663 
G01 X1.6613 Y1.6723 
G01 X1.6574 Y1.6777 
G01 X1.6527 Y1.6824 
G01 X1.6473 Y1.6863 
G01 X1.6413 Y1.6894 
G01 X1.6350 Y1.6915 
G01 X1.6283 Y1.6925 
G01 X1.6217 Y1.6925 
G01 X1.6150 Y1.6915 
G01 X1.6087 Y1.6894 
G01 X1.6027 Y1.6863 
G01 X1.5973 Y1.6824 
G01 X1.5926 Y1.6777 
G01 X1.5887 Y1.6723 
G01 X1.5856 Y1.6663 
G01 X1.5835 Y1.6600 
G01 X1.5825 Y1.6533 
G01 X1.5825 Y1.6467 
G01 X1.5835 Y1.6400 
G01 X1.5856 Y1.6337 
G01 X1.5887 Y1.6277 
G01 X1.5926 Y1.6223 
G01 X1.5973 Y1.6176 
G01 X1.6027 Y1.6137 
G01 X1.6087 Y1.6106 
G01 X1.6150 Y1.6085 
G01 X1.6217 Y1.6075 
G01 X1.6283 Y1.6075 
G01 X1.6350 Y1.6085 
G01 X1.6413 Y1.6106 
G01 X1.6473 Y1.6137 
G01 X1.6527 Y1.6176 
G01 X1.6574 Y1.6223 
G01 X1.6613 Y1.6277 
G01 X1.6644 Y1.6337 
G01 X1.6665 Y1.6400 
G01 X1.6675 Y1.6467 
G00 Z0.1000 
G00 X1.7675 Y1.6467 
G01 Z-0.0070 F10.00 
G01 X1.7675 Y1.6533 F20.00 
G01 X1.7665 Y1.6600 
G01 X1.7644 Y1.6663 
G01 X1.7613 Y1.6723 
G01 X1.7574 Y1.6777 
G01 X1.7527 Y1.6824 
G01 X1.7473 Y1.6863 
G01 X1.7413 Y1.6894 
G01 X1.7350 Y1.6915 
G01 X1.7283 Y1.6925 
G01 X1.7217 Y1.6925 
G01 X1.7150 Y1.6915 
G01 X1.7087 Y1.6894 
G01 X1.7027 Y1.6863 
G01 X1.6973 Y1.6824 
G01 X1.6926 Y1.6777 
G01 X1.6887 Y1.6723 
G01 X1.6856 Y1.6663 
G01 X1.6835 Y1.6600 
G01 X1.6825 Y1.6533 
G01 X1.6825 Y1.6467 
G01 X1.6835 Y1.6400 
G01 X1.6856 Y1.6337 
G01 X1.6887 Y1.6277 
G01 X1.6926 Y1.6223 
G01 X1.6973 Y1.6176 
G01 X1.7027 Y1.6137 
G01 X1.7087 Y1.6106 
G01 X1.7150 Y1.6085 
G01 X1.7217 Y1.6075 
G01 X1.7283 Y1.6075 
G01 X1.7350 Y1.6085 
G01 X1.7413 Y1.6106 
G01 X1.7473 Y1.6137 
G01 X1.7527 Y1.6176 
G01 X1.7574 Y1.6223 
G01 X1.7613 Y1.6277 
G01 X1.7644 Y1.6337 
G01 X1.7665 Y1.6400 
G01 X1.7675 Y1.6467 
G00 Z0.1000 
G00 X2.0242 Y0.5726 
G01 Z-0.0070 F10.00 
G01 X2.0242 Y0.5736 F20.00 
G01 X2.0243 Y0.5745 
G01 X2.0242 Y0.5759 
G01 X2.0242 Y1.2524 
G01 X2.0233 Y1.2571 
G01 X2.0214 Y1.2615 
G01 X2.0188 Y1.2654 
G01 X1.8438 Y1.4404 
G01 X1.8404 Y1.4438 
G01 X1.8365 Y1.4464 
G01 X1.8321 Y1.4483 
G01 X1.8274 Y1.4492 
G01 X1.5350 Y1.4492 
G01 X1.4492 Y1.5350 
G01 X1.4492 Y1.6150 
G01 X1.4527 Y1.6176 
G01 X1.4574 Y1.6223 
G01 X1.4613 Y1.6277 
G01 X1.4644 Y1.6337 
G01 X1.4665 Y1.6400 
G01 X1.4675 Y1.6467 
G01 X1.4675 Y1.6533 
G01 X1.4665 Y1.6600 
G01 X1.4644 Y1.6663 
G01 X1.4613 Y1.6723 
G01 X1.4574 Y1.6777 
G01 X1.4527 Y1.6824 
G01 X1.4473 Y1.6863 
G01 X1.4413 Y1.6894 
G01 X1.4350 Y1.6915 
G01 X1.4283 Y1.6925 
G01 X1.4217 Y1.6925 
G01 X1.4150 Y1.6915 
G01 X1.4087 Y1.6894 
G01 X1.4027 Y1.6863 
G01 X1.3973 Y1.6824 
G01 X1.3926 Y1.6777 
G01 X1.3887 Y1.6723 
G01 X1.3856 Y1.6663 
G01 X1.3835 Y1.6600 
G01 X1.3825 Y1.6533 
G01 X1.3825 Y1.6467 
G01 X1.3835 Y1.6400 
G01 X1.3856 Y1.6337 
G01 X1.3887 Y1.6277 
G01 X1.3926 Y1.6223 
G01 X1.3973 Y1.6176 
G01 X1.4008 Y1.6150 
G01 X1.4008 Y1.5226 
G01 X1.4017 Y1.5179 
G01 X1.4036 Y1.5135 
G01 X1.4062 Y1.5096 
G01 X1.4096 Y1.5062 
G01 X1.5096 Y1.4062 
G01 X1.5135 Y1.4036 
G01 X1.5179 Y1.4017 
G01 X1.5226 Y1.4008 
G01 X1.8150 Y1.4008 
G01 X1.9758 Y1.2400 
G01 X1.9758 Y0.5868 
G01 X1.6549 Y0.3346 
G01 X1.6190 Y0.3346 
G01 X1.6173 Y0.3339 
G01 X1.6161 Y0.3327 
G01 X1.6154 Y0.3310 
G01 X1.6154 Y0.2690 
G01 X1.6161 Y0.2673 
G01 X1.6173 Y0.2661 
G01 X1.6190 Y0.2654 
G01 X1.6810 Y0.2654 
G01 X1.6827 Y0.2661 
G01 X1.6839 Y0.2673 
G01 X1.6846 Y0.2690 
G01 X1.6846 Y0.2964 
G01 X2.0142 Y0.5554 
G01 X2.0154 Y0.5562 
G01 X2.0161 Y0.5569 
G01 X2.0168 Y0.5575 
G01 X2.0178 Y0.5586 
G01 X2.0188 Y0.5596 
G01 X2.0193 Y0.5604 
G01 X2.0199 Y0.5611 
G01 X2.0206 Y0.5623 
G01 X2.0214 Y0.5635 
G01 X2.0218 Y0.5644 
G01 X2.0222 Y0.5652 
G01 X2.0227 Y0.5666 
G01 X2.0233 Y0.5679 
G01 X2.0234 Y0.5689 
G01 X2.0237 Y0.5698 
G01 X2.0239 Y0.5712 
G01 X2.0242 Y0.5726 
G00 Z0.1000 
G00 X2.4549 Y2.2820 
G01 Z-0.0070 F10.00 
G01 X2.4549 Y2.2200 F20.00 
G01 X2.4556 Y2.2183 
G01 X2.4568 Y2.2171 
G01 X2.4585 Y2.2164 
G01 X2.5205 Y2.2164 
G01 X2.5222 Y2.2171 
G01 X2.5234 Y2.2183 
G01 X2.5241 Y2.2200 
G01 X2.5241 Y2.2820 
G01 X2.5234 Y2.2837 
G01 X2.5222 Y2.2849 
G01 X2.5205 Y2.2856 
G01 X2.4585 Y2.2856 
G01 X2.4568 Y2.2849 
G01 X2.4556 Y2.2837 
G01 X2.4549 Y2.2820 
G00 Z0.1000 
G00 X2.2549 Y2.2200 
G01 Z-0.0070 F10.00 
G01 X2.2556 Y2.2183 F20.00 
G01 X2.2568 Y2.2171 
G01 X2.2585 Y2.2164 
G01 X2.3205 Y2.2164 
G01 X2.3222 Y2.2171 
G01 X2.3234 Y2.2183 
G01 X2.3241 Y2.2200 
G01 X2.3241 Y2.2820 
G01 X2.3234 Y2.2837 
G01 X2.3222 Y2.2849 
G01 X2.3205 Y2.2856 
G01 X2.3029 Y2.2856 
G01 X2.3029 Y2.3080 
G01 X2.3019 Y2.3126 
G01 X2.3001 Y2.3170 
G01 X2.2975 Y2.3210 
G01 X2.2941 Y2.3244 
G01 X2.2629 Y2.3556 
G01 X2.2595 Y2.3590 
G01 X2.2555 Y2.3616 
G01 X2.2511 Y2.3634 
G01 X2.2465 Y2.3644 
G01 X0.9014 Y2.3644 
G01 X0.8968 Y2.3634 
G01 X0.8924 Y2.3616 
G01 X0.8884 Y2.3590 
G01 X0.4558 Y1.9264 
G01 X0.4525 Y1.9230 
G01 X0.4498 Y1.9191 
G01 X0.4480 Y1.9147 
G01 X0.4471 Y1.9100 
G01 X0.4471 Y1.8913 
G01 X0.4338 Y1.9046 
G01 X0.4304 Y1.9080 
G01 X0.4265 Y1.9106 
G01 X0.4221 Y1.9124 
G01 X0.4174 Y1.9134 
G01 X0.2035 Y1.9134 
G01 X0.1988 Y1.9124 
G01 X0.1944 Y1.9106 
G01 X0.1904 Y1.9080 
G01 X0.1871 Y1.9046 
G01 X0.1558 Y1.8734 
G01 X0.1525 Y1.8700 
G01 X0.1498 Y1.8660 
G01 X0.1480 Y1.8616 
G01 X0.1471 Y1.8570 
G01 X0.1471 Y1.7396 
G01 X0.1268 Y1.7193 
G01 X0.1241 Y1.7153 
G01 X0.1223 Y1.7109 
G01 X0.1214 Y1.7062 
G01 X0.1214 Y1.2991 
G01 X0.0925 Y1.2702 
G01 X0.0922 Y1.2699 
G01 X0.0895 Y1.2659 
G01 X0.0882 Y1.2628 
G01 X0.0877 Y1.2615 
G01 X0.0868 Y1.2568 
G01 X0.0868 Y1.1479 
G01 X0.0868 Y0.3929 
G01 X0.0877 Y0.3882 
G01 X0.0895 Y0.3838 
G01 X0.0922 Y0.3799 
G01 X0.0955 Y0.3765 
G01 X0.2766 Y0.1954 
G01 X0.2800 Y0.1920 
G01 X0.2840 Y0.1894 
G01 X0.2884 Y0.1876 
G01 X0.2930 Y0.1866 
G01 X1.0070 Y0.1866 
G01 X1.0116 Y0.1876 
G01 X1.0160 Y0.1894 
G01 X1.0200 Y0.1920 
G01 X1.0234 Y0.1954 
G01 X1.0546 Y0.2266 
G01 X1.0580 Y0.2300 
G01 X1.0606 Y0.2340 
G01 X1.0624 Y0.2384 
G01 X1.0634 Y0.2430 
G01 X1.0634 Y0.2654 
G01 X1.0810 Y0.2654 
G01 X1.0827 Y0.2661 
G01 X1.0839 Y0.2673 
G01 X1.0846 Y0.2690 
G01 X1.0846 Y0.3065 
G01 X1.0850 Y0.3084 
G01 X1.0850 Y0.3166 
G01 X1.0846 Y0.3185 
G01 X1.0846 Y0.3310 
G01 X1.0839 Y0.3327 
G01 X1.0827 Y0.3339 
G01 X1.0810 Y0.3346 
G01 X1.0738 Y0.3346 
G01 X1.0723 Y0.3356 
G01 X1.0679 Y0.3374 
G01 X1.0632 Y0.3384 
G01 X1.0584 Y0.3384 
G01 X1.0538 Y0.3374 
G01 X1.0494 Y0.3356 
G01 X1.0479 Y0.3346 
G01 X1.0190 Y0.3346 
G01 X1.0173 Y0.3339 
G01 X1.0161 Y0.3327 
G01 X1.0154 Y0.3310 
G01 X1.0154 Y0.2969 
G01 X1.0150 Y0.2949 
G01 X1.0150 Y0.2554 
G01 X0.9946 Y0.2350 
G01 X0.3054 Y0.2350 
G01 X0.1351 Y0.4053 
G01 X0.1351 Y1.2444 
G01 X0.1628 Y1.2722 
G01 X0.1643 Y1.2736 
G01 X0.1670 Y1.2776 
G01 X0.1688 Y1.2820 
G01 X0.1697 Y1.2867 
G01 X0.1697 Y1.6938 
G01 X0.1867 Y1.7108 
G01 X0.1901 Y1.7142 
G01 X0.1927 Y1.7181 
G01 X0.1945 Y1.7225 
G01 X0.1955 Y1.7272 
G01 X0.1955 Y1.8446 
G01 X0.2159 Y1.8650 
G01 X0.4050 Y1.8650 
G01 X0.4254 Y1.8446 
G01 X0.4254 Y1.8084 
G01 X0.4258 Y1.8065 
G01 X0.4258 Y1.7690 
G01 X0.4265 Y1.7673 
G01 X0.4278 Y1.7661 
G01 X0.4294 Y1.7654 
G01 X0.4915 Y1.7654 
G01 X0.4931 Y1.7661 
G01 X0.4944 Y1.7673 
G01 X0.4951 Y1.7690 
G01 X0.4951 Y1.8065 
G01 X0.4955 Y1.8084 
G01 X0.4955 Y1.8976 
G01 X0.9138 Y2.3160 
G01 X2.2341 Y2.3160 
G01 X2.2545 Y2.2956 
G01 X2.2545 Y2.2594 
G01 X2.2549 Y2.2575 
G01 X2.2549 Y2.2200 
G00 Z0.1000 
G00 X2.1549 Y2.2820 
G01 Z-0.0070 F10.00 
G01 X2.1549 Y2.2752 F20.00 
G01 X0.9236 Y2.2752 
G01 X0.9189 Y2.2743 
G01 X0.9145 Y2.2724 
G01 X0.9106 Y2.2698 
G01 X0.8846 Y2.2438 
G01 X0.8812 Y2.2404 
G01 X0.8786 Y2.2365 
G01 X0.8767 Y2.2321 
G01 X0.8758 Y2.2274 
G01 X0.8758 Y1.5694 
G01 X0.8767 Y1.5647 
G01 X0.8786 Y1.5603 
G01 X0.8812 Y1.5564 
G01 X0.9150 Y1.5226 
G01 X0.9150 Y0.9084 
G01 X0.9154 Y0.9065 
G01 X0.9154 Y0.8690 
G01 X0.9161 Y0.8673 
G01 X0.9173 Y0.8661 
G01 X0.9190 Y0.8654 
G01 X0.9810 Y0.8654 
G01 X0.9827 Y0.8661 
G01 X0.9839 Y0.8673 
G01 X0.9846 Y0.8690 
G01 X0.9846 Y0.9310 
G01 X0.9839 Y0.9327 
G01 X0.9827 Y0.9339 
G01 X0.9810 Y0.9346 
G01 X0.9634 Y0.9346 
G01 X0.9634 Y1.5350 
G01 X0.9624 Y1.5397 
G01 X0.9606 Y1.5441 
G01 X0.9580 Y1.5480 
G01 X0.9546 Y1.5514 
G01 X0.9242 Y1.5818 
G01 X0.9242 Y2.2150 
G01 X0.9360 Y2.2268 
G01 X2.1549 Y2.2268 
G01 X2.1549 Y2.2200 
G01 X2.1556 Y2.2183 
G01 X2.1568 Y2.2171 
G01 X2.1585 Y2.2164 
G01 X2.2205 Y2.2164 
G01 X2.2222 Y2.2171 
G01 X2.2234 Y2.2183 
G01 X2.2241 Y2.2200 
G01 X2.2241 Y2.2820 
G01 X2.2234 Y2.2837 
G01 X2.2222 Y2.2849 
G01 X2.2205 Y2.2856 
G01 X2.1585 Y2.2856 
G01 X2.1568 Y2.2849 
G01 X2.1556 Y2.2837 
G01 X2.1549 Y2.2820 
G00 Z0.1000 
G00 X0.1691 Y0.9655 
G01 Z-0.0070 F10.00 
G01 X0.2309 Y0.9655 F20.00 
G01 X0.2325 Y0.9662 
G01 X0.2338 Y0.9675 
G01 X0.2345 Y0.9691 
G01 X0.2345 Y1.0309 
G01 X0.2338 Y1.0325 
G01 X0.2325 Y1.0338 
G01 X0.2309 Y1.0345 
G01 X0.1691 Y1.0345 
G01 X0.1675 Y1.0338 
G01 X0.1662 Y1.0325 
G01 X0.1655 Y1.0309 
G01 X0.1655 Y0.9691 
G01 X0.1662 Y0.9675 
G01 X0.1675 Y0.9662 
G01 X0.1691 Y0.9655 
G00 Z0.1000 
G00 X2.3845 Y0.5941 
G01 Z-0.0070 F10.00 
G01 X2.3845 Y0.6559 F20.00 
G01 X2.3838 Y0.6575 
G01 X2.3825 Y0.6588 
G01 X2.3809 Y0.6595 
G01 X2.3742 Y0.6595 
G01 X2.3742 Y0.7650 
G01 X2.4247 Y0.8155 
G01 X2.4559 Y0.8155 
G01 X2.4575 Y0.8162 
G01 X2.4588 Y0.8175 
G01 X2.4595 Y0.8191 
G01 X2.4595 Y0.8809 
G01 X2.4588 Y0.8825 
G01 X2.4575 Y0.8838 
G01 X2.4559 Y0.8845 
G01 X2.3941 Y0.8845 
G01 X2.3925 Y0.8838 
G01 X2.3912 Y0.8825 
G01 X2.3905 Y0.8809 
G01 X2.3905 Y0.8742 
G01 X2.2595 Y0.8742 
G01 X2.2595 Y0.8809 
G01 X2.2588 Y0.8825 
G01 X2.2575 Y0.8838 
G01 X2.2559 Y0.8845 
G01 X2.1941 Y0.8845 
G01 X2.1925 Y0.8838 
G01 X2.1912 Y0.8825 
G01 X2.1905 Y0.8809 
G01 X2.1905 Y0.8191 
G01 X2.1912 Y0.8175 
G01 X2.1925 Y0.8162 
G01 X2.1941 Y0.8155 
G01 X2.2559 Y0.8155 
G01 X2.2575 Y0.8162 
G01 X2.2588 Y0.8175 
G01 X2.2595 Y0.8191 
G01 X2.2595 Y0.8258 
G01 X2.3666 Y0.8258 
G01 X2.3312 Y0.7904 
G01 X2.3286 Y0.7865 
G01 X2.3267 Y0.7821 
G01 X2.3258 Y0.7774 
G01 X2.3258 Y0.6595 
G01 X2.3191 Y0.6595 
G01 X2.3175 Y0.6588 
G01 X2.3162 Y0.6575 
G01 X2.3155 Y0.6559 
G01 X2.3155 Y0.5941 
G01 X2.3162 Y0.5925 
G01 X2.3175 Y0.5912 
G01 X2.3191 Y0.5905 
G01 X2.3809 Y0.5905 
G01 X2.3825 Y0.5912 
G01 X2.3838 Y0.5925 
G01 X2.3845 Y0.5941 
G00 Z0.1000 
G00 X2.4845 Y0.5941 
G01 Z-0.0070 F10.00 
G01 X2.4845 Y0.6559 F20.00 
G01 X2.4838 Y0.6575 
G01 X2.4825 Y0.6588 
G01 X2.4809 Y0.6595 
G01 X2.4191 Y0.6595 
G01 X2.4175 Y0.6588 
G01 X2.4162 Y0.6575 
G01 X2.4155 Y0.6559 
G01 X2.4155 Y0.5941 
G01 X2.4162 Y0.5925 
G01 X2.4175 Y0.5912 
G01 X2.4191 Y0.5905 
G01 X2.4809 Y0.5905 
G01 X2.4825 Y0.5912 
G01 X2.4838 Y0.5925 
G01 X2.4845 Y0.5941 
G00 Z0.1000 
G00 X2.2191 Y0.2655 
G01 Z-0.0070 F10.00 
G01 X2.2809 Y0.2655 F20.00 
G01 X2.2825 Y0.2662 
G01 X2.2838 Y0.2675 
G01 X2.2845 Y0.2691 
G01 X2.2845 Y0.3309 
G01 X2.2838 Y0.3325 
G01 X2.2825 Y0.3338 
G01 X2.2809 Y0.3345 
G01 X2.2191 Y0.3345 
G01 X2.2175 Y0.3338 
G01 X2.2162 Y0.3325 
G01 X2.2155 Y0.3309 
G01 X2.2155 Y0.2691 
G01 X2.2162 Y0.2675 
G01 X2.2175 Y0.2662 
G01 X2.2191 Y0.2655 
G00 Z0.1000 
G00 X0.2951 Y1.7690 
G01 Z-0.0070 F10.00 
G01 X0.2951 Y1.8310 F20.00 
G01 X0.2944 Y1.8327 
G01 X0.2931 Y1.8339 
G01 X0.2915 Y1.8346 
G01 X0.2294 Y1.8346 
G01 X0.2278 Y1.8339 
G01 X0.2265 Y1.8327 
G01 X0.2258 Y1.8310 
G01 X0.2258 Y1.7690 
G01 X0.2264 Y1.7676 
G01 X0.2264 Y1.6612 
G01 X0.2277 Y1.6546 
G01 X0.2303 Y1.6484 
G01 X0.2340 Y1.6429 
G01 X0.5219 Y1.3550 
G01 X0.5232 Y1.3530 
G01 X0.5280 Y1.3482 
G01 X0.5337 Y1.3444 
G01 X0.5399 Y1.3418 
G01 X0.5466 Y1.3405 
G01 X0.5534 Y1.3405 
G01 X0.5601 Y1.3418 
G01 X0.5663 Y1.3444 
G01 X0.5720 Y1.3482 
G01 X0.5768 Y1.3530 
G01 X0.5806 Y1.3587 
G01 X0.5832 Y1.3649 
G01 X0.5845 Y1.3716 
G01 X0.5845 Y1.3784 
G01 X0.5832 Y1.3851 
G01 X0.5806 Y1.3913 
G01 X0.5768 Y1.3970 
G01 X0.5720 Y1.4018 
G01 X0.5700 Y1.4031 
G01 X0.2945 Y1.6787 
G01 X0.2945 Y1.7676 
G01 X0.2951 Y1.7690 
G00 Z0.1000 
G00 X0.3951 Y1.7690 
G01 Z-0.0070 F10.00 
G01 X0.3951 Y1.8310 F20.00 
G01 X0.3944 Y1.8327 
G01 X0.3931 Y1.8339 
G01 X0.3915 Y1.8346 
G01 X0.3294 Y1.8346 
G01 X0.3278 Y1.8339 
G01 X0.3265 Y1.8327 
G01 X0.3258 Y1.8310 
G01 X0.3258 Y1.7690 
G01 X0.3265 Y1.7673 
G01 X0.3278 Y1.7661 
G01 X0.3294 Y1.7654 
G01 X0.3915 Y1.7654 
G01 X0.3931 Y1.7661 
G01 X0.3944 Y1.7673 
G01 X0.3951 Y1.7690 
G00 Z0.1000 
G00 X0.5951 Y1.8310 
G01 Z-0.0070 F10.00 
G01 X0.5944 Y1.8327 F20.00 
G01 X0.5931 Y1.8339 
G01 X0.5915 Y1.8346 
G01 X0.5294 Y1.8346 
G01 X0.5278 Y1.8339 
G01 X0.5265 Y1.8327 
G01 X0.5258 Y1.8310 
G01 X0.5258 Y1.7690 
G01 X0.5265 Y1.7673 
G01 X0.5278 Y1.7661 
G01 X0.5294 Y1.7654 
G01 X0.5609 Y1.7654 
G01 X0.8258 Y1.5004 
G01 X0.8258 Y0.9346 
G01 X0.8190 Y0.9346 
G01 X0.8173 Y0.9339 
G01 X0.8161 Y0.9327 
G01 X0.8154 Y0.9310 
G01 X0.8154 Y0.8690 
G01 X0.8161 Y0.8673 
G01 X0.8173 Y0.8661 
G01 X0.8190 Y0.8654 
G01 X0.8810 Y0.8654 
G01 X0.8827 Y0.8661 
G01 X0.8839 Y0.8673 
G01 X0.8846 Y0.8690 
G01 X0.8846 Y0.9310 
G01 X0.8839 Y0.9327 
G01 X0.8827 Y0.9339 
G01 X0.8810 Y0.9346 
G01 X0.8742 Y0.9346 
G01 X0.8742 Y1.5128 
G01 X0.8733 Y1.5175 
G01 X0.8714 Y1.5219 
G01 X0.8688 Y1.5259 
G01 X0.5951 Y1.7996 
G01 X0.5951 Y1.8310 
G00 Z0.1000 
G00 X0.3846 Y0.8690 
G01 Z-0.0070 F10.00 
G01 X0.3846 Y0.9310 F20.00 
G01 X0.3840 Y0.9324 
G01 X0.3840 Y1.0534 
G01 X0.3827 Y1.0599 
G01 X0.3802 Y1.0661 
G01 X0.3764 Y1.0717 
G01 X0.3717 Y1.0764 
G01 X0.3217 Y1.1264 
G01 X0.3161 Y1.1302 
G01 X0.3099 Y1.1327 
G01 X0.3034 Y1.1340 
G01 X0.2320 Y1.1340 
G01 X0.2309 Y1.1345 
G01 X0.1691 Y1.1345 
G01 X0.1675 Y1.1338 
G01 X0.1662 Y1.1325 
G01 X0.1655 Y1.1309 
G01 X0.1655 Y1.0691 
G01 X0.1662 Y1.0675 
G01 X0.1675 Y1.0662 
G01 X0.1691 Y1.0655 
G01 X0.2309 Y1.0655 
G01 X0.2320 Y1.0660 
G01 X0.2859 Y1.0660 
G01 X0.3160 Y1.0359 
G01 X0.3160 Y0.9324 
G01 X0.3154 Y0.9310 
G01 X0.3154 Y0.8690 
G01 X0.3161 Y0.8673 
G01 X0.3173 Y0.8661 
G01 X0.3190 Y0.8654 
G01 X0.3810 Y0.8654 
G01 X0.3827 Y0.8661 
G01 X0.3839 Y0.8673 
G01 X0.3846 Y0.8690 
G00 Z0.1000 
G00 X0.4846 Y0.8690 
G01 Z-0.0070 F10.00 
G01 X0.4846 Y0.9310 F20.00 
G01 X0.4839 Y0.9327 
G01 X0.4827 Y0.9339 
G01 X0.4810 Y0.9346 
G01 X0.4190 Y0.9346 
G01 X0.4173 Y0.9339 
G01 X0.4161 Y0.9327 
G01 X0.4154 Y0.9310 
G01 X0.4154 Y0.8690 
G01 X0.4161 Y0.8673 
G01 X0.4173 Y0.8661 
G01 X0.4190 Y0.8654 
G01 X0.4810 Y0.8654 
G01 X0.4827 Y0.8661 
G01 X0.4839 Y0.8673 
G01 X0.4846 Y0.8690 
G00 Z0.1000 
G00 X0.5846 Y0.8690 
G01 Z-0.0070 F10.00 
G01 X0.5846 Y0.9310 F20.00 
G01 X0.5839 Y0.9327 
G01 X0.5827 Y0.9339 
G01 X0.5810 Y0.9346 
G01 X0.5190 Y0.9346 
G01 X0.5173 Y0.9339 
G01 X0.5161 Y0.9327 
G01 X0.5154 Y0.9310 
G01 X0.5154 Y0.8690 
G01 X0.5161 Y0.8673 
G01 X0.5173 Y0.8661 
G01 X0.5190 Y0.8654 
G01 X0.5810 Y0.8654 
G01 X0.5827 Y0.8661 
G01 X0.5839 Y0.8673 
G01 X0.5846 Y0.8690 
G00 Z0.1000 
G00 X0.7846 Y0.8690 
G01 Z-0.0070 F10.00 
G01 X0.7846 Y0.9310 F20.00 
G01 X0.7839 Y0.9327 
G01 X0.7827 Y0.9339 
G01 X0.7810 Y0.9346 
G01 X0.7742 Y0.9346 
G01 X0.7742 Y1.0155 
G01 X0.7809 Y1.0155 
G01 X0.7825 Y1.0162 
G01 X0.7838 Y1.0175 
G01 X0.7845 Y1.0191 
G01 X0.7845 Y1.0809 
G01 X0.7838 Y1.0825 
G01 X0.7825 Y1.0838 
G01 X0.7809 Y1.0845 
G01 X0.7191 Y1.0845 
G01 X0.7175 Y1.0838 
G01 X0.7162 Y1.0825 
G01 X0.7155 Y1.0809 
G01 X0.7155 Y1.0191 
G01 X0.7162 Y1.0175 
G01 X0.7175 Y1.0162 
G01 X0.7191 Y1.0155 
G01 X0.7258 Y1.0155 
G01 X0.7258 Y0.9346 
G01 X0.7190 Y0.9346 
G01 X0.7173 Y0.9339 
G01 X0.7161 Y0.9327 
G01 X0.7154 Y0.9310 
G01 X0.7154 Y0.8690 
G01 X0.7161 Y0.8673 
G01 X0.7173 Y0.8661 
G01 X0.7190 Y0.8654 
G01 X0.7810 Y0.8654 
G01 X0.7827 Y0.8661 
G01 X0.7839 Y0.8673 
G01 X0.7846 Y0.8690 
G00 Z0.1000 
G00 X1.2846 Y0.8690 
G01 Z-0.0070 F10.00 
G01 X1.2846 Y0.9310 F20.00 
G01 X1.2839 Y0.9327 
G01 X1.2827 Y0.9339 
G01 X1.2810 Y0.9346 
G01 X1.2190 Y0.9346 
G01 X1.2173 Y0.9339 
G01 X1.2161 Y0.9327 
G01 X1.2154 Y0.9310 
G01 X1.2154 Y0.8690 
G01 X1.2161 Y0.8673 
G01 X1.2173 Y0.8661 
G01 X1.2190 Y0.8654 
G01 X1.2810 Y0.8654 
G01 X1.2827 Y0.8661 
G01 X1.2839 Y0.8673 
G01 X1.2846 Y0.8690 
G00 Z0.1000 
G00 X1.3846 Y0.8690 
G01 Z-0.0070 F10.00 
G01 X1.3846 Y0.9310 F20.00 
G01 X1.3839 Y0.9327 
G01 X1.3827 Y0.9339 
G01 X1.3810 Y0.9346 
G01 X1.3190 Y0.9346 
G01 X1.3173 Y0.9339 
G01 X1.3161 Y0.9327 
G01 X1.3154 Y0.9310 
G01 X1.3154 Y0.8690 
G01 X1.3161 Y0.8673 
G01 X1.3173 Y0.8661 
G01 X1.3190 Y0.8654 
G01 X1.3810 Y0.8654 
G01 X1.3827 Y0.8661 
G01 X1.3839 Y0.8673 
G01 X1.3846 Y0.8690 
G00 Z0.1000 
G00 X1.4846 Y0.8690 
G01 Z-0.0070 F10.00 
G01 X1.4846 Y0.9310 F20.00 
G01 X1.4839 Y0.9327 
G01 X1.4827 Y0.9339 
G01 X1.4810 Y0.9346 
G01 X1.4190 Y0.9346 
G01 X1.4173 Y0.9339 
G01 X1.4161 Y0.9327 
G01 X1.4154 Y0.9310 
G01 X1.4154 Y0.8690 
G01 X1.4161 Y0.8673 
G01 X1.4173 Y0.8661 
G01 X1.4190 Y0.8654 
G01 X1.4810 Y0.8654 
G01 X1.4827 Y0.8661 
G01 X1.4839 Y0.8673 
G01 X1.4846 Y0.8690 
G00 Z0.1000 
G00 X1.5846 Y0.8690 
G01 Z-0.0070 F10.00 
G01 X1.5846 Y0.9310 F20.00 
G01 X1.5839 Y0.9327 
G01 X1.5827 Y0.9339 
G01 X1.5810 Y0.9346 
G01 X1.5190 Y0.9346 
G01 X1.5173 Y0.9339 
G01 X1.5161 Y0.9327 
G01 X1.5154 Y0.9310 
G01 X1.5154 Y0.8690 
G01 X1.5161 Y0.8673 
G01 X1.5173 Y0.8661 
G01 X1.5190 Y0.8654 
G01 X1.5810 Y0.8654 
G01 X1.5827 Y0.8661 
G01 X1.5839 Y0.8673 
G01 X1.5846 Y0.8690 
G00 Z0.1000 
G00 X1.6846 Y0.8690 
G01 Z-0.0070 F10.00 
G01 X1.6846 Y0.9310 F20.00 
G01 X1.6839 Y0.9327 
G01 X1.6827 Y0.9339 
G01 X1.6810 Y0.9346 
G01 X1.6190 Y0.9346 
G01 X1.6173 Y0.9339 
G01 X1.6161 Y0.9327 
G01 X1.6154 Y0.9310 
G01 X1.6154 Y0.8690 
G01 X1.6161 Y0.8673 
G01 X1.6173 Y0.8661 
G01 X1.6190 Y0.8654 
G01 X1.6810 Y0.8654 
G01 X1.6827 Y0.8661 
G01 X1.6839 Y0.8673 
G01 X1.6846 Y0.8690 
G00 Z0.1000 
G00 X0.3846 Y0.2690 
G01 Z-0.0070 F10.00 
G01 X0.3846 Y0.3310 F20.00 
G01 X0.3839 Y0.3327 
G01 X0.3827 Y0.3339 
G01 X0.3810 Y0.3346 
G01 X0.3190 Y0.3346 
G01 X0.3173 Y0.3339 
G01 X0.3161 Y0.3327 
G01 X0.3154 Y0.3310 
G01 X0.3154 Y0.2690 
G01 X0.3161 Y0.2673 
G01 X0.3173 Y0.2661 
G01 X0.3190 Y0.2654 
G01 X0.3810 Y0.2654 
G01 X0.3827 Y0.2661 
G01 X0.3839 Y0.2673 
G01 X0.3846 Y0.2690 
G00 Z0.1000 
G00 X0.4846 Y0.2690 
G01 Z-0.0070 F10.00 
G01 X0.4846 Y0.3310 F20.00 
G01 X0.4839 Y0.3327 
G01 X0.4827 Y0.3339 
G01 X0.4810 Y0.3346 
G01 X0.4190 Y0.3346 
G01 X0.4173 Y0.3339 
G01 X0.4161 Y0.3327 
G01 X0.4154 Y0.3310 
G01 X0.4154 Y0.2690 
G01 X0.4161 Y0.2673 
G01 X0.4173 Y0.2661 
G01 X0.4190 Y0.2654 
G01 X0.4810 Y0.2654 
G01 X0.4827 Y0.2661 
G01 X0.4839 Y0.2673 
G01 X0.4846 Y0.2690 
G00 Z0.1000 
G00 X0.5846 Y0.2690 
G01 Z-0.0070 F10.00 
G01 X0.5846 Y0.3310 F20.00 
G01 X0.5839 Y0.3327 
G01 X0.5827 Y0.3339 
G01 X0.5810 Y0.3346 
G01 X0.5190 Y0.3346 
G01 X0.5173 Y0.3339 
G01 X0.5161 Y0.3327 
G01 X0.5154 Y0.3310 
G01 X0.5154 Y0.2690 
G01 X0.5161 Y0.2673 
G01 X0.5173 Y0.2661 
G01 X0.5190 Y0.2654 
G01 X0.5810 Y0.2654 
G01 X0.5827 Y0.2661 
G01 X0.5839 Y0.2673 
G01 X0.5846 Y0.2690 
G00 Z0.1000 
G00 X0.6846 Y0.2690 
G01 Z-0.0070 F10.00 
G01 X0.6846 Y0.3310 F20.00 
G01 X0.6839 Y0.3327 
G01 X0.6827 Y0.3339 
G01 X0.6810 Y0.3346 
G01 X0.6190 Y0.3346 
G01 X0.6173 Y0.3339 
G01 X0.6161 Y0.3327 
G01 X0.6154 Y0.3310 
G01 X0.6154 Y0.2690 
G01 X0.6161 Y0.2673 
G01 X0.6173 Y0.2661 
G01 X0.6190 Y0.2654 
G01 X0.6810 Y0.2654 
G01 X0.6827 Y0.2661 
G01 X0.6839 Y0.2673 
G01 X0.6846 Y0.2690 
G00 Z0.1000 
G00 X0.7846 Y0.2690 
G01 Z-0.0070 F10.00 
G01 X0.7846 Y0.3310 F20.00 
G01 X0.7839 Y0.3327 
G01 X0.7827 Y0.3339 
G01 X0.7810 Y0.3346 
G01 X0.7190 Y0.3346 
G01 X0.7173 Y0.3339 
G01 X0.7161 Y0.3327 
G01 X0.7154 Y0.3310 
G01 X0.7154 Y0.2690 
G01 X0.7161 Y0.2673 
G01 X0.7173 Y0.2661 
G01 X0.7190 Y0.2654 
G01 X0.7810 Y0.2654 
G01 X0.7827 Y0.2661 
G01 X0.7839 Y0.2673 
G01 X0.7846 Y0.2690 
G00 Z0.1000 
G00 X0.8846 Y0.2690 
G01 Z-0.0070 F10.00 
G01 X0.8846 Y0.3310 F20.00 
G01 X0.8839 Y0.3327 
G01 X0.8827 Y0.3339 
G01 X0.8810 Y0.3346 
G01 X0.8190 Y0.3346 
G01 X0.8173 Y0.3339 
G01 X0.8161 Y0.3327 
G01 X0.8154 Y0.3310 
G01 X0.8154 Y0.2690 
G01 X0.8161 Y0.2673 
G01 X0.8173 Y0.2661 
G01 X0.8190 Y0.2654 
G01 X0.8810 Y0.2654 
G01 X0.8827 Y0.2661 
G01 X0.8839 Y0.2673 
G01 X0.8846 Y0.2690 
G00 Z0.1000 
G00 X0.9846 Y0.2690 
G01 Z-0.0070 F10.00 
G01 X0.9846 Y0.3310 F20.00 
G01 X0.9839 Y0.3327 
G01 X0.9827 Y0.3339 
G01 X0.9810 Y0.3346 
G01 X0.9742 Y0.3346 
G01 X0.9742 Y0.6400 
G01 X1.0350 Y0.7008 
G01 X1.1011 Y0.7008 
G01 X1.1033 Y0.6986 
G01 X1.1089 Y0.6948 
G01 X1.1151 Y0.6923 
G01 X1.1216 Y0.6910 
G01 X1.1284 Y0.6910 
G01 X1.1349 Y0.6923 
G01 X1.1411 Y0.6948 
G01 X1.1467 Y0.6986 
G01 X1.1514 Y0.7033 
G01 X1.1552 Y0.7089 
G01 X1.1577 Y0.7151 
G01 X1.1590 Y0.7216 
G01 X1.1590 Y0.7284 
G01 X1.1577 Y0.7349 
G01 X1.1552 Y0.7411 
G01 X1.1514 Y0.7467 
G01 X1.1467 Y0.7514 
G01 X1.1411 Y0.7552 
G01 X1.1349 Y0.7577 
G01 X1.1284 Y0.7590 
G01 X1.1216 Y0.7590 
G01 X1.1151 Y0.7577 
G01 X1.1089 Y0.7552 
G01 X1.1033 Y0.7514 
G01 X1.1011 Y0.7492 
G01 X1.0226 Y0.7492 
G01 X1.0179 Y0.7483 
G01 X1.0135 Y0.7464 
G01 X1.0096 Y0.7438 
G01 X1.0062 Y0.7404 
G01 X0.9312 Y0.6654 
G01 X0.9286 Y0.6615 
G01 X0.9267 Y0.6571 
G01 X0.9258 Y0.6524 
G01 X0.9258 Y0.3346 
G01 X0.9190 Y0.3346 
G01 X0.9173 Y0.3339 
G01 X0.9161 Y0.3327 
G01 X0.9154 Y0.3310 
G01 X0.9154 Y0.2690 
G01 X0.9161 Y0.2673 
G01 X0.9173 Y0.2661 
G01 X0.9190 Y0.2654 
G01 X0.9810 Y0.2654 
G01 X0.9827 Y0.2661 
G01 X0.9839 Y0.2673 
G01 X0.9846 Y0.2690 
G00 Z0.1000 
G00 X1.1846 Y0.2690 
G01 Z-0.0070 F10.00 
G01 X1.1846 Y0.3310 F20.00 
G01 X1.1839 Y0.3327 
G01 X1.1827 Y0.3339 
G01 X1.1810 Y0.3346 
G01 X1.1190 Y0.3346 
G01 X1.1173 Y0.3339 
G01 X1.1161 Y0.3327 
G01 X1.1154 Y0.3310 
G01 X1.1154 Y0.2690 
G01 X1.1161 Y0.2673 
G01 X1.1173 Y0.2661 
G01 X1.1190 Y0.2654 
G01 X1.1810 Y0.2654 
G01 X1.1827 Y0.2661 
G01 X1.1839 Y0.2673 
G01 X1.1846 Y0.2690 
G00 Z0.1000 
G00 X1.2846 Y0.2690 
G01 Z-0.0070 F10.00 
G01 X1.2846 Y0.3310 F20.00 
G01 X1.2839 Y0.3327 
G01 X1.2827 Y0.3339 
G01 X1.2810 Y0.3346 
G01 X1.2190 Y0.3346 
G01 X1.2173 Y0.3339 
G01 X1.2161 Y0.3327 
G01 X1.2154 Y0.3310 
G01 X1.2154 Y0.2690 
G01 X1.2161 Y0.2673 
G01 X1.2173 Y0.2661 
G01 X1.2190 Y0.2654 
G01 X1.2810 Y0.2654 
G01 X1.2827 Y0.2661 
G01 X1.2839 Y0.2673 
G01 X1.2846 Y0.2690 
G00 Z0.1000 
G00 X1.3846 Y0.2690 
G01 Z-0.0070 F10.00 
G01 X1.3846 Y0.3310 F20.00 
G01 X1.3839 Y0.3327 
G01 X1.3827 Y0.3339 
G01 X1.3810 Y0.3346 
G01 X1.3190 Y0.3346 
G01 X1.3173 Y0.3339 
G01 X1.3161 Y0.3327 
G01 X1.3154 Y0.3310 
G01 X1.3154 Y0.2690 
G01 X1.3161 Y0.2673 
G01 X1.3173 Y0.2661 
G01 X1.3190 Y0.2654 
G01 X1.3258 Y0.2654 
G01 X1.3258 Y0.2009 
G01 X1.3257 Y0.1993 
G01 X1.3258 Y0.1985 
G01 X1.3258 Y0.1976 
G01 X1.3261 Y0.1961 
G01 X1.3263 Y0.1946 
G01 X1.3266 Y0.1938 
G01 X1.3267 Y0.1929 
G01 X1.3273 Y0.1915 
G01 X1.3278 Y0.1901 
G01 X1.3282 Y0.1893 
G01 X1.3286 Y0.1885 
G01 X1.3294 Y0.1873 
G01 X1.3302 Y0.1860 
G01 X1.3307 Y0.1853 
G01 X1.3312 Y0.1846 
G01 X1.3323 Y0.1835 
G01 X1.3333 Y0.1824 
G01 X1.3340 Y0.1818 
G01 X1.3346 Y0.1812 
G01 X1.3358 Y0.1804 
G01 X1.3371 Y0.1794 
G01 X1.3378 Y0.1790 
G01 X1.3385 Y0.1786 
G01 X1.3400 Y0.1780 
G01 X1.3878 Y0.1540 
G01 X1.3885 Y0.1536 
G01 X1.3900 Y0.1530 
G01 X1.3913 Y0.1523 
G01 X1.3921 Y0.1521 
G01 X1.3929 Y0.1517 
G01 X1.3944 Y0.1514 
G01 X1.3959 Y0.1510 
G01 X1.3968 Y0.1510 
G01 X1.3976 Y0.1508 
G01 X1.3991 Y0.1508 
G01 X1.4007 Y0.1507 
G01 X1.4015 Y0.1508 
G01 X1.9740 Y0.1508 
G01 X1.9753 Y0.1507 
G01 X1.9763 Y0.1508 
G01 X1.9774 Y0.1508 
G01 X1.9787 Y0.1511 
G01 X1.9800 Y0.1512 
G01 X1.9810 Y0.1515 
G01 X1.9821 Y0.1517 
G01 X1.9833 Y0.1523 
G01 X1.9846 Y0.1527 
G01 X1.9855 Y0.1532 
G01 X1.9865 Y0.1536 
G01 X1.9876 Y0.1543 
G01 X1.9888 Y0.1550 
G01 X1.9895 Y0.1556 
G01 X1.9904 Y0.1562 
G01 X1.9914 Y0.1572 
G01 X1.9924 Y0.1580 
G01 X1.9930 Y0.1588 
G01 X1.9938 Y0.1596 
G01 X1.9945 Y0.1607 
G01 X2.0784 Y0.2655 
G01 X2.1059 Y0.2655 
G01 X2.1075 Y0.2662 
G01 X2.1088 Y0.2675 
G01 X2.1095 Y0.2691 
G01 X2.1095 Y0.3309 
G01 X2.1088 Y0.3325 
G01 X2.1075 Y0.3338 
G01 X2.1059 Y0.3345 
G01 X2.0441 Y0.3345 
G01 X2.0425 Y0.3338 
G01 X2.0412 Y0.3325 
G01 X2.0405 Y0.3309 
G01 X2.0405 Y0.2956 
G01 X1.9634 Y0.1992 
G01 X1.4057 Y0.1992 
G01 X1.3742 Y0.2149 
G01 X1.3742 Y0.2654 
G01 X1.3810 Y0.2654 
G01 X1.3827 Y0.2661 
G01 X1.3839 Y0.2673 
G01 X1.3846 Y0.2690 
G00 Z0.1000 
G00 X1.4846 Y0.2690 
G01 Z-0.0070 F10.00 
G01 X1.4846 Y0.3310 F20.00 
G01 X1.4839 Y0.3327 
G01 X1.4827 Y0.3339 
G01 X1.4810 Y0.3346 
G01 X1.4742 Y0.3346 
G01 X1.4742 Y0.4132 
G01 X1.6881 Y0.5795 
G01 X1.6882 Y0.5796 
G01 X1.6900 Y0.5810 
G01 X1.6917 Y0.5824 
G01 X1.6918 Y0.5825 
G01 X1.8143 Y0.6805 
G01 X1.8154 Y0.6812 
G01 X1.8162 Y0.6820 
G01 X1.8170 Y0.6826 
G01 X1.8178 Y0.6836 
G01 X1.8188 Y0.6846 
G01 X1.8194 Y0.6855 
G01 X1.8200 Y0.6862 
G01 X1.8207 Y0.6874 
G01 X1.8214 Y0.6885 
G01 X1.8218 Y0.6895 
G01 X1.8223 Y0.6904 
G01 X1.8227 Y0.6917 
G01 X1.8233 Y0.6929 
G01 X1.8235 Y0.6940 
G01 X1.8238 Y0.6950 
G01 X1.8239 Y0.6963 
G01 X1.8242 Y0.6976 
G01 X1.8242 Y0.6987 
G01 X1.8243 Y0.6997 
G01 X1.8242 Y0.7010 
G01 X1.8242 Y1.1024 
G01 X1.8233 Y1.1071 
G01 X1.8214 Y1.1115 
G01 X1.8188 Y1.1154 
G01 X1.8154 Y1.1188 
G01 X1.6938 Y1.2404 
G01 X1.6904 Y1.2438 
G01 X1.6865 Y1.2464 
G01 X1.6821 Y1.2483 
G01 X1.6774 Y1.2492 
G01 X1.2600 Y1.2492 
G01 X1.2492 Y1.2600 
G01 X1.2492 Y1.6150 
G01 X1.2527 Y1.6176 
G01 X1.2574 Y1.6223 
G01 X1.2613 Y1.6277 
G01 X1.2644 Y1.6337 
G01 X1.2665 Y1.6400 
G01 X1.2675 Y1.6467 
G01 X1.2675 Y1.6533 
G01 X1.2665 Y1.6600 
G01 X1.2644 Y1.6663 
G01 X1.2613 Y1.6723 
G01 X1.2574 Y1.6777 
G01 X1.2527 Y1.6824 
G01 X1.2473 Y1.6863 
G01 X1.2413 Y1.6894 
G01 X1.2350 Y1.6915 
G01 X1.2283 Y1.6925 
G01 X1.2217 Y1.6925 
G01 X1.2150 Y1.6915 
G01 X1.2087 Y1.6894 
G01 X1.2027 Y1.6863 
G01 X1.1973 Y1.6824 
G01 X1.1926 Y1.6777 
G01 X1.1887 Y1.6723 
G01 X1.1856 Y1.6663 
G01 X1.1835 Y1.6600 
G01 X1.1825 Y1.6533 
G01 X1.1825 Y1.6467 
G01 X1.1835 Y1.6400 
G01 X1.1856 Y1.6337 
G01 X1.1887 Y1.6277 
G01 X1.1926 Y1.6223 
G01 X1.1973 Y1.6176 
G01 X1.2008 Y1.6150 
G01 X1.2008 Y1.2476 
G01 X1.2017 Y1.2429 
G01 X1.2036 Y1.2385 
G01 X1.2062 Y1.2346 
G01 X1.2312 Y1.2096 
G01 X1.2346 Y1.2062 
G01 X1.2385 Y1.2036 
G01 X1.2429 Y1.2017 
G01 X1.2476 Y1.2008 
G01 X1.6650 Y1.2008 
G01 X1.7758 Y1.0900 
G01 X1.7758 Y0.7116 
G01 X1.6600 Y0.6190 
G01 X1.4358 Y0.4446 
G01 X1.4346 Y0.4438 
G01 X1.4340 Y0.4432 
G01 X1.4333 Y0.4426 
G01 X1.4323 Y0.4415 
G01 X1.4312 Y0.4404 
G01 X1.4307 Y0.4397 
G01 X1.4302 Y0.4390 
G01 X1.4294 Y0.4377 
G01 X1.4286 Y0.4365 
G01 X1.4282 Y0.4356 
G01 X1.4278 Y0.4349 
G01 X1.4273 Y0.4335 
G01 X1.4267 Y0.4321 
G01 X1.4266 Y0.4312 
G01 X1.4263 Y0.4304 
G01 X1.4261 Y0.4289 
G01 X1.4258 Y0.4274 
G01 X1.4258 Y0.4265 
G01 X1.4257 Y0.4256 
G01 X1.4258 Y0.4241 
G01 X1.4258 Y0.3346 
G01 X1.4190 Y0.3346 
G01 X1.4173 Y0.3339 
G01 X1.4161 Y0.3327 
G01 X1.4154 Y0.3310 
G01 X1.4154 Y0.2690 
G01 X1.4161 Y0.2673 
G01 X1.4173 Y0.2661 
G01 X1.4190 Y0.2654 
G01 X1.4810 Y0.2654 
G01 X1.4827 Y0.2661 
G01 X1.4839 Y0.2673 
G01 X1.4846 Y0.2690 
G00 Z0.1000 
G00 X0.6846 Y0.7690 
G01 Z-0.0070 F10.00 
G01 X0.6846 Y0.8310 F20.00 
G01 X0.6839 Y0.8327 
G01 X0.6827 Y0.8339 
G01 X0.6810 Y0.8346 
G01 X0.6190 Y0.8346 
G01 X0.6173 Y0.8339 
G01 X0.6161 Y0.8327 
G01 X0.6154 Y0.8310 
G01 X0.6154 Y0.7690 
G01 X0.6161 Y0.7673 
G01 X0.6173 Y0.7661 
G01 X0.6190 Y0.7654 
G01 X0.6810 Y0.7654 
G01 X0.6827 Y0.7661 
G01 X0.6839 Y0.7673 
G01 X0.6846 Y0.7690 
G00 Z0.1000 
G00 X0.7846 Y0.7690 
G01 Z-0.0070 F10.00 
G01 X0.7846 Y0.8310 F20.00 
G01 X0.7839 Y0.8327 
G01 X0.7827 Y0.8339 
G01 X0.7810 Y0.8346 
G01 X0.7190 Y0.8346 
G01 X0.7173 Y0.8339 
G01 X0.7161 Y0.8327 
G01 X0.7154 Y0.8310 
G01 X0.7154 Y0.7690 
G01 X0.7161 Y0.7673 
G01 X0.7173 Y0.7661 
G01 X0.7190 Y0.7654 
G01 X0.7810 Y0.7654 
G01 X0.7827 Y0.7661 
G01 X0.7839 Y0.7673 
G01 X0.7846 Y0.7690 
G00 Z0.1000 
G00 X0.8846 Y0.7690 
G01 Z-0.0070 F10.00 
G01 X0.8846 Y0.8310 F20.00 
G01 X0.8839 Y0.8327 
G01 X0.8827 Y0.8339 
G01 X0.8810 Y0.8346 
G01 X0.8190 Y0.8346 
G01 X0.8173 Y0.8339 
G01 X0.8161 Y0.8327 
G01 X0.8154 Y0.8310 
G01 X0.8154 Y0.7690 
G01 X0.8161 Y0.7673 
G01 X0.8173 Y0.7661 
G01 X0.8190 Y0.7654 
G01 X0.8810 Y0.7654 
G01 X0.8827 Y0.7661 
G01 X0.8839 Y0.7673 
G01 X0.8846 Y0.7690 
G00 Z0.1000 
G00 X1.0675 Y1.6467 
G01 Z-0.0070 F10.00 
G01 X1.0675 Y1.6533 F20.00 
G01 X1.0665 Y1.6600 
G01 X1.0644 Y1.6663 
G01 X1.0613 Y1.6723 
G01 X1.0574 Y1.6777 
G01 X1.0527 Y1.6824 
G01 X1.0473 Y1.6863 
G01 X1.0413 Y1.6894 
G01 X1.0350 Y1.6915 
G01 X1.0283 Y1.6925 
G01 X1.0217 Y1.6925 
G01 X1.0150 Y1.6915 
G01 X1.0087 Y1.6894 
G01 X1.0027 Y1.6863 
G01 X0.9973 Y1.6824 
G01 X0.9926 Y1.6777 
G01 X0.9887 Y1.6723 
G01 X0.9856 Y1.6663 
G01 X0.9835 Y1.6600 
G01 X0.9825 Y1.6533 
G01 X0.9825 Y1.6467 
G01 X0.9835 Y1.6400 
G01 X0.9856 Y1.6337 
G01 X0.9887 Y1.6277 
G01 X0.9926 Y1.6223 
G01 X0.9973 Y1.6176 
G01 X1.0008 Y1.6150 
G01 X1.0008 Y0.9664 
G01 X1.0017 Y0.9617 
G01 X1.0036 Y0.9573 
G01 X1.0062 Y0.9533 
G01 X1.0150 Y0.9446 
G01 X1.0150 Y0.9084 
G01 X1.0154 Y0.9065 
G01 X1.0154 Y0.8690 
G01 X1.0161 Y0.8673 
G01 X1.0173 Y0.8661 
G01 X1.0190 Y0.8654 
G01 X1.0810 Y0.8654 
G01 X1.0827 Y0.8661 
G01 X1.0839 Y0.8673 
G01 X1.0846 Y0.8690 
G01 X1.0846 Y0.9310 
G01 X1.0839 Y0.9327 
G01 X1.0827 Y0.9339 
G01 X1.0810 Y0.9346 
G01 X1.0634 Y0.9346 
G01 X1.0634 Y0.9570 
G01 X1.0624 Y0.9616 
G01 X1.0606 Y0.9660 
G01 X1.0580 Y0.9700 
G01 X1.0546 Y0.9734 
G01 X1.0492 Y0.9788 
G01 X1.0492 Y1.6150 
G01 X1.0527 Y1.6176 
G01 X1.0574 Y1.6223 
G01 X1.0613 Y1.6277 
G01 X1.0644 Y1.6337 
G01 X1.0665 Y1.6400 
G01 X1.0675 Y1.6467 
G00 Z0.1000 
G00 X1.1675 Y1.6467 
G01 Z-0.0070 F10.00 
G01 X1.1675 Y1.6533 F20.00 
G01 X1.1665 Y1.6600 
G01 X1.1644 Y1.6663 
G01 X1.1613 Y1.6723 
G01 X1.1574 Y1.6777 
G01 X1.1527 Y1.6824 
G01 X1.1473 Y1.6863 
G01 X1.1413 Y1.6894 
G01 X1.1350 Y1.6915 
G01 X1.1283 Y1.6925 
G01 X1.1217 Y1.6925 
G01 X1.1150 Y1.6915 
G01 X1.1087 Y1.6894 
G01 X1.1027 Y1.6863 
G01 X1.0973 Y1.6824 
G01 X1.0926 Y1.6777 
G01 X1.0887 Y1.6723 
G01 X1.0856 Y1.6663 
G01 X1.0835 Y1.6600 
G01 X1.0825 Y1.6533 
G01 X1.0825 Y1.6467 
G01 X1.0835 Y1.6400 
G01 X1.0856 Y1.6337 
G01 X1.0887 Y1.6277 
G01 X1.0926 Y1.6223 
G01 X1.0973 Y1.6176 
G01 X1.1008 Y1.6150 
G01 X1.1008 Y0.9664 
G01 X1.1017 Y0.9617 
G01 X1.1036 Y0.9573 
G01 X1.1062 Y0.9533 
G01 X1.1150 Y0.9446 
G01 X1.1150 Y0.9084 
G01 X1.1154 Y0.9065 
G01 X1.1154 Y0.8690 
G01 X1.1161 Y0.8673 
G01 X1.1173 Y0.8661 
G01 X1.1190 Y0.8654 
G01 X1.1810 Y0.8654 
G01 X1.1827 Y0.8661 
G01 X1.1839 Y0.8673 
G01 X1.1846 Y0.8690 
G01 X1.1846 Y0.9310 
G01 X1.1839 Y0.9327 
G01 X1.1827 Y0.9339 
G01 X1.1810 Y0.9346 
G01 X1.1634 Y0.9346 
G01 X1.1634 Y0.9570 
G01 X1.1624 Y0.9616 
G01 X1.1606 Y0.9660 
G01 X1.1580 Y0.9700 
G01 X1.1546 Y0.9734 
G01 X1.1492 Y0.9788 
G01 X1.1492 Y1.6150 
G01 X1.1527 Y1.6176 
G01 X1.1574 Y1.6223 
G01 X1.1613 Y1.6277 
G01 X1.1644 Y1.6337 
G01 X1.1665 Y1.6400 
G01 X1.1675 Y1.6467 
G00 Z0.1000 
G00 X1.3675 Y1.6467 
G01 Z-0.0070 F10.00 
G01 X1.3675 Y1.6533 F20.00 
G01 X1.3665 Y1.6600 
G01 X1.3644 Y1.6663 
G01 X1.3613 Y1.6723 
G01 X1.3574 Y1.6777 
G01 X1.3527 Y1.6824 
G01 X1.3473 Y1.6863 
G01 X1.3413 Y1.6894 
G01 X1.3350 Y1.6915 
G01 X1.3283 Y1.6925 
G01 X1.3217 Y1.6925 
G01 X1.3150 Y1.6915 
G01 X1.3087 Y1.6894 
G01 X1.3027 Y1.6863 
G01 X1.2973 Y1.6824 
G01 X1.2926 Y1.6777 
G01 X1.2887 Y1.6723 
G01 X1.2856 Y1.6663 
G01 X1.2835 Y1.6600 
G01 X1.2825 Y1.6533 
G01 X1.2825 Y1.6467 
G01 X1.2835 Y1.6400 
G01 X1.2856 Y1.6337 
G01 X1.2887 Y1.6277 
G01 X1.2926 Y1.6223 
G01 X1.2973 Y1.6176 
G01 X1.3008 Y1.6150 
G01 X1.3008 Y1.3726 
G01 X1.3017 Y1.3679 
G01 X1.3036 Y1.3635 
G01 X1.3062 Y1.3596 
G01 X1.3562 Y1.3096 
G01 X1.3596 Y1.3062 
G01 X1.3635 Y1.3036 
G01 X1.3679 Y1.3017 
G01 X1.3726 Y1.3008 
G01 X1.7400 Y1.3008 
G01 X1.8758 Y1.1650 
G01 X1.8758 Y0.6618 
G01 X1.5358 Y0.3946 
G01 X1.5346 Y0.3938 
G01 X1.5339 Y0.3931 
G01 X1.5332 Y0.3925 
G01 X1.5322 Y0.3914 
G01 X1.5312 Y0.3904 
G01 X1.5307 Y0.3896 
G01 X1.5301 Y0.3889 
G01 X1.5294 Y0.3877 
G01 X1.5286 Y0.3865 
G01 X1.5282 Y0.3856 
G01 X1.5278 Y0.3848 
G01 X1.5273 Y0.3834 
G01 X1.5267 Y0.3821 
G01 X1.5266 Y0.3811 
G01 X1.5263 Y0.3802 
G01 X1.5261 Y0.3788 
G01 X1.5258 Y0.3774 
G01 X1.5258 Y0.3764 
G01 X1.5257 Y0.3755 
G01 X1.5258 Y0.3741 
G01 X1.5258 Y0.3346 
G01 X1.5190 Y0.3346 
G01 X1.5173 Y0.3339 
G01 X1.5161 Y0.3327 
G01 X1.5154 Y0.3310 
G01 X1.5154 Y0.2690 
G01 X1.5161 Y0.2673 
G01 X1.5173 Y0.2661 
G01 X1.5190 Y0.2654 
G01 X1.5810 Y0.2654 
G01 X1.5827 Y0.2661 
G01 X1.5839 Y0.2673 
G01 X1.5846 Y0.2690 
G01 X1.5846 Y0.3310 
G01 X1.5839 Y0.3327 
G01 X1.5827 Y0.3339 
G01 X1.5810 Y0.3346 
G01 X1.5742 Y0.3346 
G01 X1.5742 Y0.3632 
G01 X1.9142 Y0.6304 
G01 X1.9154 Y0.6312 
G01 X1.9161 Y0.6319 
G01 X1.9168 Y0.6325 
G01 X1.9178 Y0.6336 
G01 X1.9188 Y0.6346 
G01 X1.9193 Y0.6354 
G01 X1.9199 Y0.6361 
G01 X1.9206 Y0.6373 
G01 X1.9214 Y0.6385 
G01 X1.9218 Y0.6394 
G01 X1.9222 Y0.6402 
G01 X1.9227 Y0.6416 
G01 X1.9233 Y0.6429 
G01 X1.9234 Y0.6439 
G01 X1.9237 Y0.6448 
G01 X1.9239 Y0.6462 
G01 X1.9242 Y0.6476 
G01 X1.9242 Y0.6486 
G01 X1.9243 Y0.6495 
G01 X1.9242 Y0.6509 
G01 X1.9242 Y1.1774 
G01 X1.9233 Y1.1821 
G01 X1.9214 Y1.1865 
G01 X1.9188 Y1.1904 
G01 X1.7688 Y1.3404 
G01 X1.7654 Y1.3438 
G01 X1.7615 Y1.3464 
G01 X1.7571 Y1.3483 
G01 X1.7524 Y1.3492 
G01 X1.3850 Y1.3492 
G01 X1.3492 Y1.3850 
G01 X1.3492 Y1.6150 
G01 X1.3527 Y1.6176 
G01 X1.3574 Y1.6223 
G01 X1.3613 Y1.6277 
G01 X1.3644 Y1.6337 
G01 X1.3665 Y1.6400 
G01 X1.3675 Y1.6467 
G00 Z0.1000 
G00 X1.5087 Y1.6894 
G01 Z-0.0070 F10.00 
G01 X1.5027 Y1.6863 F20.00 
G01 X1.4973 Y1.6824 
G01 X1.4926 Y1.6777 
G01 X1.4887 Y1.6723 
G01 X1.4856 Y1.6663 
G01 X1.4835 Y1.6600 
G01 X1.4825 Y1.6533 
G01 X1.4825 Y1.6467 
G01 X1.4835 Y1.6400 
G01 X1.4856 Y1.6337 
G01 X1.4887 Y1.6277 
G01 X1.4926 Y1.6223 
G01 X1.4973 Y1.6176 
G01 X1.5008 Y1.6150 
G01 X1.5008 Y1.5921 
G01 X1.5008 Y1.5909 
G01 X1.5002 Y1.5894 
G01 X1.4992 Y1.5847 
G01 X1.4992 Y1.5634 
G01 X1.5002 Y1.5587 
G01 X1.5008 Y1.5572 
G01 X1.5008 Y1.5476 
G01 X1.5017 Y1.5429 
G01 X1.5036 Y1.5385 
G01 X1.5062 Y1.5346 
G01 X1.5096 Y1.5312 
G01 X1.5558 Y1.4850 
G01 X1.5598 Y1.4823 
G01 X1.5642 Y1.4805 
G01 X1.5689 Y1.4796 
G01 X1.8754 Y1.4796 
G01 X1.8930 Y1.4620 
G01 X2.0629 Y1.2921 
G01 X2.0742 Y1.2648 
G01 X2.0742 Y0.5900 
G01 X2.0741 Y0.5890 
G01 X2.0742 Y0.5876 
G01 X2.0742 Y0.5862 
G01 X2.0744 Y0.5852 
G01 X2.0745 Y0.5843 
G01 X2.0749 Y0.5829 
G01 X2.0752 Y0.5815 
G01 X2.0755 Y0.5808 
G01 X2.0745 Y0.5729 
G01 X2.0742 Y0.5715 
G01 X2.0742 Y0.5706 
G01 X2.0741 Y0.5696 
G01 X2.0742 Y0.5682 
G01 X2.0742 Y0.5573 
G01 X2.0746 Y0.5555 
G01 X2.0752 Y0.5526 
G01 X2.0770 Y0.5482 
G01 X2.0796 Y0.5443 
G01 X2.0830 Y0.5409 
G01 X2.0870 Y0.5383 
G01 X2.0875 Y0.5380 
G01 X2.0914 Y0.5364 
G01 X2.0960 Y0.5355 
G01 X2.1008 Y0.5355 
G01 X2.1055 Y0.5355 
G01 X2.1066 Y0.5353 
G01 X2.1076 Y0.5349 
G01 X2.1085 Y0.5343 
G01 X2.1093 Y0.5335 
G01 X2.1099 Y0.5326 
G01 X2.1103 Y0.5316 
G01 X2.1105 Y0.5305 
G01 X2.1105 Y0.5242 
G01 X2.1095 Y0.5242 
G01 X2.1095 Y0.5309 
G01 X2.1088 Y0.5325 
G01 X2.1075 Y0.5338 
G01 X2.1059 Y0.5345 
G01 X2.0441 Y0.5345 
G01 X2.0425 Y0.5338 
G01 X2.0412 Y0.5325 
G01 X2.0405 Y0.5309 
G01 X2.0405 Y0.4691 
G01 X2.0412 Y0.4675 
G01 X2.0425 Y0.4662 
G01 X2.0441 Y0.4655 
G01 X2.1059 Y0.4655 
G01 X2.1075 Y0.4662 
G01 X2.1088 Y0.4675 
G01 X2.1095 Y0.4691 
G01 X2.1095 Y0.4758 
G01 X2.1370 Y0.4758 
G01 X2.1383 Y0.4752 
G01 X2.1385 Y0.4752 
G01 X2.1432 Y0.4742 
G01 X2.1818 Y0.4742 
G01 X2.1865 Y0.4752 
G01 X2.1880 Y0.4758 
G01 X2.2155 Y0.4758 
G01 X2.2155 Y0.4691 
G01 X2.2162 Y0.4675 
G01 X2.2175 Y0.4662 
G01 X2.2191 Y0.4655 
G01 X2.2809 Y0.4655 
G01 X2.2825 Y0.4662 
G01 X2.2838 Y0.4675 
G01 X2.2845 Y0.4691 
G01 X2.2845 Y0.5309 
G01 X2.2838 Y0.5325 
G01 X2.2825 Y0.5338 
G01 X2.2809 Y0.5345 
G01 X2.2191 Y0.5345 
G01 X2.2175 Y0.5338 
G01 X2.2162 Y0.5325 
G01 X2.2155 Y0.5309 
G01 X2.2155 Y0.5242 
G01 X2.2145 Y0.5242 
G01 X2.2145 Y0.5305 
G01 X2.2147 Y0.5316 
G01 X2.2151 Y0.5326 
G01 X2.2157 Y0.5335 
G01 X2.2165 Y0.5343 
G01 X2.2174 Y0.5349 
G01 X2.2184 Y0.5353 
G01 X2.2195 Y0.5355 
G01 X2.2518 Y0.5355 
G01 X2.2546 Y0.5361 
G01 X2.2565 Y0.5364 
G01 X2.2568 Y0.5366 
G01 X2.2609 Y0.5383 
G01 X2.2648 Y0.5409 
G01 X2.2682 Y0.5443 
G01 X2.2705 Y0.5477 
G01 X2.2708 Y0.5482 
G01 X2.2722 Y0.5516 
G01 X2.2727 Y0.5526 
G01 X2.2732 Y0.5554 
G01 X2.2736 Y0.5573 
G01 X2.2736 Y0.5621 
G01 X2.2730 Y0.5648 
G01 X2.2727 Y0.5667 
G01 X2.2725 Y0.5671 
G01 X2.2708 Y0.5711 
G01 X2.2703 Y0.5724 
G01 X2.2685 Y0.5768 
G01 X2.2659 Y0.5807 
G01 X2.2625 Y0.5841 
G01 X2.2601 Y0.5857 
G01 X2.2585 Y0.5867 
G01 X2.2570 Y0.5874 
G01 X2.2541 Y0.5886 
G01 X2.2531 Y0.5888 
G01 X2.2495 Y0.5895 
G01 X2.2195 Y0.5895 
G01 X2.2184 Y0.5897 
G01 X2.2174 Y0.5901 
G01 X2.2165 Y0.5907 
G01 X2.2157 Y0.5915 
G01 X2.2151 Y0.5924 
G01 X2.2147 Y0.5934 
G01 X2.2145 Y0.5945 
G01 X2.2145 Y0.6008 
G01 X2.2155 Y0.6008 
G01 X2.2155 Y0.5941 
G01 X2.2162 Y0.5925 
G01 X2.2175 Y0.5912 
G01 X2.2191 Y0.5905 
G01 X2.2809 Y0.5905 
G01 X2.2825 Y0.5912 
G01 X2.2838 Y0.5925 
G01 X2.2845 Y0.5941 
G01 X2.2845 Y0.6559 
G01 X2.2838 Y0.6575 
G01 X2.2825 Y0.6588 
G01 X2.2809 Y0.6595 
G01 X2.2191 Y0.6595 
G01 X2.2175 Y0.6588 
G01 X2.2162 Y0.6575 
G01 X2.2155 Y0.6559 
G01 X2.2155 Y0.6492 
G01 X2.2145 Y0.6492 
G01 X2.2145 Y0.6555 
G01 X2.2147 Y0.6566 
G01 X2.2151 Y0.6576 
G01 X2.2157 Y0.6585 
G01 X2.2165 Y0.6593 
G01 X2.2174 Y0.6599 
G01 X2.2184 Y0.6603 
G01 X2.2195 Y0.6605 
G01 X2.2495 Y0.6605 
G01 X2.2541 Y0.6614 
G01 X2.2585 Y0.6633 
G01 X2.2625 Y0.6659 
G01 X2.2659 Y0.6693 
G01 X2.2685 Y0.6732 
G01 X2.2703 Y0.6776 
G01 X2.2730 Y0.6841 
G01 X2.2748 Y0.6883 
G01 X2.2748 Y0.6885 
G01 X2.2758 Y0.6932 
G01 X2.2758 Y0.7436 
G01 X2.2748 Y0.7483 
G01 X2.2730 Y0.7527 
G01 X2.2704 Y0.7567 
G01 X2.2670 Y0.7600 
G01 X2.2630 Y0.7627 
G01 X2.2586 Y0.7645 
G01 X2.2540 Y0.7654 
G01 X2.1841 Y0.7654 
G01 X2.1641 Y0.7738 
G01 X2.1488 Y0.7891 
G01 X2.1404 Y0.8091 
G01 X2.1404 Y0.8909 
G01 X2.1409 Y0.8918 
G01 X2.1413 Y0.8929 
G01 X2.1417 Y0.8948 
G01 X2.1422 Y0.8976 
G01 X2.1422 Y0.9024 
G01 X2.1417 Y0.9051 
G01 X2.1413 Y0.9071 
G01 X2.1408 Y0.9082 
G01 X2.1404 Y0.9091 
G01 X2.1404 Y0.9909 
G01 X2.1408 Y0.9917 
G01 X2.1413 Y0.9929 
G01 X2.1417 Y0.9948 
G01 X2.1422 Y0.9976 
G01 X2.1422 Y1.0024 
G01 X2.1417 Y1.0051 
G01 X2.1413 Y1.0071 
G01 X2.1409 Y1.0081 
G01 X2.1404 Y1.0091 
G01 X2.1404 Y1.0909 
G01 X2.1488 Y1.1109 
G01 X2.1641 Y1.1262 
G01 X2.1724 Y1.1297 
G01 X2.1768 Y1.1315 
G01 X2.1807 Y1.1341 
G01 X2.1841 Y1.1375 
G01 X2.1867 Y1.1415 
G01 X2.1886 Y1.1459 
G01 X2.1895 Y1.1505 
G01 X2.1895 Y1.1749 
G01 X2.1905 Y1.1723 
G01 X2.1905 Y1.1191 
G01 X2.1912 Y1.1175 
G01 X2.1925 Y1.1162 
G01 X2.1941 Y1.1155 
G01 X2.2559 Y1.1155 
G01 X2.2575 Y1.1162 
G01 X2.2588 Y1.1175 
G01 X2.2595 Y1.1191 
G01 X2.2595 Y1.1809 
G01 X2.2588 Y1.1825 
G01 X2.2575 Y1.1838 
G01 X2.2559 Y1.1845 
G01 X2.2492 Y1.1845 
G01 X2.2492 Y1.1855 
G01 X2.2555 Y1.1855 
G01 X2.2566 Y1.1853 
G01 X2.2576 Y1.1849 
G01 X2.2585 Y1.1843 
G01 X2.2593 Y1.1835 
G01 X2.2599 Y1.1826 
G01 X2.2603 Y1.1816 
G01 X2.2605 Y1.1805 
G01 X2.2605 Y1.1505 
G01 X2.2614 Y1.1459 
G01 X2.2633 Y1.1415 
G01 X2.2659 Y1.1375 
G01 X2.2693 Y1.1341 
G01 X2.2732 Y1.1315 
G01 X2.2776 Y1.1297 
G01 X2.2859 Y1.1262 
G01 X2.3012 Y1.1109 
G01 X2.3017 Y1.1097 
G01 X2.3030 Y1.1067 
G01 X2.3036 Y1.1053 
G01 X2.3044 Y1.1040 
G01 X2.3062 Y1.1013 
G01 X2.3096 Y1.0980 
G01 X2.3135 Y1.0953 
G01 X2.3140 Y1.0951 
G01 X2.3179 Y1.0935 
G01 X2.3226 Y1.0926 
G01 X2.3274 Y1.0926 
G01 X2.3292 Y1.0929 
G01 X2.3321 Y1.0935 
G01 X2.3365 Y1.0953 
G01 X2.3377 Y1.0962 
G01 X2.3404 Y1.0980 
G01 X2.3438 Y1.1013 
G01 X2.3464 Y1.1053 
G01 X2.3468 Y1.1062 
G01 X2.3483 Y1.1097 
G01 X2.3488 Y1.1109 
G01 X2.3641 Y1.1262 
G01 X2.3724 Y1.1297 
G01 X2.3768 Y1.1315 
G01 X2.3807 Y1.1341 
G01 X2.3840 Y1.1375 
G01 X2.3867 Y1.1415 
G01 X2.3886 Y1.1459 
G01 X2.3893 Y1.1496 
G01 X2.3895 Y1.1505 
G01 X2.3895 Y1.1805 
G01 X2.3897 Y1.1816 
G01 X2.3901 Y1.1826 
G01 X2.3907 Y1.1835 
G01 X2.3915 Y1.1843 
G01 X2.3924 Y1.1849 
G01 X2.3934 Y1.1853 
G01 X2.3945 Y1.1855 
G01 X2.4008 Y1.1855 
G01 X2.4008 Y1.1845 
G01 X2.3941 Y1.1845 
G01 X2.3925 Y1.1838 
G01 X2.3912 Y1.1825 
G01 X2.3905 Y1.1809 
G01 X2.3905 Y1.1191 
G01 X2.3912 Y1.1175 
G01 X2.3925 Y1.1162 
G01 X2.3941 Y1.1155 
G01 X2.4559 Y1.1155 
G01 X2.4575 Y1.1162 
G01 X2.4588 Y1.1175 
G01 X2.4595 Y1.1191 
G01 X2.4595 Y1.1809 
G01 X2.4588 Y1.1825 
G01 X2.4575 Y1.1838 
G01 X2.4559 Y1.1845 
G01 X2.4492 Y1.1845 
G01 X2.4492 Y1.1855 
G01 X2.4555 Y1.1855 
G01 X2.4566 Y1.1853 
G01 X2.4576 Y1.1849 
G01 X2.4585 Y1.1843 
G01 X2.4593 Y1.1835 
G01 X2.4599 Y1.1826 
G01 X2.4603 Y1.1816 
G01 X2.4605 Y1.1805 
G01 X2.4605 Y1.1505 
G01 X2.4607 Y1.1497 
G01 X2.4614 Y1.1459 
G01 X2.4633 Y1.1415 
G01 X2.4659 Y1.1375 
G01 X2.4693 Y1.1341 
G01 X2.4732 Y1.1315 
G01 X2.4776 Y1.1297 
G01 X2.4859 Y1.1262 
G01 X2.5012 Y1.1109 
G01 X2.5096 Y1.0909 
G01 X2.5096 Y1.0091 
G01 X2.5091 Y1.0082 
G01 X2.5087 Y1.0071 
G01 X2.5083 Y1.0052 
G01 X2.5078 Y1.0024 
G01 X2.5078 Y0.9976 
G01 X2.5083 Y0.9949 
G01 X2.5087 Y0.9929 
G01 X2.5092 Y0.9918 
G01 X2.5096 Y0.9909 
G01 X2.5096 Y0.9091 
G01 X2.5091 Y0.9082 
G01 X2.5087 Y0.9071 
G01 X2.5083 Y0.9052 
G01 X2.5078 Y0.9024 
G01 X2.5078 Y0.8976 
G01 X2.5083 Y0.8949 
G01 X2.5087 Y0.8929 
G01 X2.5092 Y0.8918 
G01 X2.5096 Y0.8909 
G01 X2.5096 Y0.8091 
G01 X2.5012 Y0.7891 
G01 X2.4859 Y0.7738 
G01 X2.4659 Y0.7654 
G01 X2.4531 Y0.7654 
G01 X2.4516 Y0.7651 
G01 X2.4484 Y0.7645 
G01 X2.4440 Y0.7627 
G01 X2.4400 Y0.7600 
G01 X2.4296 Y0.7496 
G01 X2.4287 Y0.7483 
G01 X2.4270 Y0.7457 
G01 X2.4252 Y0.7413 
G01 X2.4242 Y0.7366 
G01 X2.4242 Y0.7314 
G01 X2.4252 Y0.7267 
G01 X2.4270 Y0.7223 
G01 X2.4296 Y0.7183 
G01 X2.4330 Y0.7150 
G01 X2.4370 Y0.7123 
G01 X2.4414 Y0.7105 
G01 X2.4460 Y0.7096 
G01 X2.4909 Y0.7096 
G01 X2.5109 Y0.7012 
G01 X2.5262 Y0.6859 
G01 X2.5346 Y0.6659 
G01 X2.5346 Y0.5841 
G01 X2.5262 Y0.5641 
G01 X2.5082 Y0.5461 
G01 X2.5070 Y0.5450 
G01 X2.5065 Y0.5444 
G01 X2.5060 Y0.5438 
G01 X2.5051 Y0.5425 
G01 X2.5041 Y0.5412 
G01 X2.5038 Y0.5405 
G01 X2.5033 Y0.5399 
G01 X2.5027 Y0.5384 
G01 X2.5020 Y0.5370 
G01 X2.5018 Y0.5362 
G01 X2.5015 Y0.5355 
G01 X2.5012 Y0.5339 
G01 X2.5008 Y0.5324 
G01 X2.5007 Y0.5316 
G01 X2.5006 Y0.5308 
G01 X2.5006 Y0.5292 
G01 X2.5005 Y0.5276 
G01 X2.5006 Y0.5268 
G01 X2.5006 Y0.5260 
G01 X2.5009 Y0.5245 
G01 X2.5011 Y0.5229 
G01 X2.5014 Y0.5221 
G01 X2.5015 Y0.5214 
G01 X2.5021 Y0.5199 
G01 X2.5026 Y0.5184 
G01 X2.5030 Y0.5177 
G01 X2.5033 Y0.5170 
G01 X2.5042 Y0.5156 
G01 X2.5050 Y0.5143 
G01 X2.5055 Y0.5137 
G01 X2.5060 Y0.5130 
G01 X2.5071 Y0.5119 
G01 X2.5082 Y0.5107 
G01 X2.5088 Y0.5102 
G01 X2.5093 Y0.5096 
G01 X2.5107 Y0.5087 
G01 X2.5119 Y0.5078 
G01 X2.5126 Y0.5074 
G01 X2.5133 Y0.5070 
G01 X2.5148 Y0.5064 
G01 X2.5162 Y0.5057 
G01 X2.5170 Y0.5055 
G01 X2.5177 Y0.5052 
G01 X2.5193 Y0.5048 
G01 X2.5597 Y0.4940 
G01 X2.5949 Y0.4737 
G01 X2.6237 Y0.4449 
G01 X2.6440 Y0.4097 
G01 X2.6477 Y0.3960 
G01 X2.6480 Y0.3944 
G01 X2.6483 Y0.3937 
G01 X2.6485 Y0.3929 
G01 X2.6492 Y0.3915 
G01 X2.6498 Y0.3900 
G01 X2.6503 Y0.3893 
G01 X2.6506 Y0.3886 
G01 X2.6516 Y0.3874 
G01 X2.6525 Y0.3860 
G01 X2.6530 Y0.3855 
G01 X2.6535 Y0.3848 
G01 X2.6547 Y0.3838 
G01 X2.6558 Y0.3827 
G01 X2.6565 Y0.3822 
G01 X2.6571 Y0.3817 
G01 X2.6585 Y0.3809 
G01 X2.6598 Y0.3800 
G01 X2.6605 Y0.3797 
G01 X2.6612 Y0.3793 
G01 X2.6627 Y0.3788 
G01 X2.6642 Y0.3782 
G01 X2.6650 Y0.3780 
G01 X2.6657 Y0.3778 
G01 X2.6673 Y0.3776 
G01 X2.6689 Y0.3773 
G01 X2.6697 Y0.3773 
G01 X2.6705 Y0.3772 
G01 X2.6721 Y0.3773 
G01 X2.6736 Y0.3773 
G01 X2.6744 Y0.3774 
G01 X2.6752 Y0.3775 
G01 X2.6768 Y0.3779 
G01 X2.6783 Y0.3782 
G01 X2.6791 Y0.3785 
G01 X2.6798 Y0.3787 
G01 X2.6812 Y0.3794 
G01 X2.6827 Y0.3800 
G01 X2.6834 Y0.3805 
G01 X2.6841 Y0.3808 
G01 X2.6854 Y0.3818 
G01 X2.6867 Y0.3827 
G01 X2.6872 Y0.3832 
G01 X2.6879 Y0.3837 
G01 X2.6889 Y0.3849 
G01 X2.6900 Y0.3860 
G01 X2.6905 Y0.3867 
G01 X2.6910 Y0.3873 
G01 X2.6918 Y0.3887 
G01 X2.6927 Y0.3900 
G01 X2.6930 Y0.3907 
G01 X2.6934 Y0.3914 
G01 X2.6939 Y0.3929 
G01 X2.6945 Y0.3944 
G01 X2.6947 Y0.3952 
G01 X2.6949 Y0.3959 
G01 X2.6951 Y0.3975 
G01 X2.6954 Y0.3991 
G01 X2.6954 Y0.3999 
G01 X2.6955 Y0.4007 
G01 X2.6954 Y0.4022 
G01 X2.6954 Y1.4728 
G01 X2.6955 Y1.4743 
G01 X2.6954 Y1.4751 
G01 X2.6954 Y1.4759 
G01 X2.6951 Y1.4775 
G01 X2.6949 Y1.4791 
G01 X2.6947 Y1.4798 
G01 X2.6945 Y1.4806 
G01 X2.6939 Y1.4821 
G01 X2.6934 Y1.4836 
G01 X2.6930 Y1.4843 
G01 X2.6927 Y1.4850 
G01 X2.6918 Y1.4863 
G01 X2.6910 Y1.4877 
G01 X2.6905 Y1.4883 
G01 X2.6900 Y1.4890 
G01 X2.6889 Y1.4901 
G01 X2.6879 Y1.4913 
G01 X2.6872 Y1.4918 
G01 X2.6867 Y1.4923 
G01 X2.6854 Y1.4932 
G01 X2.6841 Y1.4942 
G01 X2.6834 Y1.4945 
G01 X2.6827 Y1.4950 
G01 X2.6812 Y1.4956 
G01 X2.6798 Y1.4963 
G01 X2.6791 Y1.4965 
G01 X2.6783 Y1.4968 
G01 X2.6768 Y1.4971 
G01 X2.6752 Y1.4975 
G01 X2.6744 Y1.4976 
G01 X2.6736 Y1.4977 
G01 X2.6721 Y1.4977 
G01 X2.6705 Y1.4978 
G01 X2.6697 Y1.4977 
G01 X2.6689 Y1.4977 
G01 X2.6673 Y1.4974 
G01 X2.6657 Y1.4972 
G01 X2.6650 Y1.4970 
G01 X2.6642 Y1.4968 
G01 X2.6627 Y1.4962 
G01 X2.6612 Y1.4957 
G01 X2.6605 Y1.4953 
G01 X2.6598 Y1.4950 
G01 X2.6585 Y1.4941 
G01 X2.6571 Y1.4933 
G01 X2.6565 Y1.4928 
G01 X2.6558 Y1.4923 
G01 X2.6547 Y1.4912 
G01 X2.6535 Y1.4902 
G01 X2.6530 Y1.4895 
G01 X2.6525 Y1.4890 
G01 X2.6516 Y1.4876 
G01 X2.6506 Y1.4864 
G01 X2.6503 Y1.4857 
G01 X2.6498 Y1.4850 
G01 X2.6492 Y1.4835 
G01 X2.6485 Y1.4821 
G01 X2.6483 Y1.4813 
G01 X2.6480 Y1.4806 
G01 X2.6477 Y1.4790 
G01 X2.6440 Y1.4653 
G01 X2.6237 Y1.4301 
G01 X2.5949 Y1.4013 
G01 X2.5597 Y1.3810 
G01 X2.5203 Y1.3704 
G01 X2.4797 Y1.3704 
G01 X2.4403 Y1.3810 
G01 X2.4051 Y1.4013 
G01 X2.3763 Y1.4301 
G01 X2.3560 Y1.4653 
G01 X2.3454 Y1.5047 
G01 X2.3454 Y1.5453 
G01 X2.3560 Y1.5847 
G01 X2.3763 Y1.6199 
G01 X2.4051 Y1.6487 
G01 X2.4403 Y1.6690 
G01 X2.4797 Y1.6796 
G01 X2.5203 Y1.6796 
G01 X2.5597 Y1.6690 
G01 X2.5949 Y1.6487 
G01 X2.6237 Y1.6199 
G01 X2.6440 Y1.5847 
G01 X2.6477 Y1.5710 
G01 X2.6480 Y1.5694 
G01 X2.6483 Y1.5687 
G01 X2.6485 Y1.5679 
G01 X2.6492 Y1.5665 
G01 X2.6498 Y1.5650 
G01 X2.6503 Y1.5643 
G01 X2.6506 Y1.5636 
G01 X2.6516 Y1.5624 
G01 X2.6525 Y1.5610 
G01 X2.6530 Y1.5605 
G01 X2.6535 Y1.5598 
G01 X2.6547 Y1.5588 
G01 X2.6558 Y1.5577 
G01 X2.6565 Y1.5572 
G01 X2.6571 Y1.5567 
G01 X2.6585 Y1.5559 
G01 X2.6598 Y1.5550 
G01 X2.6605 Y1.5547 
G01 X2.6612 Y1.5543 
G01 X2.6627 Y1.5538 
G01 X2.6642 Y1.5532 
G01 X2.6650 Y1.5530 
G01 X2.6657 Y1.5528 
G01 X2.6673 Y1.5526 
G01 X2.6689 Y1.5523 
G01 X2.6697 Y1.5523 
G01 X2.6705 Y1.5522 
G01 X2.6721 Y1.5523 
G01 X2.6736 Y1.5523 
G01 X2.6744 Y1.5524 
G01 X2.6752 Y1.5525 
G01 X2.6768 Y1.5529 
G01 X2.6783 Y1.5532 
G01 X2.6791 Y1.5535 
G01 X2.6798 Y1.5537 
G01 X2.6812 Y1.5544 
G01 X2.6827 Y1.5550 
G01 X2.6834 Y1.5555 
G01 X2.6841 Y1.5558 
G01 X2.6854 Y1.5568 
G01 X2.6867 Y1.5577 
G01 X2.6872 Y1.5582 
G01 X2.6879 Y1.5587 
G01 X2.6889 Y1.5599 
G01 X2.6900 Y1.5610 
G01 X2.6905 Y1.5617 
G01 X2.6910 Y1.5623 
G01 X2.6918 Y1.5637 
G01 X2.6927 Y1.5650 
G01 X2.6930 Y1.5657 
G01 X2.6934 Y1.5664 
G01 X2.6939 Y1.5679 
G01 X2.6945 Y1.5694 
G01 X2.6947 Y1.5702 
G01 X2.6949 Y1.5709 
G01 X2.6951 Y1.5725 
G01 X2.6954 Y1.5741 
G01 X2.6954 Y1.5749 
G01 X2.6955 Y1.5757 
G01 X2.6954 Y1.5772 
G01 X2.6954 Y2.4236 
G01 X2.6945 Y2.4283 
G01 X2.6927 Y2.4327 
G01 X2.6900 Y2.4367 
G01 X2.6867 Y2.4400 
G01 X2.6827 Y2.4427 
G01 X2.6783 Y2.4445 
G01 X2.6736 Y2.4454 
G01 X2.2998 Y2.4454 
G01 X2.2951 Y2.4445 
G01 X2.2907 Y2.4427 
G01 X2.2868 Y2.4400 
G01 X2.2834 Y2.4367 
G01 X2.2808 Y2.4327 
G01 X2.2789 Y2.4283 
G01 X2.2780 Y2.4236 
G01 X2.2780 Y2.4189 
G01 X2.2789 Y2.4142 
G01 X2.2808 Y2.4098 
G01 X2.2834 Y2.4058 
G01 X2.2868 Y2.4025 
G01 X2.3121 Y2.3771 
G01 X2.3190 Y2.3702 
G01 X2.3416 Y2.3476 
G01 X2.3469 Y2.3349 
G01 X2.3487 Y2.3305 
G01 X2.3514 Y2.3265 
G01 X2.3547 Y2.3232 
G01 X2.3659 Y2.3120 
G01 X2.3662 Y2.3111 
G01 X2.3669 Y2.3096 
G01 X2.3681 Y2.3067 
G01 X2.3707 Y2.3027 
G01 X2.3740 Y2.2994 
G01 X2.3764 Y2.2978 
G01 X2.3780 Y2.2967 
G01 X2.3805 Y2.2957 
G01 X2.3824 Y2.2949 
G01 X2.3843 Y2.2945 
G01 X2.3871 Y2.2940 
G01 X2.3919 Y2.2940 
G01 X2.3955 Y2.2947 
G01 X2.3966 Y2.2949 
G01 X2.3986 Y2.2957 
G01 X2.4010 Y2.2967 
G01 X2.4049 Y2.2994 
G01 X2.4082 Y2.3027 
G01 X2.4098 Y2.3051 
G01 X2.4109 Y2.3067 
G01 X2.4115 Y2.3082 
G01 X2.4128 Y2.3111 
G01 X2.4131 Y2.3120 
G01 X2.4285 Y2.3274 
G01 X2.4485 Y2.3357 
G01 X2.5305 Y2.3357 
G01 X2.5505 Y2.3274 
G01 X2.5659 Y2.3120 
G01 X2.5742 Y2.2920 
G01 X2.5742 Y2.2100 
G01 X2.5659 Y2.1900 
G01 X2.5505 Y2.1746 
G01 X2.5305 Y2.1663 
G01 X2.4485 Y2.1663 
G01 X2.4285 Y2.1746 
G01 X2.4137 Y2.1894 
G01 X2.4137 Y2.2164 
G01 X2.4205 Y2.2164 
G01 X2.4222 Y2.2171 
G01 X2.4234 Y2.2183 
G01 X2.4241 Y2.2200 
G01 X2.4241 Y2.2820 
G01 X2.4234 Y2.2837 
G01 X2.4222 Y2.2849 
G01 X2.4205 Y2.2856 
G01 X2.3585 Y2.2856 
G01 X2.3568 Y2.2849 
G01 X2.3556 Y2.2837 
G01 X2.3549 Y2.2820 
G01 X2.3549 Y2.2200 
G01 X2.3556 Y2.2183 
G01 X2.3568 Y2.2171 
G01 X2.3585 Y2.2164 
G01 X2.3653 Y2.2164 
G01 X2.3653 Y2.1894 
G01 X2.3505 Y2.1746 
G01 X2.3305 Y2.1663 
G01 X2.2485 Y2.1663 
G01 X2.2476 Y2.1667 
G01 X2.2466 Y2.1671 
G01 X2.2450 Y2.1674 
G01 X2.2419 Y2.1681 
G01 X2.2371 Y2.1681 
G01 X2.2341 Y2.1675 
G01 X2.2324 Y2.1671 
G01 X2.2312 Y2.1666 
G01 X2.2305 Y2.1663 
G01 X2.1485 Y2.1663 
G01 X2.1300 Y2.1740 
G01 X2.1258 Y2.1757 
G01 X2.1256 Y2.1758 
G01 X2.1209 Y2.1768 
G01 X0.9960 Y2.1768 
G01 X0.9914 Y2.1758 
G01 X0.9870 Y2.1740 
G01 X0.9830 Y2.1714 
G01 X0.9796 Y2.1680 
G01 X0.9770 Y2.1640 
G01 X0.9752 Y2.1596 
G01 X0.9742 Y2.1550 
G01 X0.9742 Y1.7653 
G01 X0.9741 Y1.7645 
G01 X0.9742 Y1.7629 
G01 X0.9742 Y1.7614 
G01 X0.9744 Y1.7606 
G01 X0.9744 Y1.7598 
G01 X0.9749 Y1.7582 
G01 X0.9752 Y1.7567 
G01 X0.9755 Y1.7559 
G01 X0.9757 Y1.7552 
G01 X0.9764 Y1.7538 
G01 X0.9770 Y1.7523 
G01 X0.9774 Y1.7516 
G01 X0.9778 Y1.7509 
G01 X0.9788 Y1.7496 
G01 X0.9796 Y1.7483 
G01 X0.9802 Y1.7478 
G01 X0.9807 Y1.7471 
G01 X0.9819 Y1.7461 
G01 X0.9830 Y1.7450 
G01 X0.9837 Y1.7445 
G01 X0.9843 Y1.7440 
G01 X0.9856 Y1.7432 
G01 X0.9870 Y1.7423 
G01 X0.9877 Y1.7420 
G01 X0.9884 Y1.7416 
G01 X0.9899 Y1.7411 
G01 X0.9914 Y1.7405 
G01 X0.9922 Y1.7403 
G01 X0.9929 Y1.7401 
G01 X0.9945 Y1.7399 
G01 X0.9960 Y1.7396 
G01 X0.9968 Y1.7396 
G01 X0.9976 Y1.7394 
G01 X0.9992 Y1.7396 
G01 X1.0008 Y1.7396 
G01 X1.0016 Y1.7397 
G01 X1.0024 Y1.7398 
G01 X1.0039 Y1.7402 
G01 X1.0055 Y1.7405 
G01 X1.0062 Y1.7408 
G01 X1.0128 Y1.7426 
G01 X1.0372 Y1.7426 
G01 X1.0607 Y1.7362 
G01 X1.0615 Y1.7358 
G01 X1.0622 Y1.7353 
G01 X1.0636 Y1.7346 
G01 X1.0650 Y1.7338 
G01 X1.0657 Y1.7335 
G01 X1.0664 Y1.7332 
G01 X1.0680 Y1.7328 
G01 X1.0695 Y1.7323 
G01 X1.0703 Y1.7322 
G01 X1.0710 Y1.7320 
G01 X1.0726 Y1.7319 
G01 X1.0742 Y1.7316 
G01 X1.0750 Y1.7317 
G01 X1.0758 Y1.7316 
G01 X1.0774 Y1.7319 
G01 X1.0790 Y1.7320 
G01 X1.0797 Y1.7322 
G01 X1.0805 Y1.7323 
G01 X1.0820 Y1.7328 
G01 X1.0836 Y1.7332 
G01 X1.0843 Y1.7335 
G01 X1.0850 Y1.7338 
G01 X1.0864 Y1.7346 
G01 X1.0878 Y1.7353 
G01 X1.0885 Y1.7358 
G01 X1.0893 Y1.7362 
G01 X1.1128 Y1.7426 
G01 X1.1372 Y1.7426 
G01 X1.1607 Y1.7362 
G01 X1.1615 Y1.7358 
G01 X1.1622 Y1.7353 
G01 X1.1636 Y1.7346 
G01 X1.1650 Y1.7338 
G01 X1.1657 Y1.7335 
G01 X1.1664 Y1.7332 
G01 X1.1680 Y1.7328 
G01 X1.1695 Y1.7323 
G01 X1.1703 Y1.7322 
G01 X1.1710 Y1.7320 
G01 X1.1726 Y1.7319 
G01 X1.1742 Y1.7316 
G01 X1.1750 Y1.7317 
G01 X1.1758 Y1.7316 
G01 X1.1774 Y1.7319 
G01 X1.1790 Y1.7320 
G01 X1.1797 Y1.7322 
G01 X1.1805 Y1.7323 
G01 X1.1820 Y1.7328 
G01 X1.1836 Y1.7332 
G01 X1.1843 Y1.7335 
G01 X1.1850 Y1.7338 
G01 X1.1864 Y1.7346 
G01 X1.1878 Y1.7353 
G01 X1.1885 Y1.7358 
G01 X1.1893 Y1.7362 
G01 X1.2128 Y1.7426 
G01 X1.2372 Y1.7426 
G01 X1.2607 Y1.7362 
G01 X1.2615 Y1.7358 
G01 X1.2622 Y1.7353 
G01 X1.2636 Y1.7346 
G01 X1.2650 Y1.7338 
G01 X1.2657 Y1.7335 
G01 X1.2664 Y1.7332 
G01 X1.2680 Y1.7328 
G01 X1.2695 Y1.7323 
G01 X1.2703 Y1.7322 
G01 X1.2710 Y1.7320 
G01 X1.2726 Y1.7319 
G01 X1.2742 Y1.7316 
G01 X1.2750 Y1.7317 
G01 X1.2758 Y1.7316 
G01 X1.2774 Y1.7319 
G01 X1.2790 Y1.7320 
G01 X1.2797 Y1.7322 
G01 X1.2805 Y1.7323 
G01 X1.2820 Y1.7328 
G01 X1.2836 Y1.7332 
G01 X1.2843 Y1.7335 
G01 X1.2850 Y1.7338 
G01 X1.2864 Y1.7346 
G01 X1.2878 Y1.7353 
G01 X1.2885 Y1.7358 
G01 X1.2893 Y1.7362 
G01 X1.3128 Y1.7426 
G01 X1.3372 Y1.7426 
G01 X1.3607 Y1.7362 
G01 X1.3615 Y1.7358 
G01 X1.3622 Y1.7353 
G01 X1.3636 Y1.7346 
G01 X1.3650 Y1.7338 
G01 X1.3657 Y1.7335 
G01 X1.3664 Y1.7332 
G01 X1.3680 Y1.7328 
G01 X1.3695 Y1.7323 
G01 X1.3703 Y1.7322 
G01 X1.3710 Y1.7320 
G01 X1.3726 Y1.7319 
G01 X1.3742 Y1.7316 
G01 X1.3750 Y1.7317 
G01 X1.3758 Y1.7316 
G01 X1.3774 Y1.7319 
G01 X1.3790 Y1.7320 
G01 X1.3797 Y1.7322 
G01 X1.3805 Y1.7323 
G01 X1.3820 Y1.7328 
G01 X1.3836 Y1.7332 
G01 X1.3843 Y1.7335 
G01 X1.3850 Y1.7338 
G01 X1.3864 Y1.7346 
G01 X1.3878 Y1.7353 
G01 X1.3885 Y1.7358 
G01 X1.3893 Y1.7362 
G01 X1.4128 Y1.7426 
G01 X1.4372 Y1.7426 
G01 X1.4607 Y1.7362 
G01 X1.4818 Y1.7241 
G01 X1.4990 Y1.7069 
G01 X1.4993 Y1.7062 
G01 X1.5002 Y1.7049 
G01 X1.5010 Y1.7035 
G01 X1.5015 Y1.7029 
G01 X1.5019 Y1.7023 
G01 X1.5022 Y1.7020 
G01 X1.5023 Y1.7016 
G01 X1.5030 Y1.7002 
G01 X1.5036 Y1.6988 
G01 X1.5038 Y1.6985 
G01 X1.5039 Y1.6982 
G01 X1.5042 Y1.6978 
G01 X1.5044 Y1.6973 
G01 X1.5054 Y1.6961 
G01 X1.5062 Y1.6949 
G01 X1.5065 Y1.6946 
G01 X1.5067 Y1.6943 
G01 X1.5071 Y1.6940 
G01 X1.5074 Y1.6936 
G01 X1.5085 Y1.6926 
G01 X1.5096 Y1.6915 
G01 X1.5099 Y1.6913 
G01 X1.5102 Y1.6910 
G01 X1.5106 Y1.6908 
G01 X1.5110 Y1.6904 
G01 X1.5113 Y1.6902 
G01 X1.5087 Y1.6894 
G00 Z0.1000 
G00 X0.6191 Y1.1155 
G01 Z-0.0070 F10.00 
G01 X0.6809 Y1.1155 F20.00 
G01 X0.6825 Y1.1162 
G01 X0.6838 Y1.1175 
G01 X0.6845 Y1.1191 
G01 X0.6845 Y1.1809 
G01 X0.6838 Y1.1825 
G01 X0.6825 Y1.1838 
G01 X0.6809 Y1.1845 
G01 X0.6191 Y1.1845 
G01 X0.6175 Y1.1838 
G01 X0.6162 Y1.1825 
G01 X0.6155 Y1.1809 
G01 X0.6155 Y1.1191 
G01 X0.6162 Y1.1175 
G01 X0.6175 Y1.1162 
G01 X0.6191 Y1.1155 
G00 Z0.1000 
G00 X0.6191 Y1.0155 
G01 Z-0.0070 F10.00 
G01 X0.6258 Y1.0155 F20.00 
G01 X0.6258 Y0.9346 
G01 X0.6190 Y0.9346 
G01 X0.6173 Y0.9339 
G01 X0.6161 Y0.9327 
G01 X0.6154 Y0.9310 
G01 X0.6154 Y0.8690 
G01 X0.6161 Y0.8673 
G01 X0.6173 Y0.8661 
G01 X0.6190 Y0.8654 
G01 X0.6810 Y0.8654 
G01 X0.6827 Y0.8661 
G01 X0.6839 Y0.8673 
G01 X0.6846 Y0.8690 
G01 X0.6846 Y0.9310 
G01 X0.6839 Y0.9327 
G01 X0.6827 Y0.9339 
G01 X0.6810 Y0.9346 
G01 X0.6742 Y0.9346 
G01 X0.6742 Y1.0155 
G01 X0.6809 Y1.0155 
G01 X0.6825 Y1.0162 
G01 X0.6838 Y1.0175 
G01 X0.6845 Y1.0191 
G01 X0.6845 Y1.0809 
G01 X0.6838 Y1.0825 
G01 X0.6825 Y1.0838 
G01 X0.6809 Y1.0845 
G01 X0.6191 Y1.0845 
G01 X0.6175 Y1.0838 
G01 X0.6162 Y1.0825 
G01 X0.6155 Y1.0809 
G01 X0.6155 Y1.0191 
G01 X0.6162 Y1.0175 
G01 X0.6175 Y1.0162 
G01 X0.6191 Y1.0155 
G00 Z0.1000 
G00 X0.7191 Y1.1155 
G01 Z-0.0070 F10.00 
G01 X0.7809 Y1.1155 F20.00 
G01 X0.7825 Y1.1162 
G01 X0.7838 Y1.1175 
G01 X0.7845 Y1.1191 
G01 X0.7845 Y1.1809 
G01 X0.7838 Y1.1825 
G01 X0.7825 Y1.1838 
G01 X0.7809 Y1.1845 
G01 X0.7191 Y1.1845 
G01 X0.7175 Y1.1838 
G01 X0.7162 Y1.1825 
G01 X0.7155 Y1.1809 
G01 X0.7155 Y1.1191 
G01 X0.7162 Y1.1175 
G01 X0.7175 Y1.1162 
G01 X0.7191 Y1.1155 
G00 Z0.1000 
G00 X2.1941 Y1.0155 
G01 Z-0.0070 F10.00 
G01 X2.2559 Y1.0155 F20.00 
G01 X2.2575 Y1.0162 
G01 X2.2588 Y1.0175 
G01 X2.2595 Y1.0191 
G01 X2.2595 Y1.0809 
G01 X2.2588 Y1.0825 
G01 X2.2575 Y1.0838 
G01 X2.2559 Y1.0845 
G01 X2.1941 Y1.0845 
G01 X2.1925 Y1.0838 
G01 X2.1912 Y1.0825 
G01 X2.1905 Y1.0809 
G01 X2.1905 Y1.0191 
G01 X2.1912 Y1.0175 
G01 X2.1925 Y1.0162 
G01 X2.1941 Y1.0155 
G00 Z0.1000 
G00 X2.1941 Y0.9155 
G01 Z-0.0070 F10.00 
G01 X2.2559 Y0.9155 F20.00 
G01 X2.2575 Y0.9162 
G01 X2.2588 Y0.9175 
G01 X2.2595 Y0.9191 
G01 X2.2595 Y0.9809 
G01 X2.2588 Y0.9825 
G01 X2.2575 Y0.9838 
G01 X2.2559 Y0.9845 
G01 X2.1941 Y0.9845 
G01 X2.1925 Y0.9838 
G01 X2.1912 Y0.9825 
G01 X2.1905 Y0.9809 
G01 X2.1905 Y0.9191 
G01 X2.1912 Y0.9175 
G01 X2.1925 Y0.9162 
G01 X2.1941 Y0.9155 
G00 Z0.1000 
G00 X2.3941 Y1.0155 
G01 Z-0.0070 F10.00 
G01 X2.4559 Y1.0155 F20.00 
G01 X2.4575 Y1.0162 
G01 X2.4588 Y1.0175 
G01 X2.4595 Y1.0191 
G01 X2.4595 Y1.0809 
G01 X2.4588 Y1.0825 
G01 X2.4575 Y1.0838 
G01 X2.4559 Y1.0845 
G01 X2.3941 Y1.0845 
G01 X2.3925 Y1.0838 
G01 X2.3912 Y1.0825 
G01 X2.3905 Y1.0809 
G01 X2.3905 Y1.0191 
G01 X2.3912 Y1.0175 
G01 X2.3925 Y1.0162 
G01 X2.3941 Y1.0155 
G00 Z0.1000 
G00 X2.3941 Y0.9155 
G01 Z-0.0070 F10.00 
G01 X2.4559 Y0.9155 F20.00 
G01 X2.4575 Y0.9162 
G01 X2.4588 Y0.9175 
G01 X2.4595 Y0.9191 
G01 X2.4595 Y0.9809 
G01 X2.4588 Y0.9825 
G01 X2.4575 Y0.9838 
G01 X2.4559 Y0.9845 
G01 X2.3941 Y0.9845 
G01 X2.3925 Y0.9838 
G01 X2.3912 Y0.9825 
G01 X2.3905 Y0.9809 
G01 X2.3905 Y0.9191 
G01 X2.3912 Y0.9175 
G01 X2.3925 Y0.9162 
G01 X2.3941 Y0.9155 
G00 Z0.1000 
G00 X2.1059 Y0.4345 
G01 Z-0.0070 F10.00 
G01 X2.0441 Y0.4345 F20.00 
G01 X2.0425 Y0.4338 
G01 X2.0412 Y0.4325 
G01 X2.0405 Y0.4309 
G01 X2.0405 Y0.3691 
G01 X2.0412 Y0.3675 
G01 X2.0425 Y0.3662 
G01 X2.0441 Y0.3655 
G01 X2.1059 Y0.3655 
G01 X2.1075 Y0.3662 
G01 X2.1088 Y0.3675 
G01 X2.1095 Y0.3691 
G01 X2.1095 Y0.3758 
G01 X2.2155 Y0.3758 
G01 X2.2155 Y0.3691 
G01 X2.2162 Y0.3675 
G01 X2.2175 Y0.3662 
G01 X2.2191 Y0.3655 
G01 X2.2809 Y0.3655 
G01 X2.2825 Y0.3662 
G01 X2.2838 Y0.3675 
G01 X2.2845 Y0.3691 
G01 X2.2845 Y0.4309 
G01 X2.2838 Y0.4325 
G01 X2.2825 Y0.4338 
G01 X2.2809 Y0.4345 
G01 X2.2191 Y0.4345 
G01 X2.2175 Y0.4338 
G01 X2.2162 Y0.4325 
G01 X2.2155 Y0.4309 
G01 X2.2155 Y0.4242 
G01 X2.1095 Y0.4242 
G01 X2.1095 Y0.4309 
G01 X2.1088 Y0.4325 
G01 X2.1075 Y0.4338 
G01 X2.1059 Y0.4345 
G00 Z0.1000 
G00 X0.3841 Y1.7389 
G01 Z-0.0070 F10.00 
G01 X0.3841 Y1.7389 F20.00 
G01 X0.3802 Y1.7416 
G01 X0.3759 Y1.7433 
G01 X0.3758 Y1.7434 
G01 X0.3711 Y1.7443 
G01 X0.3663 Y1.7443 
G01 X0.3617 Y1.7434 
G01 X0.3575 Y1.7417 
G01 X0.3573 Y1.7416 
G01 X0.3533 Y1.7389 
G01 X0.3499 Y1.7356 
G01 X0.3473 Y1.7316 
G01 X0.3455 Y1.7274 
G01 X0.3455 Y1.7272 
G01 X0.3445 Y1.7225 
G01 X0.3445 Y1.7070 
G01 X0.3455 Y1.7024 
G01 X0.3473 Y1.6979 
G01 X0.3499 Y1.6940 
G01 X0.3533 Y1.6906 
G01 X0.5970 Y1.4469 
G01 X0.5974 Y1.4463 
G01 X0.5986 Y1.4453 
G01 X0.5998 Y1.4441 
G01 X0.6004 Y1.4437 
G01 X0.6010 Y1.4432 
G01 X0.6019 Y1.4427 
G01 X0.6177 Y1.4269 
G01 X0.6288 Y1.4076 
G01 X0.6346 Y1.3861 
G01 X0.6346 Y1.3639 
G01 X0.6288 Y1.3424 
G01 X0.6173 Y1.3225 
G01 X0.6164 Y1.3211 
G01 X0.6161 Y1.3204 
G01 X0.6157 Y1.3197 
G01 X0.6152 Y1.3182 
G01 X0.6146 Y1.3167 
G01 X0.6144 Y1.3160 
G01 X0.6142 Y1.3152 
G01 X0.6140 Y1.3136 
G01 X0.6137 Y1.3121 
G01 X0.6137 Y1.3113 
G01 X0.6136 Y1.3105 
G01 X0.6137 Y1.3089 
G01 X0.6137 Y1.3073 
G01 X0.6138 Y1.3065 
G01 X0.6139 Y1.3057 
G01 X0.6143 Y1.3042 
G01 X0.6146 Y1.3026 
G01 X0.6149 Y1.3019 
G01 X0.6151 Y1.3011 
G01 X0.6158 Y1.2997 
G01 X0.6164 Y1.2982 
G01 X0.6169 Y1.2976 
G01 X0.6172 Y1.2969 
G01 X0.6182 Y1.2956 
G01 X0.6191 Y1.2943 
G01 X0.6196 Y1.2937 
G01 X0.6201 Y1.2931 
G01 X0.6213 Y1.2920 
G01 X0.6224 Y1.2909 
G01 X0.6231 Y1.2905 
G01 X0.6237 Y1.2899 
G01 X0.6251 Y1.2891 
G01 X0.6258 Y1.2886 
G01 X0.6258 Y1.2845 
G01 X0.6191 Y1.2845 
G01 X0.6179 Y1.2840 
G01 X0.2467 Y1.2840 
G01 X0.2401 Y1.2827 
G01 X0.2339 Y1.2801 
G01 X0.2283 Y1.2764 
G01 X0.1864 Y1.2345 
G01 X0.1691 Y1.2345 
G01 X0.1675 Y1.2338 
G01 X0.1662 Y1.2325 
G01 X0.1655 Y1.2309 
G01 X0.1655 Y1.1691 
G01 X0.1662 Y1.1675 
G01 X0.1675 Y1.1662 
G01 X0.1691 Y1.1655 
G01 X0.2309 Y1.1655 
G01 X0.2325 Y1.1662 
G01 X0.2338 Y1.1675 
G01 X0.2345 Y1.1691 
G01 X0.2345 Y1.1864 
G01 X0.2641 Y1.2160 
G01 X0.6179 Y1.2160 
G01 X0.6191 Y1.2155 
G01 X0.6809 Y1.2155 
G01 X0.6825 Y1.2162 
G01 X0.6838 Y1.2175 
G01 X0.6845 Y1.2191 
G01 X0.6845 Y1.2258 
G01 X0.7155 Y1.2258 
G01 X0.7155 Y1.2191 
G01 X0.7162 Y1.2175 
G01 X0.7175 Y1.2162 
G01 X0.7191 Y1.2155 
G01 X0.7809 Y1.2155 
G01 X0.7825 Y1.2162 
G01 X0.7838 Y1.2175 
G01 X0.7845 Y1.2191 
G01 X0.7845 Y1.2809 
G01 X0.7838 Y1.2825 
G01 X0.7825 Y1.2838 
G01 X0.7809 Y1.2845 
G01 X0.7742 Y1.2845 
G01 X0.7742 Y1.3011 
G01 X0.7748 Y1.3026 
G01 X0.7758 Y1.3073 
G01 X0.7758 Y1.4721 
G01 X0.7748 Y1.4767 
G01 X0.7730 Y1.4811 
G01 X0.7704 Y1.4851 
G01 X0.7670 Y1.4885 
G01 X0.5455 Y1.7099 
G01 X0.5416 Y1.7126 
G01 X0.5372 Y1.7144 
G01 X0.5325 Y1.7153 
G01 X0.5195 Y1.7153 
G01 X0.5189 Y1.7156 
G01 X0.5175 Y1.7161 
G01 X0.5160 Y1.7164 
G01 X0.5128 Y1.7171 
G01 X0.5081 Y1.7171 
G01 X0.5050 Y1.7165 
G01 X0.5034 Y1.7161 
G01 X0.5024 Y1.7157 
G01 X0.5014 Y1.7153 
G01 X0.4195 Y1.7153 
G01 X0.3994 Y1.7236 
G01 X0.3875 Y1.7356 
G01 X0.3848 Y1.7383 
G01 X0.3841 Y1.7389 
G00 Z0.1000 
G00 X1.5725 Y1.6463 
G01 Z-0.0070 F10.00 
G01 X1.5725 Y1.6537 F20.00 
G01 X1.5713 Y1.6611 
G01 X1.5690 Y1.6682 
G01 X1.5656 Y1.6749 
G01 X1.5612 Y1.6809 
G01 X1.5559 Y1.6862 
G01 X1.5499 Y1.6906 
G01 X1.5477 Y1.6917 
G01 X1.5479 Y1.6920 
G01 X1.5482 Y1.6924 
G01 X1.5485 Y1.6929 
G01 X1.5489 Y1.6933 
G01 X1.5498 Y1.6949 
G01 X1.5509 Y1.6965 
G01 X1.5510 Y1.6969 
G01 X1.5513 Y1.6972 
G01 X1.5515 Y1.6978 
G01 X1.5518 Y1.6983 
G01 X1.5521 Y1.6993 
G01 X1.5525 Y1.6999 
G01 X1.5531 Y1.7006 
G01 X1.5541 Y1.7023 
G01 X1.5551 Y1.7039 
G01 X1.5552 Y1.7040 
G01 X1.5712 Y1.7201 
G01 X1.5912 Y1.7316 
G01 X1.6135 Y1.7376 
G01 X1.6365 Y1.7376 
G01 X1.6588 Y1.7316 
G01 X1.6595 Y1.7310 
G01 X1.6612 Y1.7302 
G01 X1.6629 Y1.7292 
G01 X1.6638 Y1.7289 
G01 X1.6647 Y1.7285 
G01 X1.6665 Y1.7280 
G01 X1.6683 Y1.7274 
G01 X1.6693 Y1.7272 
G01 X1.6702 Y1.7270 
G01 X1.6721 Y1.7269 
G01 X1.6740 Y1.7266 
G01 X1.6750 Y1.7267 
G01 X1.6760 Y1.7266 
G01 X1.6779 Y1.7269 
G01 X1.6798 Y1.7270 
G01 X1.6807 Y1.7272 
G01 X1.6817 Y1.7274 
G01 X1.6835 Y1.7280 
G01 X1.6853 Y1.7285 
G01 X1.6862 Y1.7289 
G01 X1.6871 Y1.7292 
G01 X1.6888 Y1.7302 
G01 X1.6905 Y1.7310 
G01 X1.6912 Y1.7316 
G01 X1.7135 Y1.7376 
G01 X1.7365 Y1.7376 
G01 X1.7588 Y1.7316 
G01 X1.7788 Y1.7201 
G01 X1.7950 Y1.7038 
G01 X1.7954 Y1.7029 
G01 X1.7965 Y1.7013 
G01 X1.7974 Y1.6997 
G01 X1.7981 Y1.6989 
G01 X1.7986 Y1.6981 
G01 X1.7999 Y1.6968 
G01 X1.8012 Y1.6953 
G01 X1.8020 Y1.6948 
G01 X1.8027 Y1.6941 
G01 X1.8043 Y1.6930 
G01 X1.8058 Y1.6918 
G01 X1.8066 Y1.6914 
G01 X1.8074 Y1.6909 
G01 X1.8092 Y1.6902 
G01 X1.8109 Y1.6893 
G01 X1.8119 Y1.6891 
G01 X1.8127 Y1.6887 
G01 X1.8146 Y1.6883 
G01 X1.8165 Y1.6878 
G01 X1.8174 Y1.6878 
G01 X1.8184 Y1.6876 
G01 X1.8203 Y1.6876 
G01 X1.8222 Y1.6874 
G01 X1.8232 Y1.6876 
G01 X1.8241 Y1.6876 
G01 X1.8260 Y1.6879 
G01 X1.8279 Y1.6882 
G01 X1.8288 Y1.6885 
G01 X1.8298 Y1.6887 
G01 X1.8315 Y1.6894 
G01 X1.8334 Y1.6900 
G01 X1.8342 Y1.6905 
G01 X1.8351 Y1.6909 
G01 X1.8367 Y1.6920 
G01 X1.8383 Y1.6929 
G01 X1.8391 Y1.6935 
G01 X1.8399 Y1.6941 
G01 X1.8412 Y1.6954 
G01 X1.8427 Y1.6967 
G01 X1.8432 Y1.6975 
G01 X1.8439 Y1.6981 
G01 X1.8450 Y1.6997 
G01 X1.8462 Y1.7013 
G01 X1.8466 Y1.7021 
G01 X1.8471 Y1.7029 
G01 X1.8479 Y1.7047 
G01 X1.8487 Y1.7064 
G01 X1.8490 Y1.7074 
G01 X1.8493 Y1.7082 
G01 X1.8497 Y1.7101 
G01 X1.8502 Y1.7120 
G01 X1.8503 Y1.7129 
G01 X1.8504 Y1.7139 
G01 X1.8504 Y1.7158 
G01 X1.8506 Y1.7177 
G01 X1.8504 Y1.7187 
G01 X1.8504 Y1.7447 
G01 X1.8606 Y1.7827 
G01 X1.8803 Y1.8168 
G01 X1.9082 Y1.8447 
G01 X1.9423 Y1.8644 
G01 X1.9803 Y1.8746 
G01 X2.0197 Y1.8746 
G01 X2.0577 Y1.8644 
G01 X2.0918 Y1.8447 
G01 X2.1197 Y1.8168 
G01 X2.1394 Y1.7827 
G01 X2.1496 Y1.7447 
G01 X2.1496 Y1.7053 
G01 X2.1394 Y1.6673 
G01 X2.1197 Y1.6332 
G01 X2.0918 Y1.6053 
G01 X2.0577 Y1.5856 
G01 X2.0197 Y1.5754 
G01 X1.9803 Y1.5754 
G01 X1.9423 Y1.5856 
G01 X1.9082 Y1.6053 
G01 X1.8803 Y1.6332 
G01 X1.8680 Y1.6546 
G01 X1.8676 Y1.6555 
G01 X1.8665 Y1.6571 
G01 X1.8656 Y1.6587 
G01 X1.8649 Y1.6594 
G01 X1.8644 Y1.6602 
G01 X1.8631 Y1.6616 
G01 X1.8618 Y1.6630 
G01 X1.8610 Y1.6636 
G01 X1.8603 Y1.6643 
G01 X1.8587 Y1.6654 
G01 X1.8572 Y1.6665 
G01 X1.8564 Y1.6670 
G01 X1.8556 Y1.6675 
G01 X1.8538 Y1.6682 
G01 X1.8521 Y1.6691 
G01 X1.8511 Y1.6693 
G01 X1.8503 Y1.6697 
G01 X1.8484 Y1.6701 
G01 X1.8465 Y1.6706 
G01 X1.8456 Y1.6706 
G01 X1.8446 Y1.6708 
G01 X1.8427 Y1.6708 
G01 X1.8408 Y1.6709 
G01 X1.8398 Y1.6708 
G01 X1.8389 Y1.6708 
G01 X1.8370 Y1.6704 
G01 X1.8351 Y1.6702 
G01 X1.8342 Y1.6699 
G01 X1.8332 Y1.6697 
G01 X1.8315 Y1.6690 
G01 X1.8296 Y1.6683 
G01 X1.8288 Y1.6679 
G01 X1.8279 Y1.6675 
G01 X1.8263 Y1.6664 
G01 X1.8247 Y1.6655 
G01 X1.8239 Y1.6648 
G01 X1.8231 Y1.6643 
G01 X1.8218 Y1.6629 
G01 X1.8203 Y1.6617 
G01 X1.8198 Y1.6609 
G01 X1.8191 Y1.6602 
G01 X1.8180 Y1.6586 
G01 X1.8168 Y1.6571 
G01 X1.8164 Y1.6563 
G01 X1.8159 Y1.6555 
G01 X1.8151 Y1.6537 
G01 X1.8143 Y1.6520 
G01 X1.8140 Y1.6510 
G01 X1.8137 Y1.6501 
G01 X1.8133 Y1.6483 
G01 X1.8128 Y1.6464 
G01 X1.8127 Y1.6455 
G01 X1.8126 Y1.6445 
G01 X1.8126 Y1.6426 
G01 X1.8124 Y1.6407 
G01 X1.8126 Y1.6397 
G01 X1.8126 Y1.6385 
G01 X1.8066 Y1.6162 
G01 X1.7951 Y1.5962 
G01 X1.7788 Y1.5799 
G01 X1.7588 Y1.5684 
G01 X1.7365 Y1.5624 
G01 X1.7135 Y1.5624 
G01 X1.6912 Y1.5684 
G01 X1.6905 Y1.5690 
G01 X1.6888 Y1.5698 
G01 X1.6871 Y1.5708 
G01 X1.6862 Y1.5711 
G01 X1.6853 Y1.5715 
G01 X1.6835 Y1.5720 
G01 X1.6817 Y1.5726 
G01 X1.6807 Y1.5728 
G01 X1.6798 Y1.5730 
G01 X1.6779 Y1.5731 
G01 X1.6760 Y1.5734 
G01 X1.6750 Y1.5733 
G01 X1.6740 Y1.5734 
G01 X1.6721 Y1.5731 
G01 X1.6702 Y1.5730 
G01 X1.6693 Y1.5728 
G01 X1.6683 Y1.5726 
G01 X1.6665 Y1.5720 
G01 X1.6647 Y1.5715 
G01 X1.6638 Y1.5711 
G01 X1.6629 Y1.5708 
G01 X1.6612 Y1.5698 
G01 X1.6595 Y1.5690 
G01 X1.6588 Y1.5684 
G01 X1.6365 Y1.5624 
G01 X1.6135 Y1.5624 
G01 X1.5912 Y1.5684 
G01 X1.5712 Y1.5799 
G01 X1.5552 Y1.5960 
G01 X1.5551 Y1.5961 
G01 X1.5542 Y1.5976 
G01 X1.5542 Y1.6125 
G01 X1.5559 Y1.6138 
G01 X1.5612 Y1.6191 
G01 X1.5656 Y1.6251 
G01 X1.5690 Y1.6318 
G01 X1.5713 Y1.6389 
G01 X1.5725 Y1.6463 
G00 Z0.1000 
G00 X1.6725 Y1.6463 
G01 Z-0.0070 F10.00 
G01 X1.6725 Y1.6537 F20.00 
G01 X1.6713 Y1.6611 
G01 X1.6690 Y1.6682 
G01 X1.6656 Y1.6749 
G01 X1.6612 Y1.6809 
G01 X1.6559 Y1.6862 
G01 X1.6499 Y1.6906 
G01 X1.6432 Y1.6940 
G01 X1.6361 Y1.6963 
G01 X1.6287 Y1.6975 
G01 X1.6213 Y1.6975 
G01 X1.6139 Y1.6963 
G01 X1.6068 Y1.6940 
G01 X1.6001 Y1.6906 
G01 X1.5941 Y1.6862 
G01 X1.5888 Y1.6809 
G01 X1.5844 Y1.6749 
G01 X1.5810 Y1.6682 
G01 X1.5787 Y1.6611 
G01 X1.5775 Y1.6537 
G01 X1.5775 Y1.6463 
G01 X1.5787 Y1.6389 
G01 X1.5810 Y1.6318 
G01 X1.5844 Y1.6251 
G01 X1.5888 Y1.6191 
G01 X1.5941 Y1.6138 
G01 X1.6001 Y1.6094 
G01 X1.6068 Y1.6060 
G01 X1.6139 Y1.6037 
G01 X1.6213 Y1.6025 
G01 X1.6287 Y1.6025 
G01 X1.6361 Y1.6037 
G01 X1.6432 Y1.6060 
G01 X1.6499 Y1.6094 
G01 X1.6559 Y1.6138 
G01 X1.6612 Y1.6191 
G01 X1.6656 Y1.6251 
G01 X1.6690 Y1.6318 
G01 X1.6713 Y1.6389 
G01 X1.6725 Y1.6463 
G00 Z0.1000 
G00 X1.7725 Y1.6463 
G01 Z-0.0070 F10.00 
G01 X1.7725 Y1.6537 F20.00 
G01 X1.7713 Y1.6611 
G01 X1.7690 Y1.6682 
G01 X1.7656 Y1.6749 
G01 X1.7612 Y1.6809 
G01 X1.7559 Y1.6862 
G01 X1.7499 Y1.6906 
G01 X1.7432 Y1.6940 
G01 X1.7361 Y1.6963 
G01 X1.7287 Y1.6975 
G01 X1.7213 Y1.6975 
G01 X1.7139 Y1.6963 
G01 X1.7068 Y1.6940 
G01 X1.7001 Y1.6906 
G01 X1.6941 Y1.6862 
G01 X1.6888 Y1.6809 
G01 X1.6844 Y1.6749 
G01 X1.6810 Y1.6682 
G01 X1.6787 Y1.6611 
G01 X1.6775 Y1.6537 
G01 X1.6775 Y1.6463 
G01 X1.6787 Y1.6389 
G01 X1.6810 Y1.6318 
G01 X1.6844 Y1.6251 
G01 X1.6888 Y1.6191 
G01 X1.6941 Y1.6138 
G01 X1.7001 Y1.6094 
G01 X1.7068 Y1.6060 
G01 X1.7139 Y1.6037 
G01 X1.7213 Y1.6025 
G01 X1.7287 Y1.6025 
G01 X1.7361 Y1.6037 
G01 X1.7432 Y1.6060 
G01 X1.7499 Y1.6094 
G01 X1.7559 Y1.6138 
G01 X1.7612 Y1.6191 
G01 X1.7656 Y1.6251 
G01 X1.7690 Y1.6318 
G01 X1.7713 Y1.6389 
G01 X1.7725 Y1.6463 
G00 Z0.1000 
G00 X2.4313 Y2.3231 
G01 Z-0.0070 F10.00 
G01 X2.4495 Y2.3307 F20.00 
G01 X2.5295 Y2.3307 
G01 X2.5477 Y2.3231 
G01 X2.5616 Y2.3092 
G01 X2.5692 Y2.2910 
G01 X2.5692 Y2.2110 
G01 X2.5616 Y2.1928 
G01 X2.5477 Y2.1789 
G01 X2.5295 Y2.1713 
G01 X2.4495 Y2.1713 
G01 X2.4313 Y2.1789 
G01 X2.4187 Y2.1915 
G01 X2.4187 Y2.2114 
G01 X2.4215 Y2.2114 
G01 X2.4250 Y2.2128 
G01 X2.4277 Y2.2155 
G01 X2.4291 Y2.2190 
G01 X2.4291 Y2.2830 
G01 X2.4277 Y2.2865 
G01 X2.4250 Y2.2892 
G01 X2.4215 Y2.2906 
G01 X2.3993 Y2.2906 
G01 X2.4003 Y2.2911 
G01 X2.4033 Y2.2923 
G01 X2.4081 Y2.2955 
G01 X2.4101 Y2.2975 
G01 X2.4122 Y2.2996 
G01 X2.4154 Y2.3043 
G01 X2.4159 Y2.3057 
G01 X2.4174 Y2.3092 
G01 X2.4313 Y2.3231 
G00 Z0.1000 
G00 X2.4499 Y2.2830 
G01 Z-0.0070 F10.00 
G01 X2.4499 Y2.2190 F20.00 
G01 X2.4513 Y2.2155 
G01 X2.4540 Y2.2128 
G01 X2.4575 Y2.2114 
G01 X2.5215 Y2.2114 
G01 X2.5250 Y2.2128 
G01 X2.5277 Y2.2155 
G01 X2.5291 Y2.2190 
G01 X2.5291 Y2.2830 
G01 X2.5277 Y2.2865 
G01 X2.5250 Y2.2892 
G01 X2.5215 Y2.2906 
G01 X2.4575 Y2.2906 
G01 X2.4540 Y2.2892 
G01 X2.4513 Y2.2865 
G01 X2.4499 Y2.2830 
G00 Z0.1000 
G00 X2.0292 Y0.5721 
G01 Z-0.0070 F10.00 
G01 X2.0292 Y0.5733 F20.00 
G01 X2.0293 Y0.5744 
G01 X2.0292 Y0.5761 
G01 X2.0292 Y1.2529 
G01 X2.0281 Y1.2585 
G01 X2.0259 Y1.2638 
G01 X2.0227 Y1.2686 
G01 X1.8477 Y1.4436 
G01 X1.8436 Y1.4477 
G01 X1.8388 Y1.4509 
G01 X1.8335 Y1.4531 
G01 X1.8279 Y1.4542 
G01 X1.5371 Y1.4542 
G01 X1.4542 Y1.5371 
G01 X1.4542 Y1.6125 
G01 X1.4559 Y1.6138 
G01 X1.4612 Y1.6191 
G01 X1.4656 Y1.6251 
G01 X1.4690 Y1.6318 
G01 X1.4713 Y1.6389 
G01 X1.4725 Y1.6463 
G01 X1.4725 Y1.6537 
G01 X1.4713 Y1.6611 
G01 X1.4690 Y1.6682 
G01 X1.4656 Y1.6749 
G01 X1.4612 Y1.6809 
G01 X1.4559 Y1.6862 
G01 X1.4499 Y1.6906 
G01 X1.4432 Y1.6940 
G01 X1.4361 Y1.6963 
G01 X1.4287 Y1.6975 
G01 X1.4213 Y1.6975 
G01 X1.4139 Y1.6963 
G01 X1.4068 Y1.6940 
G01 X1.4001 Y1.6906 
G01 X1.3941 Y1.6862 
G01 X1.3888 Y1.6809 
G01 X1.3844 Y1.6749 
G01 X1.3810 Y1.6682 
G01 X1.3787 Y1.6611 
G01 X1.3775 Y1.6537 
G01 X1.3775 Y1.6463 
G01 X1.3787 Y1.6389 
G01 X1.3810 Y1.6318 
G01 X1.3844 Y1.6251 
G01 X1.3888 Y1.6191 
G01 X1.3941 Y1.6138 
G01 X1.3958 Y1.6125 
G01 X1.3958 Y1.5221 
G01 X1.3969 Y1.5165 
G01 X1.3991 Y1.5112 
G01 X1.4023 Y1.5064 
G01 X1.4064 Y1.5023 
G01 X1.5064 Y1.4023 
G01 X1.5112 Y1.3991 
G01 X1.5165 Y1.3969 
G01 X1.5221 Y1.3958 
G01 X1.8129 Y1.3958 
G01 X1.9708 Y1.2379 
G01 X1.9708 Y0.5892 
G01 X1.6532 Y0.3396 
G01 X1.6180 Y0.3396 
G01 X1.6145 Y0.3382 
G01 X1.6118 Y0.3355 
G01 X1.6104 Y0.3320 
G01 X1.6104 Y0.2680 
G01 X1.6118 Y0.2645 
G01 X1.6145 Y0.2618 
G01 X1.6180 Y0.2604 
G01 X1.6820 Y0.2604 
G01 X1.6855 Y0.2618 
G01 X1.6882 Y0.2645 
G01 X1.6896 Y0.2680 
G01 X1.6896 Y0.2940 
G01 X2.0171 Y0.5514 
G01 X2.0186 Y0.5523 
G01 X2.0194 Y0.5531 
G01 X2.0203 Y0.5538 
G01 X2.0214 Y0.5552 
G01 X2.0227 Y0.5564 
G01 X2.0233 Y0.5573 
G01 X2.0240 Y0.5582 
G01 X2.0249 Y0.5597 
G01 X2.0259 Y0.5612 
G01 X2.0263 Y0.5622 
G01 X2.0268 Y0.5632 
G01 X2.0274 Y0.5649 
G01 X2.0281 Y0.5665 
G01 X2.0283 Y0.5676 
G01 X2.0286 Y0.5687 
G01 X2.0288 Y0.5704 
G01 X2.0292 Y0.5721 
G00 Z0.1000 
G00 X2.3499 Y2.2830 
G01 Z-0.0070 F10.00 
G01 X2.3499 Y2.2190 F20.00 
G01 X2.3513 Y2.2155 
G01 X2.3540 Y2.2128 
G01 X2.3575 Y2.2114 
G01 X2.3603 Y2.2114 
G01 X2.3603 Y2.1915 
G01 X2.3477 Y2.1789 
G01 X2.3295 Y2.1713 
G01 X2.2495 Y2.1713 
G01 X2.2480 Y2.1720 
G01 X2.2469 Y2.1722 
G01 X2.2424 Y2.1731 
G01 X2.2366 Y2.1731 
G01 X2.2322 Y2.1722 
G01 X2.2310 Y2.1720 
G01 X2.2295 Y2.1713 
G01 X2.1495 Y2.1713 
G01 X2.1270 Y2.1806 
G01 X2.1214 Y2.1818 
G01 X0.9956 Y2.1818 
G01 X0.9899 Y2.1806 
G01 X0.9846 Y2.1784 
G01 X0.9798 Y2.1752 
G01 X0.9758 Y2.1712 
G01 X0.9726 Y2.1664 
G01 X0.9704 Y2.1611 
G01 X0.9692 Y2.1554 
G01 X0.9692 Y1.7657 
G01 X0.9691 Y1.7647 
G01 X0.9692 Y1.7628 
G01 X0.9692 Y1.7609 
G01 X0.9694 Y1.7599 
G01 X0.9695 Y1.7590 
G01 X0.9700 Y1.7571 
G01 X0.9704 Y1.7552 
G01 X0.9707 Y1.7543 
G01 X0.9710 Y1.7534 
G01 X0.9718 Y1.7517 
G01 X0.9726 Y1.7499 
G01 X0.9731 Y1.7491 
G01 X0.9735 Y1.7483 
G01 X0.9747 Y1.7467 
G01 X0.9758 Y1.7451 
G01 X0.9764 Y1.7445 
G01 X0.9770 Y1.7437 
G01 X0.9785 Y1.7424 
G01 X0.9798 Y1.7411 
G01 X0.9806 Y1.7405 
G01 X0.9813 Y1.7399 
G01 X0.9830 Y1.7389 
G01 X0.9846 Y1.7379 
G01 X0.9855 Y1.7375 
G01 X0.9863 Y1.7370 
G01 X0.9881 Y1.7364 
G01 X0.9899 Y1.7357 
G01 X0.9909 Y1.7355 
G01 X0.9918 Y1.7352 
G01 X0.9937 Y1.7349 
G01 X0.9956 Y1.7346 
G01 X0.9965 Y1.7346 
G01 X0.9975 Y1.7344 
G01 X0.9994 Y1.7346 
G01 X1.0013 Y1.7346 
G01 X1.0022 Y1.7347 
G01 X1.0032 Y1.7348 
G01 X1.0051 Y1.7353 
G01 X1.0069 Y1.7357 
G01 X1.0078 Y1.7360 
G01 X1.0135 Y1.7376 
G01 X1.0365 Y1.7376 
G01 X1.0588 Y1.7316 
G01 X1.0595 Y1.7310 
G01 X1.0612 Y1.7302 
G01 X1.0629 Y1.7292 
G01 X1.0638 Y1.7289 
G01 X1.0647 Y1.7285 
G01 X1.0665 Y1.7280 
G01 X1.0683 Y1.7274 
G01 X1.0693 Y1.7272 
G01 X1.0702 Y1.7270 
G01 X1.0721 Y1.7269 
G01 X1.0740 Y1.7266 
G01 X1.0750 Y1.7267 
G01 X1.0760 Y1.7266 
G01 X1.0779 Y1.7269 
G01 X1.0798 Y1.7270 
G01 X1.0807 Y1.7272 
G01 X1.0817 Y1.7274 
G01 X1.0835 Y1.7280 
G01 X1.0853 Y1.7285 
G01 X1.0862 Y1.7289 
G01 X1.0871 Y1.7292 
G01 X1.0888 Y1.7302 
G01 X1.0905 Y1.7310 
G01 X1.0912 Y1.7316 
G01 X1.1135 Y1.7376 
G01 X1.1365 Y1.7376 
G01 X1.1588 Y1.7316 
G01 X1.1595 Y1.7310 
G01 X1.1612 Y1.7302 
G01 X1.1629 Y1.7292 
G01 X1.1638 Y1.7289 
G01 X1.1647 Y1.7285 
G01 X1.1665 Y1.7280 
G01 X1.1683 Y1.7274 
G01 X1.1693 Y1.7272 
G01 X1.1702 Y1.7270 
G01 X1.1721 Y1.7269 
G01 X1.1740 Y1.7266 
G01 X1.1750 Y1.7267 
G01 X1.1760 Y1.7266 
G01 X1.1779 Y1.7269 
G01 X1.1798 Y1.7270 
G01 X1.1807 Y1.7272 
G01 X1.1817 Y1.7274 
G01 X1.1835 Y1.7280 
G01 X1.1853 Y1.7285 
G01 X1.1862 Y1.7289 
G01 X1.1871 Y1.7292 
G01 X1.1888 Y1.7302 
G01 X1.1905 Y1.7310 
G01 X1.1912 Y1.7316 
G01 X1.2135 Y1.7376 
G01 X1.2365 Y1.7376 
G01 X1.2588 Y1.7316 
G01 X1.2595 Y1.7310 
G01 X1.2612 Y1.7302 
G01 X1.2629 Y1.7292 
G01 X1.2638 Y1.7289 
G01 X1.2647 Y1.7285 
G01 X1.2665 Y1.7280 
G01 X1.2683 Y1.7274 
G01 X1.2693 Y1.7272 
G01 X1.2702 Y1.7270 
G01 X1.2721 Y1.7269 
G01 X1.2740 Y1.7266 
G01 X1.2750 Y1.7267 
G01 X1.2760 Y1.7266 
G01 X1.2779 Y1.7269 
G01 X1.2798 Y1.7270 
G01 X1.2807 Y1.7272 
G01 X1.2817 Y1.7274 
G01 X1.2835 Y1.7280 
G01 X1.2853 Y1.7285 
G01 X1.2862 Y1.7289 
G01 X1.2871 Y1.7292 
G01 X1.2888 Y1.7302 
G01 X1.2905 Y1.7310 
G01 X1.2912 Y1.7316 
G01 X1.3135 Y1.7376 
G01 X1.3365 Y1.7376 
G01 X1.3588 Y1.7316 
G01 X1.3595 Y1.7310 
G01 X1.3612 Y1.7302 
G01 X1.3629 Y1.7292 
G01 X1.3638 Y1.7289 
G01 X1.3647 Y1.7285 
G01 X1.3665 Y1.7280 
G01 X1.3683 Y1.7274 
G01 X1.3693 Y1.7272 
G01 X1.3702 Y1.7270 
G01 X1.3721 Y1.7269 
G01 X1.3740 Y1.7266 
G01 X1.3750 Y1.7267 
G01 X1.3760 Y1.7266 
G01 X1.3779 Y1.7269 
G01 X1.3798 Y1.7270 
G01 X1.3807 Y1.7272 
G01 X1.3817 Y1.7274 
G01 X1.3835 Y1.7280 
G01 X1.3853 Y1.7285 
G01 X1.3862 Y1.7289 
G01 X1.3871 Y1.7292 
G01 X1.3888 Y1.7302 
G01 X1.3905 Y1.7310 
G01 X1.3912 Y1.7316 
G01 X1.4135 Y1.7376 
G01 X1.4365 Y1.7376 
G01 X1.4588 Y1.7316 
G01 X1.4788 Y1.7201 
G01 X1.4948 Y1.7040 
G01 X1.4949 Y1.7039 
G01 X1.4959 Y1.7023 
G01 X1.4969 Y1.7006 
G01 X1.4975 Y1.6999 
G01 X1.4977 Y1.6996 
G01 X1.4984 Y1.6982 
G01 X1.4991 Y1.6965 
G01 X1.4994 Y1.6961 
G01 X1.4996 Y1.6957 
G01 X1.4999 Y1.6952 
G01 X1.5002 Y1.6947 
G01 X1.5013 Y1.6932 
G01 X1.5023 Y1.6917 
G01 X1.5001 Y1.6906 
G01 X1.4941 Y1.6862 
G01 X1.4888 Y1.6809 
G01 X1.4844 Y1.6749 
G01 X1.4810 Y1.6682 
G01 X1.4787 Y1.6611 
G01 X1.4775 Y1.6537 
G01 X1.4775 Y1.6463 
G01 X1.4787 Y1.6389 
G01 X1.4810 Y1.6318 
G01 X1.4844 Y1.6251 
G01 X1.4888 Y1.6191 
G01 X1.4941 Y1.6138 
G01 X1.4958 Y1.6125 
G01 X1.4958 Y1.5926 
G01 X1.4958 Y1.5919 
G01 X1.4954 Y1.5908 
G01 X1.4942 Y1.5852 
G01 X1.4942 Y1.5629 
G01 X1.4954 Y1.5573 
G01 X1.4958 Y1.5562 
G01 X1.4958 Y1.5471 
G01 X1.4969 Y1.5415 
G01 X1.4991 Y1.5362 
G01 X1.5023 Y1.5314 
G01 X1.5064 Y1.5273 
G01 X1.5527 Y1.4811 
G01 X1.5574 Y1.4779 
G01 X1.5627 Y1.4757 
G01 X1.5684 Y1.4746 
G01 X1.8734 Y1.4746 
G01 X1.8898 Y1.4581 
G01 X2.0587 Y1.2892 
G01 X2.0692 Y1.2638 
G01 X2.0692 Y0.5903 
G01 X2.0691 Y0.5892 
G01 X2.0692 Y0.5874 
G01 X2.0692 Y0.5857 
G01 X2.0695 Y0.5845 
G01 X2.0695 Y0.5834 
G01 X2.0700 Y0.5817 
G01 X2.0703 Y0.5801 
G01 X2.0696 Y0.5737 
G01 X2.0692 Y0.5720 
G01 X2.0692 Y0.5709 
G01 X2.0691 Y0.5697 
G01 X2.0692 Y0.5680 
G01 X2.0692 Y0.5568 
G01 X2.0699 Y0.5535 
G01 X2.0704 Y0.5512 
G01 X2.0726 Y0.5459 
G01 X2.0745 Y0.5430 
G01 X2.0758 Y0.5411 
G01 X2.0773 Y0.5395 
G01 X2.0431 Y0.5395 
G01 X2.0396 Y0.5381 
G01 X2.0369 Y0.5354 
G01 X2.0355 Y0.5319 
G01 X2.0355 Y0.4681 
G01 X2.0369 Y0.4646 
G01 X2.0396 Y0.4619 
G01 X2.0431 Y0.4605 
G01 X2.1069 Y0.4605 
G01 X2.1104 Y0.4619 
G01 X2.1131 Y0.4646 
G01 X2.1145 Y0.4681 
G01 X2.1145 Y0.4708 
G01 X2.1360 Y0.4708 
G01 X2.1371 Y0.4704 
G01 X2.1427 Y0.4692 
G01 X2.1823 Y0.4692 
G01 X2.1879 Y0.4704 
G01 X2.1881 Y0.4704 
G01 X2.1890 Y0.4708 
G01 X2.2105 Y0.4708 
G01 X2.2105 Y0.4681 
G01 X2.2119 Y0.4646 
G01 X2.2146 Y0.4619 
G01 X2.2181 Y0.4605 
G01 X2.2819 Y0.4605 
G01 X2.2854 Y0.4619 
G01 X2.2881 Y0.4646 
G01 X2.2895 Y0.4681 
G01 X2.2895 Y0.5319 
G01 X2.2881 Y0.5354 
G01 X2.2854 Y0.5381 
G01 X2.2819 Y0.5395 
G01 X2.2705 Y0.5395 
G01 X2.2712 Y0.5402 
G01 X2.2721 Y0.5411 
G01 X2.2753 Y0.5459 
G01 X2.2769 Y0.5497 
G01 X2.2775 Y0.5512 
G01 X2.2786 Y0.5568 
G01 X2.2786 Y0.5608 
G01 X2.2786 Y0.5626 
G01 X2.2781 Y0.5648 
G01 X2.2775 Y0.5682 
G01 X2.2729 Y0.5791 
G01 X2.2703 Y0.5830 
G01 X2.2697 Y0.5839 
G01 X2.2682 Y0.5855 
G01 X2.2819 Y0.5855 
G01 X2.2854 Y0.5869 
G01 X2.2881 Y0.5896 
G01 X2.2895 Y0.5931 
G01 X2.2895 Y0.6569 
G01 X2.2881 Y0.6604 
G01 X2.2854 Y0.6631 
G01 X2.2819 Y0.6645 
G01 X2.2682 Y0.6645 
G01 X2.2697 Y0.6661 
G01 X2.2729 Y0.6709 
G01 X2.2796 Y0.6871 
G01 X2.2808 Y0.6927 
G01 X2.2808 Y0.7441 
G01 X2.2796 Y0.7498 
G01 X2.2774 Y0.7551 
G01 X2.2742 Y0.7599 
G01 X2.2702 Y0.7639 
G01 X2.2654 Y0.7671 
G01 X2.2601 Y0.7693 
G01 X2.2544 Y0.7704 
G01 X2.1851 Y0.7704 
G01 X2.1669 Y0.7780 
G01 X2.1530 Y0.7919 
G01 X2.1454 Y0.8101 
G01 X2.1454 Y0.8899 
G01 X2.1457 Y0.8905 
G01 X2.1461 Y0.8915 
G01 X2.1469 Y0.8954 
G01 X2.1472 Y0.8971 
G01 X2.1472 Y0.9000 
G01 X2.1472 Y0.9029 
G01 X2.1466 Y0.9061 
G01 X2.1461 Y0.9085 
G01 X2.1454 Y0.9101 
G01 X2.1454 Y0.9899 
G01 X2.1461 Y0.9915 
G01 X2.1466 Y0.9937 
G01 X2.1472 Y0.9971 
G01 X2.1472 Y1.0000 
G01 X2.1472 Y1.0029 
G01 X2.1469 Y1.0045 
G01 X2.1461 Y1.0085 
G01 X2.1457 Y1.0094 
G01 X2.1454 Y1.0101 
G01 X2.1454 Y1.0899 
G01 X2.1530 Y1.1081 
G01 X2.1669 Y1.1220 
G01 X2.1791 Y1.1271 
G01 X2.1839 Y1.1303 
G01 X2.1855 Y1.1318 
G01 X2.1855 Y1.1181 
G01 X2.1869 Y1.1146 
G01 X2.1896 Y1.1119 
G01 X2.1931 Y1.1105 
G01 X2.2569 Y1.1105 
G01 X2.2604 Y1.1119 
G01 X2.2631 Y1.1146 
G01 X2.2645 Y1.1181 
G01 X2.2645 Y1.1318 
G01 X2.2661 Y1.1303 
G01 X2.2709 Y1.1271 
G01 X2.2831 Y1.1220 
G01 X2.2970 Y1.1081 
G01 X2.2981 Y1.1055 
G01 X2.2991 Y1.1029 
G01 X2.3002 Y1.1014 
G01 X2.3023 Y1.0982 
G01 X2.3064 Y1.0941 
G01 X2.3065 Y1.0940 
G01 X2.3112 Y1.0909 
G01 X2.3155 Y1.0891 
G01 X2.3165 Y1.0887 
G01 X2.3192 Y1.0882 
G01 X2.3221 Y1.0876 
G01 X2.3279 Y1.0876 
G01 X2.3312 Y1.0882 
G01 X2.3335 Y1.0887 
G01 X2.3365 Y1.0899 
G01 X2.3388 Y1.0909 
G01 X2.3404 Y1.0919 
G01 X2.3436 Y1.0941 
G01 X2.3477 Y1.0982 
G01 X2.3478 Y1.0983 
G01 X2.3509 Y1.1029 
G01 X2.3530 Y1.1081 
G01 X2.3669 Y1.1220 
G01 X2.3738 Y1.1249 
G01 X2.3750 Y1.1254 
G01 X2.3791 Y1.1271 
G01 X2.3839 Y1.1303 
G01 X2.3855 Y1.1318 
G01 X2.3855 Y1.1181 
G01 X2.3869 Y1.1146 
G01 X2.3896 Y1.1119 
G01 X2.3931 Y1.1105 
G01 X2.4569 Y1.1105 
G01 X2.4604 Y1.1119 
G01 X2.4631 Y1.1146 
G01 X2.4645 Y1.1181 
G01 X2.4645 Y1.1318 
G01 X2.4661 Y1.1303 
G01 X2.4709 Y1.1271 
G01 X2.4748 Y1.1254 
G01 X2.4762 Y1.1249 
G01 X2.4831 Y1.1220 
G01 X2.4970 Y1.1081 
G01 X2.5046 Y1.0899 
G01 X2.5046 Y1.0101 
G01 X2.5043 Y1.0095 
G01 X2.5039 Y1.0085 
G01 X2.5031 Y1.0046 
G01 X2.5028 Y1.0029 
G01 X2.5028 Y1.0000 
G01 X2.5028 Y0.9971 
G01 X2.5034 Y0.9939 
G01 X2.5039 Y0.9915 
G01 X2.5046 Y0.9899 
G01 X2.5046 Y0.9101 
G01 X2.5043 Y0.9095 
G01 X2.5039 Y0.9085 
G01 X2.5031 Y0.9046 
G01 X2.5028 Y0.9029 
G01 X2.5028 Y0.9000 
G01 X2.5028 Y0.8971 
G01 X2.5034 Y0.8939 
G01 X2.5039 Y0.8915 
G01 X2.5046 Y0.8899 
G01 X2.5046 Y0.8101 
G01 X2.4970 Y0.7919 
G01 X2.4831 Y0.7780 
G01 X2.4649 Y0.7704 
G01 X2.4526 Y0.7704 
G01 X2.4504 Y0.7700 
G01 X2.4469 Y0.7693 
G01 X2.4416 Y0.7671 
G01 X2.4393 Y0.7656 
G01 X2.4368 Y0.7639 
G01 X2.4328 Y0.7599 
G01 X2.4298 Y0.7569 
G01 X2.4258 Y0.7528 
G01 X2.4242 Y0.7505 
G01 X2.4226 Y0.7481 
G01 X2.4204 Y0.7427 
G01 X2.4197 Y0.7393 
G01 X2.4192 Y0.7371 
G01 X2.4192 Y0.7309 
G01 X2.4204 Y0.7252 
G01 X2.4226 Y0.7199 
G01 X2.4258 Y0.7151 
G01 X2.4298 Y0.7111 
G01 X2.4346 Y0.7079 
G01 X2.4399 Y0.7057 
G01 X2.4456 Y0.7046 
G01 X2.4899 Y0.7046 
G01 X2.5081 Y0.6970 
G01 X2.5220 Y0.6831 
G01 X2.5296 Y0.6649 
G01 X2.5296 Y0.5851 
G01 X2.5220 Y0.5669 
G01 X2.5048 Y0.5497 
G01 X2.5034 Y0.5485 
G01 X2.5028 Y0.5477 
G01 X2.5021 Y0.5470 
G01 X2.5010 Y0.5454 
G01 X2.4999 Y0.5439 
G01 X2.4994 Y0.5430 
G01 X2.4989 Y0.5422 
G01 X2.4982 Y0.5405 
G01 X2.4973 Y0.5387 
G01 X2.4971 Y0.5378 
G01 X2.4967 Y0.5369 
G01 X2.4963 Y0.5350 
G01 X2.4958 Y0.5332 
G01 X2.4958 Y0.5322 
G01 X2.4956 Y0.5313 
G01 X2.4956 Y0.5294 
G01 X2.4955 Y0.5274 
G01 X2.4956 Y0.5265 
G01 X2.4956 Y0.5255 
G01 X2.4960 Y0.5237 
G01 X2.4962 Y0.5218 
G01 X2.4965 Y0.5208 
G01 X2.4967 Y0.5199 
G01 X2.4974 Y0.5181 
G01 X2.4981 Y0.5163 
G01 X2.4985 Y0.5155 
G01 X2.4989 Y0.5146 
G01 X2.5000 Y0.5130 
G01 X2.5009 Y0.5113 
G01 X2.5016 Y0.5106 
G01 X2.5021 Y0.5098 
G01 X2.5035 Y0.5084 
G01 X2.5047 Y0.5070 
G01 X2.5055 Y0.5064 
G01 X2.5062 Y0.5057 
G01 X2.5078 Y0.5047 
G01 X2.5093 Y0.5035 
G01 X2.5101 Y0.5031 
G01 X2.5109 Y0.5025 
G01 X2.5127 Y0.5018 
G01 X2.5144 Y0.5010 
G01 X2.5154 Y0.5007 
G01 X2.5163 Y0.5003 
G01 X2.5181 Y0.5000 
G01 X2.5577 Y0.4894 
G01 X2.5918 Y0.4697 
G01 X2.6197 Y0.4418 
G01 X2.6394 Y0.4077 
G01 X2.6428 Y0.3948 
G01 X2.6432 Y0.3929 
G01 X2.6436 Y0.3920 
G01 X2.6438 Y0.3911 
G01 X2.6447 Y0.3894 
G01 X2.6454 Y0.3876 
G01 X2.6459 Y0.3868 
G01 X2.6464 Y0.3860 
G01 X2.6475 Y0.3844 
G01 X2.6486 Y0.3828 
G01 X2.6493 Y0.3822 
G01 X2.6499 Y0.3814 
G01 X2.6513 Y0.3801 
G01 X2.6527 Y0.3788 
G01 X2.6535 Y0.3782 
G01 X2.6542 Y0.3776 
G01 X2.6558 Y0.3766 
G01 X2.6574 Y0.3756 
G01 X2.6583 Y0.3752 
G01 X2.6592 Y0.3747 
G01 X2.6610 Y0.3741 
G01 X2.6627 Y0.3734 
G01 X2.6637 Y0.3732 
G01 X2.6646 Y0.3729 
G01 X2.6665 Y0.3726 
G01 X2.6684 Y0.3723 
G01 X2.6693 Y0.3723 
G01 X2.6703 Y0.3721 
G01 X2.6722 Y0.3723 
G01 X2.6741 Y0.3723 
G01 X2.6751 Y0.3725 
G01 X2.6760 Y0.3725 
G01 X2.6779 Y0.3730 
G01 X2.6798 Y0.3734 
G01 X2.6807 Y0.3738 
G01 X2.6816 Y0.3740 
G01 X2.6833 Y0.3748 
G01 X2.6851 Y0.3756 
G01 X2.6859 Y0.3761 
G01 X2.6867 Y0.3765 
G01 X2.6883 Y0.3777 
G01 X2.6899 Y0.3788 
G01 X2.6905 Y0.3795 
G01 X2.6913 Y0.3800 
G01 X2.6926 Y0.3815 
G01 X2.6939 Y0.3828 
G01 X2.6945 Y0.3836 
G01 X2.6951 Y0.3844 
G01 X2.6961 Y0.3860 
G01 X2.6971 Y0.3876 
G01 X2.6975 Y0.3885 
G01 X2.6980 Y0.3893 
G01 X2.6986 Y0.3912 
G01 X2.6993 Y0.3929 
G01 X2.6995 Y0.3939 
G01 X2.6998 Y0.3948 
G01 X2.7001 Y0.3967 
G01 X2.7004 Y0.3986 
G01 X2.7004 Y0.3995 
G01 X2.7006 Y0.4005 
G01 X2.7004 Y0.4024 
G01 X2.7004 Y1.4726 
G01 X2.7006 Y1.4745 
G01 X2.7004 Y1.4755 
G01 X2.7004 Y1.4764 
G01 X2.7001 Y1.4783 
G01 X2.6998 Y1.4802 
G01 X2.6995 Y1.4811 
G01 X2.6993 Y1.4821 
G01 X2.6986 Y1.4838 
G01 X2.6980 Y1.4857 
G01 X2.6975 Y1.4865 
G01 X2.6971 Y1.4874 
G01 X2.6961 Y1.4890 
G01 X2.6951 Y1.4906 
G01 X2.6945 Y1.4914 
G01 X2.6939 Y1.4922 
G01 X2.6926 Y1.4935 
G01 X2.6913 Y1.4950 
G01 X2.6905 Y1.4955 
G01 X2.6899 Y1.4962 
G01 X2.6883 Y1.4973 
G01 X2.6867 Y1.4985 
G01 X2.6859 Y1.4989 
G01 X2.6851 Y1.4994 
G01 X2.6833 Y1.5001 
G01 X2.6816 Y1.5010 
G01 X2.6807 Y1.5012 
G01 X2.6798 Y1.5016 
G01 X2.6779 Y1.5020 
G01 X2.6760 Y1.5025 
G01 X2.6751 Y1.5025 
G01 X2.6741 Y1.5027 
G01 X2.6722 Y1.5027 
G01 X2.6703 Y1.5029 
G01 X2.6693 Y1.5027 
G01 X2.6684 Y1.5027 
G01 X2.6665 Y1.5024 
G01 X2.6646 Y1.5021 
G01 X2.6637 Y1.5018 
G01 X2.6627 Y1.5016 
G01 X2.6610 Y1.5009 
G01 X2.6592 Y1.5003 
G01 X2.6583 Y1.4998 
G01 X2.6574 Y1.4994 
G01 X2.6558 Y1.4983 
G01 X2.6542 Y1.4974 
G01 X2.6535 Y1.4968 
G01 X2.6527 Y1.4962 
G01 X2.6513 Y1.4949 
G01 X2.6499 Y1.4936 
G01 X2.6493 Y1.4928 
G01 X2.6486 Y1.4922 
G01 X2.6475 Y1.4906 
G01 X2.6464 Y1.4890 
G01 X2.6459 Y1.4882 
G01 X2.6454 Y1.4874 
G01 X2.6447 Y1.4856 
G01 X2.6438 Y1.4839 
G01 X2.6436 Y1.4830 
G01 X2.6432 Y1.4821 
G01 X2.6428 Y1.4802 
G01 X2.6394 Y1.4673 
G01 X2.6197 Y1.4332 
G01 X2.5918 Y1.4053 
G01 X2.5577 Y1.3856 
G01 X2.5197 Y1.3754 
G01 X2.4803 Y1.3754 
G01 X2.4423 Y1.3856 
G01 X2.4082 Y1.4053 
G01 X2.3803 Y1.4332 
G01 X2.3606 Y1.4673 
G01 X2.3504 Y1.5053 
G01 X2.3504 Y1.5447 
G01 X2.3606 Y1.5827 
G01 X2.3803 Y1.6168 
G01 X2.4082 Y1.6447 
G01 X2.4423 Y1.6644 
G01 X2.4803 Y1.6746 
G01 X2.5197 Y1.6746 
G01 X2.5577 Y1.6644 
G01 X2.5918 Y1.6447 
G01 X2.6197 Y1.6168 
G01 X2.6394 Y1.5827 
G01 X2.6428 Y1.5698 
G01 X2.6432 Y1.5679 
G01 X2.6436 Y1.5670 
G01 X2.6438 Y1.5661 
G01 X2.6447 Y1.5644 
G01 X2.6454 Y1.5626 
G01 X2.6459 Y1.5618 
G01 X2.6464 Y1.5610 
G01 X2.6475 Y1.5594 
G01 X2.6486 Y1.5578 
G01 X2.6493 Y1.5572 
G01 X2.6499 Y1.5564 
G01 X2.6513 Y1.5551 
G01 X2.6527 Y1.5538 
G01 X2.6535 Y1.5532 
G01 X2.6542 Y1.5526 
G01 X2.6558 Y1.5517 
G01 X2.6574 Y1.5506 
G01 X2.6583 Y1.5502 
G01 X2.6592 Y1.5497 
G01 X2.6610 Y1.5491 
G01 X2.6627 Y1.5484 
G01 X2.6637 Y1.5482 
G01 X2.6646 Y1.5479 
G01 X2.6665 Y1.5476 
G01 X2.6684 Y1.5473 
G01 X2.6693 Y1.5473 
G01 X2.6703 Y1.5471 
G01 X2.6722 Y1.5473 
G01 X2.6741 Y1.5473 
G01 X2.6751 Y1.5475 
G01 X2.6760 Y1.5475 
G01 X2.6779 Y1.5480 
G01 X2.6798 Y1.5484 
G01 X2.6807 Y1.5488 
G01 X2.6816 Y1.5490 
G01 X2.6833 Y1.5498 
G01 X2.6851 Y1.5506 
G01 X2.6859 Y1.5511 
G01 X2.6867 Y1.5515 
G01 X2.6883 Y1.5527 
G01 X2.6899 Y1.5538 
G01 X2.6905 Y1.5545 
G01 X2.6913 Y1.5550 
G01 X2.6926 Y1.5565 
G01 X2.6939 Y1.5578 
G01 X2.6945 Y1.5586 
G01 X2.6951 Y1.5594 
G01 X2.6961 Y1.5610 
G01 X2.6971 Y1.5626 
G01 X2.6975 Y1.5635 
G01 X2.6980 Y1.5643 
G01 X2.6986 Y1.5662 
G01 X2.6993 Y1.5679 
G01 X2.6995 Y1.5689 
G01 X2.6998 Y1.5698 
G01 X2.7001 Y1.5717 
G01 X2.7004 Y1.5736 
G01 X2.7004 Y1.5745 
G01 X2.7006 Y1.5755 
G01 X2.7004 Y1.5774 
G01 X2.7004 Y2.4241 
G01 X2.6993 Y2.4298 
G01 X2.6971 Y2.4351 
G01 X2.6939 Y2.4399 
G01 X2.6899 Y2.4439 
G01 X2.6851 Y2.4471 
G01 X2.6798 Y2.4493 
G01 X2.6741 Y2.4504 
G01 X2.2993 Y2.4504 
G01 X2.2990 Y2.4504 
G01 X2.2937 Y2.4493 
G01 X2.2884 Y2.4471 
G01 X2.2837 Y2.4440 
G01 X2.2795 Y2.4399 
G01 X2.2763 Y2.4351 
G01 X2.2741 Y2.4298 
G01 X2.2730 Y2.4241 
G01 X2.2730 Y2.4184 
G01 X2.2731 Y2.4181 
G01 X2.2741 Y2.4127 
G01 X2.2763 Y2.4074 
G01 X2.2795 Y2.4028 
G01 X2.2836 Y2.3986 
G01 X2.3049 Y2.3773 
G01 X2.3158 Y2.3664 
G01 X2.3374 Y2.3448 
G01 X2.3443 Y2.3281 
G01 X2.3475 Y2.3233 
G01 X2.3616 Y2.3092 
G01 X2.3621 Y2.3081 
G01 X2.3636 Y2.3043 
G01 X2.3668 Y2.2996 
G01 X2.3688 Y2.2976 
G01 X2.3709 Y2.2955 
G01 X2.3757 Y2.2923 
G01 X2.3769 Y2.2918 
G01 X2.3797 Y2.2906 
G01 X2.3575 Y2.2906 
G01 X2.3540 Y2.2892 
G01 X2.3513 Y2.2865 
G01 X2.3499 Y2.2830 
G00 Z0.1000 
G00 X2.1499 Y2.2830 
G01 Z-0.0070 F10.00 
G01 X2.1499 Y2.2802 F20.00 
G01 X0.9231 Y2.2802 
G01 X0.9175 Y2.2791 
G01 X0.9122 Y2.2769 
G01 X0.9074 Y2.2737 
G01 X0.8814 Y2.2477 
G01 X0.8773 Y2.2436 
G01 X0.8741 Y2.2388 
G01 X0.8719 Y2.2335 
G01 X0.8708 Y2.2279 
G01 X0.8708 Y1.5689 
G01 X0.8719 Y1.5633 
G01 X0.8741 Y1.5580 
G01 X0.8773 Y1.5532 
G01 X0.9100 Y1.5205 
G01 X0.9100 Y0.9080 
G01 X0.9104 Y0.9060 
G01 X0.9104 Y0.8680 
G01 X0.9118 Y0.8645 
G01 X0.9145 Y0.8618 
G01 X0.9180 Y0.8604 
G01 X0.9820 Y0.8604 
G01 X0.9855 Y0.8618 
G01 X0.9882 Y0.8645 
G01 X0.9896 Y0.8680 
G01 X0.9896 Y0.9320 
G01 X0.9882 Y0.9355 
G01 X0.9855 Y0.9382 
G01 X0.9820 Y0.9396 
G01 X0.9684 Y0.9396 
G01 X0.9684 Y1.5355 
G01 X0.9672 Y1.5411 
G01 X0.9650 Y1.5464 
G01 X0.9618 Y1.5512 
G01 X0.9578 Y1.5553 
G01 X0.9292 Y1.5839 
G01 X0.9292 Y2.2129 
G01 X0.9381 Y2.2218 
G01 X2.1499 Y2.2218 
G01 X2.1499 Y2.2190 
G01 X2.1513 Y2.2155 
G01 X2.1540 Y2.2128 
G01 X2.1575 Y2.2114 
G01 X2.2215 Y2.2114 
G01 X2.2250 Y2.2128 
G01 X2.2277 Y2.2155 
G01 X2.2291 Y2.2190 
G01 X2.2291 Y2.2830 
G01 X2.2277 Y2.2865 
G01 X2.2250 Y2.2892 
G01 X2.2215 Y2.2906 
G01 X2.1575 Y2.2906 
G01 X2.1540 Y2.2892 
G01 X2.1513 Y2.2865 
G01 X2.1499 Y2.2830 
G00 Z0.1000 
G00 X0.1681 Y0.9605 
G01 Z-0.0070 F10.00 
G01 X0.2319 Y0.9605 F20.00 
G01 X0.2354 Y0.9619 
G01 X0.2381 Y0.9646 
G01 X0.2395 Y0.9681 
G01 X0.2395 Y1.0319 
G01 X0.2381 Y1.0354 
G01 X0.2354 Y1.0381 
G01 X0.2319 Y1.0395 
G01 X0.1681 Y1.0395 
G01 X0.1646 Y1.0381 
G01 X0.1619 Y1.0354 
G01 X0.1605 Y1.0319 
G01 X0.1605 Y0.9681 
G01 X0.1619 Y0.9646 
G01 X0.1646 Y0.9619 
G01 X0.1681 Y0.9605 
G00 Z0.1000 
G00 X2.3895 Y0.5931 
G01 Z-0.0070 F10.00 
G01 X2.3895 Y0.6569 F20.00 
G01 X2.3881 Y0.6604 
G01 X2.3854 Y0.6631 
G01 X2.3819 Y0.6645 
G01 X2.3792 Y0.6645 
G01 X2.3792 Y0.7629 
G01 X2.4268 Y0.8105 
G01 X2.4569 Y0.8105 
G01 X2.4604 Y0.8119 
G01 X2.4631 Y0.8146 
G01 X2.4645 Y0.8181 
G01 X2.4645 Y0.8819 
G01 X2.4631 Y0.8854 
G01 X2.4604 Y0.8881 
G01 X2.4569 Y0.8895 
G01 X2.3931 Y0.8895 
G01 X2.3896 Y0.8881 
G01 X2.3869 Y0.8854 
G01 X2.3855 Y0.8819 
G01 X2.3855 Y0.8792 
G01 X2.2645 Y0.8792 
G01 X2.2645 Y0.8819 
G01 X2.2631 Y0.8854 
G01 X2.2604 Y0.8881 
G01 X2.2569 Y0.8895 
G01 X2.1931 Y0.8895 
G01 X2.1896 Y0.8881 
G01 X2.1869 Y0.8854 
G01 X2.1855 Y0.8819 
G01 X2.1855 Y0.8181 
G01 X2.1869 Y0.8146 
G01 X2.1896 Y0.8119 
G01 X2.1931 Y0.8105 
G01 X2.2569 Y0.8105 
G01 X2.2604 Y0.8119 
G01 X2.2631 Y0.8146 
G01 X2.2645 Y0.8181 
G01 X2.2645 Y0.8208 
G01 X2.3545 Y0.8208 
G01 X2.3273 Y0.7936 
G01 X2.3241 Y0.7888 
G01 X2.3219 Y0.7835 
G01 X2.3208 Y0.7779 
G01 X2.3208 Y0.6645 
G01 X2.3181 Y0.6645 
