(.../pcb-gcode-3_6_0_4/pcb-gcode.ulp)
(Copyright 2005 - 2012 by John Johnson)
(See readme.txt for licensing terms.)
(This file generated from the board:)
(.../PolarStormControlBoard_smol_275_gnd.brd)
(Current profile is .../pcb-gcode-3_6_0_4/profiles/generic.pp  )
(This file generated 1/30/2018 12:21 PM)
(Settings from pcb-machine.h)
(  Tool Size)
(0.0070 )
(Z Axis Settings)
(  High     Up        Down     Drill)
(0.5000 	0.1000 	-0.0070 	-0.0320 )
(spindle on time = 3.0000)
(milling depth = -0.0100)
(text depth = -0.0050)
(tool change at 0.5000 0.6000 1.0000 )
(feed rate xy = F20.00 )
(feed rate z  = F10.00 )
(Settings from pcb-defaults.h)
(isolate min = 0.0010)
(isolate max = 0.0200)
(isolate step = 0.0050)
(Generated top outlines, top drill, bottom outlines, bottom drill, )
(Unit of measure: inch)
(Inch Mode)
G20
(Absolute Coordinates)
G90
G00 X0.0000 Y0.0000 
M03
G04 P3.000000
G00 Z0.1000 
G00 X-2.1941 Y1.1155 
G01 Z-0.0070 F10.00 
G01 X-2.2559 Y1.1155 F20.00 
G01 X-2.2575 Y1.1162 
G01 X-2.2588 Y1.1175 
G01 X-2.2595 Y1.1191 
G01 X-2.2595 Y1.1258 
G01 X-2.2612 Y1.1258 
G01 X-2.2614 Y1.1246 
G01 X-2.2633 Y1.1202 
G01 X-2.2659 Y1.1162 
G01 X-2.2693 Y1.1128 
G01 X-2.2705 Y1.1120 
G01 X-2.2732 Y1.1102 
G01 X-2.2748 Y1.1096 
G01 X-2.2846 Y1.0998 
G01 X-2.2899 Y1.0869 
G01 X-2.2899 Y1.0131 
G01 X-2.2874 Y1.0071 
G01 X-2.2873 Y1.0068 
G01 X-2.2865 Y1.0024 
G01 X-2.2865 Y0.9976 
G01 X-2.2874 Y0.9929 
G01 X-2.2892 Y0.9885 
G01 X-2.2899 Y0.9869 
G01 X-2.2899 Y0.9131 
G01 X-2.2892 Y0.9115 
G01 X-2.2875 Y0.9073 
G01 X-2.2874 Y0.9071 
G01 X-2.2873 Y0.9068 
G01 X-2.2865 Y0.9024 
G01 X-2.2865 Y0.8976 
G01 X-2.2874 Y0.8929 
G01 X-2.2875 Y0.8926 
G01 X-2.2899 Y0.8869 
G01 X-2.2899 Y0.8131 
G01 X-2.2846 Y0.8002 
G01 X-2.2748 Y0.7904 
G01 X-2.2619 Y0.7851 
G01 X-2.1881 Y0.7851 
G01 X-2.1841 Y0.7868 
G01 X-2.1814 Y0.7873 
G01 X-2.1795 Y0.7877 
G01 X-2.1747 Y0.7877 
G01 X-2.1700 Y0.7868 
G01 X-2.1670 Y0.7855 
G01 X-2.1656 Y0.7849 
G01 X-2.1643 Y0.7841 
G01 X-2.1617 Y0.7823 
G01 X-2.1583 Y0.7789 
G01 X-2.1557 Y0.7750 
G01 X-2.1501 Y0.7616 
G01 X-1.7314 Y0.3429 
G01 X-1.7277 Y0.3414 
G01 X-1.7238 Y0.3388 
G01 X-1.7204 Y0.3354 
G01 X-1.7177 Y0.3314 
G01 X-1.7159 Y0.3270 
G01 X-1.7150 Y0.3223 
G01 X-1.7150 Y0.2629 
G01 X-1.7097 Y0.2501 
G01 X-1.6999 Y0.2403 
G01 X-1.6871 Y0.2350 
G01 X-1.6129 Y0.2350 
G01 X-1.6115 Y0.2356 
G01 X-1.6105 Y0.2360 
G01 X-1.6071 Y0.2375 
G01 X-1.6052 Y0.2378 
G01 X-1.6024 Y0.2384 
G01 X-1.5976 Y0.2384 
G01 X-1.5949 Y0.2378 
G01 X-1.5929 Y0.2375 
G01 X-1.5871 Y0.2350 
G01 X-1.5129 Y0.2350 
G01 X-1.5115 Y0.2356 
G01 X-1.5071 Y0.2375 
G01 X-1.5033 Y0.2382 
G01 X-1.5024 Y0.2384 
G01 X-1.4976 Y0.2384 
G01 X-1.4930 Y0.2375 
G01 X-1.4871 Y0.2350 
G01 X-1.4129 Y0.2350 
G01 X-1.4071 Y0.2375 
G01 X-1.4052 Y0.2378 
G01 X-1.4024 Y0.2384 
G01 X-1.3976 Y0.2384 
G01 X-1.3949 Y0.2378 
G01 X-1.3929 Y0.2375 
G01 X-1.3898 Y0.2362 
G01 X-1.3885 Y0.2356 
G01 X-1.3871 Y0.2350 
G01 X-1.3129 Y0.2350 
G01 X-1.3071 Y0.2375 
G01 X-1.3052 Y0.2378 
G01 X-1.3024 Y0.2384 
G01 X-1.2976 Y0.2384 
G01 X-1.2949 Y0.2378 
G01 X-1.2929 Y0.2375 
G01 X-1.2898 Y0.2362 
G01 X-1.2885 Y0.2356 
G01 X-1.2871 Y0.2350 
G01 X-1.2129 Y0.2350 
G01 X-1.2115 Y0.2356 
G01 X-1.2105 Y0.2360 
G01 X-1.2071 Y0.2375 
G01 X-1.2052 Y0.2378 
G01 X-1.2024 Y0.2384 
G01 X-1.1976 Y0.2384 
G01 X-1.1949 Y0.2378 
G01 X-1.1929 Y0.2375 
G01 X-1.1871 Y0.2350 
G01 X-1.1129 Y0.2350 
G01 X-1.1071 Y0.2375 
G01 X-1.1052 Y0.2378 
G01 X-1.1024 Y0.2384 
G01 X-1.0976 Y0.2384 
G01 X-1.0949 Y0.2378 
G01 X-1.0929 Y0.2375 
G01 X-1.0898 Y0.2362 
G01 X-1.0885 Y0.2356 
G01 X-1.0871 Y0.2350 
G01 X-1.0129 Y0.2350 
G01 X-1.0071 Y0.2375 
G01 X-1.0052 Y0.2378 
G01 X-1.0024 Y0.2384 
G01 X-0.9976 Y0.2384 
G01 X-0.9949 Y0.2378 
G01 X-0.9929 Y0.2375 
G01 X-0.9898 Y0.2362 
G01 X-0.9885 Y0.2356 
G01 X-0.9871 Y0.2350 
G01 X-0.9129 Y0.2350 
G01 X-0.9071 Y0.2375 
G01 X-0.9052 Y0.2378 
G01 X-0.9024 Y0.2384 
G01 X-0.8976 Y0.2384 
G01 X-0.8949 Y0.2378 
G01 X-0.8929 Y0.2375 
G01 X-0.8898 Y0.2362 
G01 X-0.8885 Y0.2356 
G01 X-0.8871 Y0.2350 
G01 X-0.8129 Y0.2350 
G01 X-0.8071 Y0.2375 
G01 X-0.8052 Y0.2378 
G01 X-0.8024 Y0.2384 
G01 X-0.7976 Y0.2384 
G01 X-0.7949 Y0.2378 
G01 X-0.7929 Y0.2375 
G01 X-0.7898 Y0.2362 
G01 X-0.7885 Y0.2356 
G01 X-0.7871 Y0.2350 
G01 X-0.7129 Y0.2350 
G01 X-0.7071 Y0.2375 
G01 X-0.7052 Y0.2378 
G01 X-0.7024 Y0.2384 
G01 X-0.6976 Y0.2384 
G01 X-0.6949 Y0.2378 
G01 X-0.6929 Y0.2375 
G01 X-0.6898 Y0.2362 
G01 X-0.6885 Y0.2356 
G01 X-0.6871 Y0.2350 
G01 X-0.6129 Y0.2350 
G01 X-0.6071 Y0.2375 
G01 X-0.6052 Y0.2378 
G01 X-0.6024 Y0.2384 
G01 X-0.5976 Y0.2384 
G01 X-0.5949 Y0.2378 
G01 X-0.5929 Y0.2375 
G01 X-0.5898 Y0.2362 
G01 X-0.5885 Y0.2356 
G01 X-0.5871 Y0.2350 
G01 X-0.5129 Y0.2350 
G01 X-0.5071 Y0.2375 
G01 X-0.5052 Y0.2378 
G01 X-0.5024 Y0.2384 
G01 X-0.4976 Y0.2384 
G01 X-0.4949 Y0.2378 
G01 X-0.4929 Y0.2375 
G01 X-0.4898 Y0.2362 
G01 X-0.4885 Y0.2356 
G01 X-0.4871 Y0.2350 
G01 X-0.4129 Y0.2350 
G01 X-0.4001 Y0.2403 
G01 X-0.3903 Y0.2501 
G01 X-0.3897 Y0.2517 
G01 X-0.3886 Y0.2532 
G01 X-0.3870 Y0.2556 
G01 X-0.3837 Y0.2590 
G01 X-0.3797 Y0.2616 
G01 X-0.3753 Y0.2635 
G01 X-0.3742 Y0.2637 
G01 X-0.3742 Y0.2654 
G01 X-0.3810 Y0.2654 
G01 X-0.3827 Y0.2661 
G01 X-0.3839 Y0.2673 
G01 X-0.3846 Y0.2690 
G01 X-0.3846 Y0.3310 
G01 X-0.3839 Y0.3327 
G01 X-0.3827 Y0.3339 
G01 X-0.3810 Y0.3346 
G01 X-0.3742 Y0.3346 
G01 X-0.3742 Y0.3363 
G01 X-0.3753 Y0.3365 
G01 X-0.3797 Y0.3384 
G01 X-0.3837 Y0.3410 
G01 X-0.3870 Y0.3444 
G01 X-0.3879 Y0.3456 
G01 X-0.3897 Y0.3483 
G01 X-0.3903 Y0.3499 
G01 X-0.4001 Y0.3597 
G01 X-0.4129 Y0.3650 
G01 X-0.4871 Y0.3650 
G01 X-0.4885 Y0.3644 
G01 X-0.4895 Y0.3640 
G01 X-0.4929 Y0.3625 
G01 X-0.4948 Y0.3622 
G01 X-0.4976 Y0.3616 
G01 X-0.5024 Y0.3616 
G01 X-0.5051 Y0.3622 
G01 X-0.5071 Y0.3625 
G01 X-0.5129 Y0.3650 
G01 X-0.5871 Y0.3650 
G01 X-0.5885 Y0.3644 
G01 X-0.5929 Y0.3625 
G01 X-0.5967 Y0.3618 
G01 X-0.5976 Y0.3616 
G01 X-0.6024 Y0.3616 
G01 X-0.6070 Y0.3625 
G01 X-0.6129 Y0.3650 
G01 X-0.6871 Y0.3650 
G01 X-0.6885 Y0.3644 
G01 X-0.6895 Y0.3640 
G01 X-0.6929 Y0.3625 
G01 X-0.6948 Y0.3622 
G01 X-0.6976 Y0.3616 
G01 X-0.7024 Y0.3616 
G01 X-0.7051 Y0.3622 
G01 X-0.7071 Y0.3625 
G01 X-0.7129 Y0.3650 
G01 X-0.7923 Y0.3650 
G01 X-0.7932 Y0.3652 
G01 X-0.7970 Y0.3659 
G01 X-0.8014 Y0.3677 
G01 X-0.8053 Y0.3704 
G01 X-0.8087 Y0.3738 
G01 X-0.8114 Y0.3777 
G01 X-0.8132 Y0.3821 
G01 X-0.8146 Y0.3855 
G01 X-0.8319 Y0.4028 
G01 X-0.8441 Y0.4150 
G01 X-0.8472 Y0.4181 
G01 X-0.8475 Y0.4184 
G01 X-0.8645 Y0.4354 
G01 X-0.8846 Y0.4437 
G01 X-1.6703 Y0.4437 
G01 X-1.6750 Y0.4447 
G01 X-1.6794 Y0.4465 
G01 X-1.6833 Y0.4491 
G01 X-1.6867 Y0.4525 
G01 X-1.9150 Y0.6808 
G01 X-1.9177 Y0.6848 
G01 X-1.9195 Y0.6892 
G01 X-1.9204 Y0.6939 
G01 X-1.9204 Y0.6986 
G01 X-1.9195 Y0.7033 
G01 X-1.9177 Y0.7077 
G01 X-1.9150 Y0.7117 
G01 X-1.9117 Y0.7150 
G01 X-1.9077 Y0.7177 
G01 X-1.9034 Y0.7195 
G01 X-1.8986 Y0.7204 
G01 X-1.2239 Y0.7204 
G01 X-1.2215 Y0.7204 
G01 X-1.2191 Y0.7200 
G01 X-1.2168 Y0.7195 
G01 X-1.2146 Y0.7186 
G01 X-1.2124 Y0.7177 
G01 X-1.2104 Y0.7164 
G01 X-1.1919 Y0.7040 
G01 X-1.1899 Y0.7027 
G01 X-1.1879 Y0.7014 
G01 X-1.1863 Y0.6997 
G01 X-1.1845 Y0.6980 
G01 X-1.1832 Y0.6960 
G01 X-1.1819 Y0.6940 
G01 X-1.1810 Y0.6919 
G01 X-1.1801 Y0.6896 
G01 X-1.1796 Y0.6885 
G01 X-1.1615 Y0.6704 
G01 X-1.1378 Y0.6606 
G01 X-1.1122 Y0.6606 
G01 X-1.0885 Y0.6704 
G01 X-1.0704 Y0.6885 
G01 X-1.0606 Y0.7122 
G01 X-1.0606 Y0.7378 
G01 X-1.0704 Y0.7615 
G01 X-1.0885 Y0.7796 
G01 X-1.1159 Y0.7909 
G01 X-1.1198 Y0.7936 
G01 X-1.1232 Y0.7969 
G01 X-1.1249 Y0.7995 
G01 X-1.1259 Y0.8009 
G01 X-1.1262 Y0.8016 
G01 X-1.1277 Y0.8053 
G01 X-1.1286 Y0.8100 
G01 X-1.1286 Y0.8147 
G01 X-1.1283 Y0.8165 
G01 X-1.1277 Y0.8194 
G01 X-1.1259 Y0.8238 
G01 X-1.1232 Y0.8278 
G01 X-1.1198 Y0.8311 
G01 X-1.1173 Y0.8329 
G01 X-1.1159 Y0.8338 
G01 X-1.1151 Y0.8341 
G01 X-1.1115 Y0.8356 
G01 X-1.1071 Y0.8375 
G01 X-1.1024 Y0.8384 
G01 X-1.0976 Y0.8384 
G01 X-1.0929 Y0.8375 
G01 X-1.0871 Y0.8350 
G01 X-1.0129 Y0.8350 
G01 X-1.0071 Y0.8375 
G01 X-1.0052 Y0.8378 
G01 X-1.0024 Y0.8384 
G01 X-0.9976 Y0.8384 
G01 X-0.9949 Y0.8378 
G01 X-0.9929 Y0.8375 
G01 X-0.9898 Y0.8362 
G01 X-0.9885 Y0.8356 
G01 X-0.9871 Y0.8350 
G01 X-0.9368 Y0.8350 
G01 X-0.9321 Y0.8341 
G01 X-0.9277 Y0.8323 
G01 X-0.9238 Y0.8296 
G01 X-0.9204 Y0.8262 
G01 X-0.9177 Y0.8223 
G01 X-0.9159 Y0.8179 
G01 X-0.9150 Y0.8132 
G01 X-0.9150 Y0.7629 
G01 X-0.9097 Y0.7501 
G01 X-0.8999 Y0.7403 
G01 X-0.8871 Y0.7350 
G01 X-0.8129 Y0.7350 
G01 X-0.8071 Y0.7375 
G01 X-0.8052 Y0.7378 
G01 X-0.8024 Y0.7384 
G01 X-0.7976 Y0.7384 
G01 X-0.7949 Y0.7378 
G01 X-0.7929 Y0.7375 
G01 X-0.7898 Y0.7362 
G01 X-0.7885 Y0.7356 
G01 X-0.7871 Y0.7350 
G01 X-0.7129 Y0.7350 
G01 X-0.7071 Y0.7375 
G01 X-0.7052 Y0.7378 
G01 X-0.7024 Y0.7384 
G01 X-0.6976 Y0.7384 
G01 X-0.6949 Y0.7378 
G01 X-0.6929 Y0.7375 
G01 X-0.6898 Y0.7362 
G01 X-0.6885 Y0.7356 
G01 X-0.6871 Y0.7350 
G01 X-0.6129 Y0.7350 
G01 X-0.6001 Y0.7403 
G01 X-0.5903 Y0.7501 
G01 X-0.5850 Y0.7629 
G01 X-0.5850 Y0.8132 
G01 X-0.5841 Y0.8179 
G01 X-0.5823 Y0.8223 
G01 X-0.5796 Y0.8262 
G01 X-0.5762 Y0.8296 
G01 X-0.5723 Y0.8323 
G01 X-0.5679 Y0.8341 
G01 X-0.5632 Y0.8350 
G01 X-0.5129 Y0.8350 
G01 X-0.5071 Y0.8375 
G01 X-0.5052 Y0.8378 
G01 X-0.5024 Y0.8384 
G01 X-0.4976 Y0.8384 
G01 X-0.4949 Y0.8378 
G01 X-0.4929 Y0.8375 
G01 X-0.4898 Y0.8362 
G01 X-0.4885 Y0.8356 
G01 X-0.4871 Y0.8350 
G01 X-0.4129 Y0.8350 
G01 X-0.4071 Y0.8375 
G01 X-0.4052 Y0.8378 
G01 X-0.4024 Y0.8384 
G01 X-0.3976 Y0.8384 
G01 X-0.3949 Y0.8378 
G01 X-0.3929 Y0.8375 
G01 X-0.3898 Y0.8362 
G01 X-0.3885 Y0.8356 
G01 X-0.3871 Y0.8350 
G01 X-0.3129 Y0.8350 
G01 X-0.3001 Y0.8403 
G01 X-0.2903 Y0.8501 
G01 X-0.2850 Y0.8629 
G01 X-0.2850 Y0.9212 
G01 X-0.2841 Y0.9259 
G01 X-0.2823 Y0.9303 
G01 X-0.2796 Y0.9343 
G01 X-0.2762 Y0.9376 
G01 X-0.2723 Y0.9403 
G01 X-0.2679 Y0.9421 
G01 X-0.2632 Y0.9430 
G01 X-0.2584 Y0.9430 
G01 X-0.2538 Y0.9421 
G01 X-0.2494 Y0.9403 
G01 X-0.2369 Y0.9351 
G01 X-0.1631 Y0.9351 
G01 X-0.1502 Y0.9404 
G01 X-0.1404 Y0.9502 
G01 X-0.1351 Y0.9631 
G01 X-0.1351 Y1.0369 
G01 X-0.1358 Y1.0385 
G01 X-0.1375 Y1.0427 
G01 X-0.1376 Y1.0429 
G01 X-0.1377 Y1.0432 
G01 X-0.1385 Y1.0476 
G01 X-0.1385 Y1.0524 
G01 X-0.1376 Y1.0571 
G01 X-0.1375 Y1.0574 
G01 X-0.1351 Y1.0631 
G01 X-0.1351 Y1.1369 
G01 X-0.1404 Y1.1498 
G01 X-0.1502 Y1.1596 
G01 X-0.1518 Y1.1602 
G01 X-0.1533 Y1.1612 
G01 X-0.1557 Y1.1628 
G01 X-0.1591 Y1.1662 
G01 X-0.1617 Y1.1702 
G01 X-0.1636 Y1.1746 
G01 X-0.1638 Y1.1758 
G01 X-0.1655 Y1.1758 
G01 X-0.1655 Y1.1691 
G01 X-0.1662 Y1.1675 
G01 X-0.1675 Y1.1662 
G01 X-0.1691 Y1.1655 
G01 X-0.2309 Y1.1655 
G01 X-0.2325 Y1.1662 
G01 X-0.2338 Y1.1675 
G01 X-0.2345 Y1.1691 
G01 X-0.2345 Y1.1758 
G01 X-0.2391 Y1.1758 
G01 X-0.2409 Y1.1731 
G01 X-0.2443 Y1.1698 
G01 X-0.2482 Y1.1671 
G01 X-0.2526 Y1.1653 
G01 X-0.2573 Y1.1644 
G01 X-0.3097 Y1.1644 
G01 X-0.3105 Y1.1643 
G01 X-0.3120 Y1.1644 
G01 X-0.3136 Y1.1644 
G01 X-0.3144 Y1.1645 
G01 X-0.3153 Y1.1646 
G01 X-0.3167 Y1.1650 
G01 X-0.3182 Y1.1653 
G01 X-0.3190 Y1.1656 
G01 X-0.3199 Y1.1659 
G01 X-0.3212 Y1.1665 
G01 X-0.3226 Y1.1671 
G01 X-0.3233 Y1.1676 
G01 X-0.3241 Y1.1680 
G01 X-0.3253 Y1.1689 
G01 X-0.3266 Y1.1698 
G01 X-0.3272 Y1.1704 
G01 X-0.3279 Y1.1709 
G01 X-0.3289 Y1.1721 
G01 X-0.3300 Y1.1731 
G01 X-0.3304 Y1.1739 
G01 X-0.3310 Y1.1745 
G01 X-0.3318 Y1.1758 
G01 X-0.3326 Y1.1771 
G01 X-0.3329 Y1.1779 
G01 X-0.3334 Y1.1786 
G01 X-0.3338 Y1.1801 
G01 X-0.3344 Y1.1815 
G01 X-0.3345 Y1.1818 
G01 X-0.3347 Y1.1823 
G01 X-0.3349 Y1.1832 
G01 X-0.3351 Y1.1840 
G01 X-0.3353 Y1.1855 
G01 X-0.3356 Y1.1870 
G01 X-0.3356 Y1.1879 
G01 X-0.3357 Y1.1887 
G01 X-0.3356 Y1.1902 
G01 X-0.3356 Y1.3878 
G01 X-0.3454 Y1.4115 
G01 X-0.3686 Y1.4347 
G01 X-0.4885 Y1.5546 
G01 X-0.5122 Y1.5644 
G01 X-0.5378 Y1.5644 
G01 X-0.5549 Y1.5573 
G01 X-0.5593 Y1.5555 
G01 X-0.5639 Y1.5546 
G01 X-0.9614 Y1.5546 
G01 X-0.9661 Y1.5555 
G01 X-0.9678 Y1.5562 
G01 X-0.9705 Y1.5573 
G01 X-0.9744 Y1.5600 
G01 X-0.9778 Y1.5633 
G01 X-0.9804 Y1.5673 
G01 X-0.9823 Y1.5717 
G01 X-0.9832 Y1.5764 
G01 X-0.9832 Y1.5811 
G01 X-0.9823 Y1.5858 
G01 X-0.9815 Y1.5876 
G01 X-0.9804 Y1.5902 
G01 X-0.9778 Y1.5942 
G01 X-0.9744 Y1.5975 
G01 X-0.9632 Y1.6087 
G01 X-0.9521 Y1.6355 
G01 X-0.9521 Y1.6645 
G01 X-0.9632 Y1.6913 
G01 X-0.9837 Y1.7118 
G01 X-1.0105 Y1.7229 
G01 X-1.0395 Y1.7229 
G01 X-1.0679 Y1.7111 
G01 X-1.0726 Y1.7102 
G01 X-1.0774 Y1.7102 
G01 X-1.0821 Y1.7111 
G01 X-1.0865 Y1.7129 
G01 X-1.1105 Y1.7229 
G01 X-1.1395 Y1.7229 
G01 X-1.1679 Y1.7111 
G01 X-1.1726 Y1.7102 
G01 X-1.1774 Y1.7102 
G01 X-1.1821 Y1.7111 
G01 X-1.1865 Y1.7129 
G01 X-1.2105 Y1.7229 
G01 X-1.2395 Y1.7229 
G01 X-1.2679 Y1.7111 
G01 X-1.2726 Y1.7102 
G01 X-1.2774 Y1.7102 
G01 X-1.2821 Y1.7111 
G01 X-1.2865 Y1.7129 
G01 X-1.3105 Y1.7229 
G01 X-1.3395 Y1.7229 
G01 X-1.3679 Y1.7111 
G01 X-1.3726 Y1.7102 
G01 X-1.3774 Y1.7102 
G01 X-1.3821 Y1.7111 
G01 X-1.3865 Y1.7129 
G01 X-1.4105 Y1.7229 
G01 X-1.4395 Y1.7229 
G01 X-1.4663 Y1.7118 
G01 X-1.4808 Y1.6973 
G01 X-1.4841 Y1.6940 
G01 X-1.4872 Y1.6918 
G01 X-1.4881 Y1.6913 
G01 X-1.4901 Y1.6904 
G01 X-1.4925 Y1.6895 
G01 X-1.4972 Y1.6885 
G01 X-1.5008 Y1.6885 
G01 X-1.5008 Y1.6850 
G01 X-1.4973 Y1.6824 
G01 X-1.4926 Y1.6777 
G01 X-1.4887 Y1.6723 
G01 X-1.4856 Y1.6663 
G01 X-1.4835 Y1.6600 
G01 X-1.4825 Y1.6533 
G01 X-1.4825 Y1.6467 
G01 X-1.4835 Y1.6400 
G01 X-1.4856 Y1.6337 
G01 X-1.4887 Y1.6277 
G01 X-1.4926 Y1.6223 
G01 X-1.4973 Y1.6176 
G01 X-1.5027 Y1.6137 
G01 X-1.5087 Y1.6106 
G01 X-1.5150 Y1.6085 
G01 X-1.5217 Y1.6075 
G01 X-1.5283 Y1.6075 
G01 X-1.5350 Y1.6085 
G01 X-1.5413 Y1.6106 
G01 X-1.5473 Y1.6137 
G01 X-1.5527 Y1.6176 
G01 X-1.5574 Y1.6223 
G01 X-1.5613 Y1.6277 
G01 X-1.5644 Y1.6337 
G01 X-1.5665 Y1.6400 
G01 X-1.5675 Y1.6467 
G01 X-1.5675 Y1.6533 
G01 X-1.5665 Y1.6600 
G01 X-1.5644 Y1.6663 
G01 X-1.5613 Y1.6723 
G01 X-1.5574 Y1.6777 
G01 X-1.5527 Y1.6824 
G01 X-1.5492 Y1.6850 
G01 X-1.5492 Y1.6885 
G01 X-1.5528 Y1.6885 
G01 X-1.5574 Y1.6894 
G01 X-1.5598 Y1.6904 
G01 X-1.5619 Y1.6913 
G01 X-1.5627 Y1.6918 
G01 X-1.5659 Y1.6939 
G01 X-1.5692 Y1.6973 
G01 X-1.5837 Y1.7118 
G01 X-1.6105 Y1.7229 
G01 X-1.6395 Y1.7229 
G01 X-1.6679 Y1.7111 
G01 X-1.6726 Y1.7102 
G01 X-1.6774 Y1.7102 
G01 X-1.6821 Y1.7111 
G01 X-1.6865 Y1.7129 
G01 X-1.7105 Y1.7229 
G01 X-1.7395 Y1.7229 
G01 X-1.7663 Y1.7118 
G01 X-1.7868 Y1.6913 
G01 X-1.7979 Y1.6645 
G01 X-1.7979 Y1.6355 
G01 X-1.7868 Y1.6087 
G01 X-1.7663 Y1.5882 
G01 X-1.7395 Y1.5771 
G01 X-1.7105 Y1.5771 
G01 X-1.6965 Y1.5829 
G01 X-1.6923 Y1.5847 
G01 X-1.6921 Y1.5847 
G01 X-1.6875 Y1.5857 
G01 X-1.6827 Y1.5857 
G01 X-1.6780 Y1.5847 
G01 X-1.6768 Y1.5842 
G01 X-1.6736 Y1.5829 
G01 X-1.6697 Y1.5803 
G01 X-1.6663 Y1.5769 
G01 X-1.5432 Y1.4538 
G01 X-1.5231 Y1.4454 
G01 X-0.6248 Y1.4454 
G01 X-0.6202 Y1.4445 
G01 X-0.6158 Y1.4427 
G01 X-0.6144 Y1.4418 
G01 X-0.6118 Y1.4400 
G01 X-0.6085 Y1.4367 
G01 X-0.6058 Y1.4327 
G01 X-0.6040 Y1.4283 
G01 X-0.6030 Y1.4236 
G01 X-0.6030 Y1.4189 
G01 X-0.6040 Y1.4142 
G01 X-0.6058 Y1.4098 
G01 X-0.6149 Y1.3879 
G01 X-0.6149 Y1.3609 
G01 X-0.6148 Y1.3604 
G01 X-0.6144 Y1.3585 
G01 X-0.6144 Y1.3073 
G01 X-0.6153 Y1.3026 
G01 X-0.6171 Y1.2982 
G01 X-0.6198 Y1.2943 
G01 X-0.6232 Y1.2909 
G01 X-0.6258 Y1.2891 
G01 X-0.6258 Y1.2845 
G01 X-0.6191 Y1.2845 
G01 X-0.6175 Y1.2838 
G01 X-0.6162 Y1.2825 
G01 X-0.6155 Y1.2809 
G01 X-0.6155 Y1.2191 
G01 X-0.6162 Y1.2175 
G01 X-0.6175 Y1.2162 
G01 X-0.6191 Y1.2155 
G01 X-0.6809 Y1.2155 
G01 X-0.6825 Y1.2162 
G01 X-0.6838 Y1.2175 
G01 X-0.6845 Y1.2191 
G01 X-0.6845 Y1.2258 
G01 X-0.7155 Y1.2258 
G01 X-0.7155 Y1.2191 
G01 X-0.7162 Y1.2175 
G01 X-0.7175 Y1.2162 
G01 X-0.7191 Y1.2155 
G01 X-0.7809 Y1.2155 
G01 X-0.7825 Y1.2162 
G01 X-0.7838 Y1.2175 
G01 X-0.7845 Y1.2191 
G01 X-0.7845 Y1.2258 
G01 X-0.7862 Y1.2258 
G01 X-0.7864 Y1.2246 
G01 X-0.7883 Y1.2202 
G01 X-0.7909 Y1.2162 
G01 X-0.7943 Y1.2128 
G01 X-0.7955 Y1.2120 
G01 X-0.7982 Y1.2102 
G01 X-0.7998 Y1.2096 
G01 X-0.8096 Y1.1998 
G01 X-0.8149 Y1.1869 
G01 X-0.8149 Y1.1131 
G01 X-0.8124 Y1.1071 
G01 X-0.8123 Y1.1068 
G01 X-0.8115 Y1.1024 
G01 X-0.8115 Y1.0976 
G01 X-0.8124 Y1.0929 
G01 X-0.8142 Y1.0885 
G01 X-0.8149 Y1.0869 
G01 X-0.8149 Y1.0131 
G01 X-0.8097 Y1.0006 
G01 X-0.8083 Y0.9973 
G01 X-0.8079 Y0.9962 
G01 X-0.8070 Y0.9916 
G01 X-0.8070 Y0.9868 
G01 X-0.8079 Y0.9821 
G01 X-0.8097 Y0.9777 
G01 X-0.8123 Y0.9738 
G01 X-0.8157 Y0.9704 
G01 X-0.8197 Y0.9677 
G01 X-0.8241 Y0.9659 
G01 X-0.8288 Y0.9650 
G01 X-0.8871 Y0.9650 
G01 X-0.8885 Y0.9644 
G01 X-0.8895 Y0.9640 
G01 X-0.8929 Y0.9625 
G01 X-0.8948 Y0.9622 
G01 X-0.8976 Y0.9616 
G01 X-0.9024 Y0.9616 
G01 X-0.9051 Y0.9622 
G01 X-0.9071 Y0.9625 
G01 X-0.9129 Y0.9650 
G01 X-0.9871 Y0.9650 
G01 X-0.9885 Y0.9644 
G01 X-0.9895 Y0.9640 
G01 X-0.9929 Y0.9625 
G01 X-0.9948 Y0.9622 
G01 X-0.9976 Y0.9616 
G01 X-1.0024 Y0.9616 
G01 X-1.0051 Y0.9622 
G01 X-1.0071 Y0.9625 
G01 X-1.0129 Y0.9650 
G01 X-1.0871 Y0.9650 
G01 X-1.0885 Y0.9644 
G01 X-1.0895 Y0.9640 
G01 X-1.0929 Y0.9625 
G01 X-1.0948 Y0.9622 
G01 X-1.0976 Y0.9616 
G01 X-1.1024 Y0.9616 
G01 X-1.1051 Y0.9622 
G01 X-1.1071 Y0.9625 
G01 X-1.1129 Y0.9650 
G01 X-1.1876 Y0.9650 
G01 X-1.1923 Y0.9659 
G01 X-1.1967 Y0.9677 
G01 X-1.2006 Y0.9704 
G01 X-1.2040 Y0.9738 
G01 X-1.2057 Y0.9764 
G01 X-1.2067 Y0.9777 
G01 X-1.2085 Y0.9821 
G01 X-1.2146 Y0.9968 
G01 X-1.2350 Y1.0173 
G01 X-1.5818 Y1.3640 
G01 X-1.6018 Y1.3724 
G01 X-2.4016 Y1.3724 
G01 X-2.4023 Y1.3722 
G01 X-2.4039 Y1.3724 
G01 X-2.4055 Y1.3724 
G01 X-2.4063 Y1.3725 
G01 X-2.4071 Y1.3726 
G01 X-2.4086 Y1.3730 
G01 X-2.4102 Y1.3733 
G01 X-2.4109 Y1.3736 
G01 X-2.4117 Y1.3738 
G01 X-2.4131 Y1.3745 
G01 X-2.4146 Y1.3751 
G01 X-2.4153 Y1.3755 
G01 X-2.4160 Y1.3759 
G01 X-2.4172 Y1.3769 
G01 X-2.4186 Y1.3777 
G01 X-2.4191 Y1.3783 
G01 X-2.4198 Y1.3788 
G01 X-2.4208 Y1.3800 
G01 X-2.4219 Y1.3811 
G01 X-2.4224 Y1.3818 
G01 X-2.4229 Y1.3824 
G01 X-2.4237 Y1.3838 
G01 X-2.4246 Y1.3851 
G01 X-2.4249 Y1.3858 
G01 X-2.4253 Y1.3865 
G01 X-2.4258 Y1.3880 
G01 X-2.4264 Y1.3895 
G01 X-2.4265 Y1.3903 
G01 X-2.4268 Y1.3910 
G01 X-2.4270 Y1.3926 
G01 X-2.4273 Y1.3942 
G01 X-2.4273 Y1.3950 
G01 X-2.4274 Y1.3957 
G01 X-2.4273 Y1.3973 
G01 X-2.4273 Y1.3989 
G01 X-2.4272 Y1.3997 
G01 X-2.4271 Y1.4005 
G01 X-2.4267 Y1.4020 
G01 X-2.4264 Y1.4036 
G01 X-2.4261 Y1.4043 
G01 X-2.4259 Y1.4051 
G01 X-2.4252 Y1.4065 
G01 X-2.4246 Y1.4080 
G01 X-2.4241 Y1.4087 
G01 X-2.4238 Y1.4094 
G01 X-2.4228 Y1.4106 
G01 X-2.4219 Y1.4120 
G01 X-2.4214 Y1.4125 
G01 X-2.4209 Y1.4131 
G01 X-2.4197 Y1.4142 
G01 X-2.4186 Y1.4153 
G01 X-2.4179 Y1.4158 
G01 X-2.4173 Y1.4163 
G01 X-2.4168 Y1.4166 
G01 X-2.3916 Y1.4418 
G01 X-2.3737 Y1.4727 
G01 X-2.3645 Y1.5072 
G01 X-2.3645 Y1.5428 
G01 X-2.3737 Y1.5773 
G01 X-2.3916 Y1.6082 
G01 X-2.4168 Y1.6334 
G01 X-2.4477 Y1.6513 
G01 X-2.4822 Y1.6605 
G01 X-2.5178 Y1.6605 
G01 X-2.5523 Y1.6513 
G01 X-2.5832 Y1.6334 
G01 X-2.6084 Y1.6082 
G01 X-2.6263 Y1.5773 
G01 X-2.6355 Y1.5428 
G01 X-2.6355 Y1.5072 
G01 X-2.6263 Y1.4727 
G01 X-2.6084 Y1.4418 
G01 X-2.5832 Y1.4166 
G01 X-2.5531 Y1.3992 
G01 X-2.5523 Y1.3989 
G01 X-2.5510 Y1.3980 
G01 X-2.5496 Y1.3972 
G01 X-2.5490 Y1.3967 
G01 X-2.5484 Y1.3962 
G01 X-2.5472 Y1.3951 
G01 X-2.5461 Y1.3941 
G01 X-2.5456 Y1.3934 
G01 X-2.5450 Y1.3929 
G01 X-2.5441 Y1.3915 
G01 X-2.5432 Y1.3903 
G01 X-2.5428 Y1.3896 
G01 X-2.5424 Y1.3889 
G01 X-2.5417 Y1.3874 
G01 X-2.5410 Y1.3860 
G01 X-2.5408 Y1.3852 
G01 X-2.5405 Y1.3845 
G01 X-2.5402 Y1.3829 
G01 X-2.5398 Y1.3814 
G01 X-2.5398 Y1.3806 
G01 X-2.5396 Y1.3798 
G01 X-2.5396 Y1.3782 
G01 X-2.5395 Y1.3766 
G01 X-2.5396 Y1.3759 
G01 X-2.5396 Y1.3751 
G01 X-2.5399 Y1.3735 
G01 X-2.5401 Y1.3719 
G01 X-2.5404 Y1.3712 
G01 X-2.5405 Y1.3704 
G01 X-2.5411 Y1.3689 
G01 X-2.5417 Y1.3674 
G01 X-2.5421 Y1.3667 
G01 X-2.5424 Y1.3660 
G01 X-2.5432 Y1.3647 
G01 X-2.5440 Y1.3633 
G01 X-2.5446 Y1.3627 
G01 X-2.5450 Y1.3620 
G01 X-2.5461 Y1.3609 
G01 X-2.5472 Y1.3597 
G01 X-2.5478 Y1.3592 
G01 X-2.5634 Y1.3436 
G01 X-2.6390 Y1.2680 
G01 X-2.6474 Y1.2479 
G01 X-2.6474 Y1.0521 
G01 X-2.6390 Y1.0320 
G01 X-2.5388 Y0.9318 
G01 X-2.5217 Y0.9147 
G01 X-2.5070 Y0.9086 
G01 X-2.5026 Y0.9068 
G01 X-2.5013 Y0.9059 
G01 X-2.4986 Y0.9041 
G01 X-2.4953 Y0.9008 
G01 X-2.4926 Y0.8968 
G01 X-2.4926 Y0.8967 
G01 X-2.4908 Y0.8924 
G01 X-2.4899 Y0.8880 
G01 X-2.4899 Y0.8877 
G01 X-2.4899 Y0.8131 
G01 X-2.4846 Y0.8002 
G01 X-2.4748 Y0.7904 
G01 X-2.4619 Y0.7851 
G01 X-2.3881 Y0.7851 
G01 X-2.3752 Y0.7904 
G01 X-2.3654 Y0.8002 
G01 X-2.3601 Y0.8131 
G01 X-2.3601 Y0.8869 
G01 X-2.3608 Y0.8885 
G01 X-2.3625 Y0.8927 
G01 X-2.3626 Y0.8929 
G01 X-2.3627 Y0.8932 
G01 X-2.3635 Y0.8976 
G01 X-2.3635 Y0.9024 
G01 X-2.3626 Y0.9071 
G01 X-2.3625 Y0.9074 
G01 X-2.3601 Y0.9131 
G01 X-2.3601 Y0.9869 
G01 X-2.3608 Y0.9885 
G01 X-2.3625 Y0.9927 
G01 X-2.3626 Y0.9929 
G01 X-2.3627 Y0.9932 
G01 X-2.3635 Y0.9976 
G01 X-2.3635 Y1.0024 
G01 X-2.3626 Y1.0071 
G01 X-2.3625 Y1.0074 
G01 X-2.3601 Y1.0131 
G01 X-2.3601 Y1.0869 
G01 X-2.3654 Y1.0998 
G01 X-2.3752 Y1.1096 
G01 X-2.3768 Y1.1102 
G01 X-2.3783 Y1.1112 
G01 X-2.3807 Y1.1128 
G01 X-2.3841 Y1.1162 
G01 X-2.3867 Y1.1202 
G01 X-2.3886 Y1.1246 
G01 X-2.3888 Y1.1258 
G01 X-2.3905 Y1.1258 
G01 X-2.3905 Y1.1191 
G01 X-2.3912 Y1.1175 
G01 X-2.3925 Y1.1162 
G01 X-2.3941 Y1.1155 
G01 X-2.4559 Y1.1155 
G01 X-2.4575 Y1.1162 
G01 X-2.4588 Y1.1175 
G01 X-2.4595 Y1.1191 
G01 X-2.4595 Y1.1809 
G01 X-2.4588 Y1.1825 
G01 X-2.4575 Y1.1838 
G01 X-2.4559 Y1.1845 
G01 X-2.3941 Y1.1845 
G01 X-2.3925 Y1.1838 
G01 X-2.3912 Y1.1825 
G01 X-2.3905 Y1.1809 
G01 X-2.3905 Y1.1742 
G01 X-2.3851 Y1.1742 
G01 X-2.3841 Y1.1757 
G01 X-2.3807 Y1.1791 
G01 X-2.3768 Y1.1817 
G01 X-2.3724 Y1.1836 
G01 X-2.3677 Y1.1845 
G01 X-2.2823 Y1.1845 
G01 X-2.2776 Y1.1836 
G01 X-2.2732 Y1.1817 
G01 X-2.2693 Y1.1791 
G01 X-2.2659 Y1.1757 
G01 X-2.2649 Y1.1742 
G01 X-2.2595 Y1.1742 
G01 X-2.2595 Y1.1809 
G01 X-2.2588 Y1.1825 
G01 X-2.2575 Y1.1838 
G01 X-2.2559 Y1.1845 
G01 X-2.1941 Y1.1845 
G01 X-2.1925 Y1.1838 
G01 X-2.1912 Y1.1825 
G01 X-2.1905 Y1.1809 
G01 X-2.1905 Y1.1742 
G01 X-2.1851 Y1.1742 
G01 X-2.1841 Y1.1757 
G01 X-2.1807 Y1.1791 
G01 X-2.1768 Y1.1817 
G01 X-2.1724 Y1.1836 
G01 X-2.1677 Y1.1845 
G01 X-1.6755 Y1.1845 
G01 X-1.6709 Y1.1836 
G01 X-1.6665 Y1.1817 
G01 X-1.6625 Y1.1791 
G01 X-1.6598 Y1.1764 
G01 X-1.4904 Y1.0070 
G01 X-1.4898 Y1.0064 
G01 X-1.4870 Y1.0036 
G01 X-1.4869 Y1.0035 
G01 X-1.4844 Y0.9997 
G01 X-1.4833 Y0.9971 
G01 X-1.4826 Y0.9953 
G01 X-1.4816 Y0.9906 
G01 X-1.4816 Y0.9858 
G01 X-1.4818 Y0.9850 
G01 X-1.4826 Y0.9812 
G01 X-1.4844 Y0.9768 
G01 X-1.4870 Y0.9728 
G01 X-1.4904 Y0.9694 
G01 X-1.4906 Y0.9693 
G01 X-1.4944 Y0.9668 
G01 X-1.4969 Y0.9657 
G01 X-1.4988 Y0.9650 
G01 X-1.5034 Y0.9640 
G01 X-1.5082 Y0.9640 
G01 X-1.5091 Y0.9642 
G01 X-1.5129 Y0.9650 
G01 X-1.5871 Y0.9650 
G01 X-1.5885 Y0.9644 
G01 X-1.5895 Y0.9640 
G01 X-1.5929 Y0.9625 
G01 X-1.5948 Y0.9622 
G01 X-1.5976 Y0.9616 
G01 X-1.6024 Y0.9616 
G01 X-1.6051 Y0.9622 
G01 X-1.6071 Y0.9625 
G01 X-1.6129 Y0.9650 
G01 X-1.6871 Y0.9650 
G01 X-1.6999 Y0.9597 
G01 X-1.7097 Y0.9499 
G01 X-1.7150 Y0.9371 
G01 X-1.7150 Y0.8629 
G01 X-1.7141 Y0.8608 
G01 X-1.7135 Y0.8580 
G01 X-1.7132 Y0.8561 
G01 X-1.7132 Y0.8514 
G01 X-1.7141 Y0.8467 
G01 X-1.7156 Y0.8431 
G01 X-1.7159 Y0.8423 
G01 X-1.7172 Y0.8404 
G01 X-1.7186 Y0.8383 
G01 X-1.7219 Y0.8350 
G01 X-1.7259 Y0.8323 
G01 X-1.7303 Y0.8305 
G01 X-1.7331 Y0.8299 
G01 X-1.7350 Y0.8296 
G01 X-1.9448 Y0.8296 
G01 X-1.9475 Y0.8301 
G01 X-1.9494 Y0.8305 
G01 X-1.9505 Y0.8309 
G01 X-1.9538 Y0.8323 
G01 X-1.9578 Y0.8350 
G01 X-1.9652 Y0.8423 
G01 X-1.9670 Y0.8450 
G01 X-1.9678 Y0.8463 
G01 X-1.9686 Y0.8482 
G01 X-1.9697 Y0.8507 
G01 X-1.9700 Y0.8526 
G01 X-1.9706 Y0.8554 
G01 X-1.9706 Y0.9935 
G01 X-1.9789 Y1.0135 
G01 X-2.0507 Y1.0853 
G01 X-2.0707 Y1.0936 
G01 X-2.1517 Y1.0936 
G01 X-2.1563 Y1.0945 
G01 X-2.1607 Y1.0964 
G01 X-2.1647 Y1.0990 
G01 X-2.1681 Y1.1024 
G01 X-2.1752 Y1.1096 
G01 X-2.1768 Y1.1102 
G01 X-2.1807 Y1.1128 
G01 X-2.1841 Y1.1162 
G01 X-2.1867 Y1.1202 
G01 X-2.1886 Y1.1246 
G01 X-2.1888 Y1.1258 
G01 X-2.1905 Y1.1258 
G01 X-2.1905 Y1.1191 
G01 X-2.1912 Y1.1175 
G01 X-2.1925 Y1.1162 
G01 X-2.1941 Y1.1155 
G00 Z0.1000 
G00 X-2.6170 Y1.2347 
G01 Z-0.0070 F10.00 
G01 X-2.6170 Y1.2395 F20.00 
G01 X-2.6161 Y1.2441 
G01 X-2.6142 Y1.2485 
G01 X-2.6116 Y1.2525 
G01 X-2.5309 Y1.3332 
G01 X-2.5275 Y1.3366 
G01 X-2.5235 Y1.3392 
G01 X-2.5191 Y1.3411 
G01 X-2.5145 Y1.3420 
G01 X-1.6103 Y1.3420 
G01 X-1.6056 Y1.3411 
G01 X-1.6012 Y1.3392 
G01 X-1.5973 Y1.3366 
G01 X-1.2454 Y0.9847 
G01 X-1.2420 Y0.9814 
G01 X-1.2394 Y0.9774 
G01 X-1.2376 Y0.9730 
G01 X-1.2366 Y0.9683 
G01 X-1.2366 Y0.9346 
G01 X-1.2190 Y0.9346 
G01 X-1.2173 Y0.9339 
G01 X-1.2161 Y0.9327 
G01 X-1.2154 Y0.9310 
G01 X-1.2154 Y0.8690 
G01 X-1.2161 Y0.8673 
G01 X-1.2173 Y0.8661 
G01 X-1.2190 Y0.8654 
G01 X-1.2810 Y0.8654 
G01 X-1.2827 Y0.8661 
G01 X-1.2839 Y0.8673 
G01 X-1.2846 Y0.8690 
G01 X-1.2846 Y0.9065 
G01 X-1.2850 Y0.9084 
G01 X-1.2850 Y0.9559 
G01 X-1.6227 Y1.2936 
G01 X-2.5021 Y1.2936 
G01 X-2.5686 Y1.2271 
G01 X-2.5686 Y1.0729 
G01 X-2.4808 Y0.9851 
G01 X-2.4336 Y0.9851 
G01 X-2.4304 Y0.9845 
G01 X-2.3941 Y0.9845 
G01 X-2.3925 Y0.9838 
G01 X-2.3912 Y0.9825 
G01 X-2.3905 Y0.9809 
G01 X-2.3905 Y0.9191 
G01 X-2.3912 Y0.9175 
G01 X-2.3925 Y0.9162 
G01 X-2.3941 Y0.9155 
G01 X-2.4559 Y0.9155 
G01 X-2.4575 Y0.9162 
G01 X-2.4588 Y0.9175 
G01 X-2.4595 Y0.9191 
G01 X-2.4595 Y0.9368 
G01 X-2.4932 Y0.9368 
G01 X-2.4979 Y0.9377 
G01 X-2.5023 Y0.9395 
G01 X-2.5062 Y0.9422 
G01 X-2.5096 Y0.9455 
G01 X-2.6116 Y1.0475 
G01 X-2.6142 Y1.0515 
G01 X-2.6161 Y1.0559 
G01 X-2.6170 Y1.0605 
G01 X-2.6170 Y1.0653 
G01 X-2.6170 Y1.2347 
G00 Z0.1000 
G00 X-1.2000 Y0.7992 
G01 Z-0.0070 F10.00 
G01 X-1.1976 Y0.7992 F20.00 
G01 X-1.1976 Y0.7992 
G01 X-1.1953 Y0.7987 
G01 X-1.1930 Y0.7983 
G01 X-1.1907 Y0.7973 
G01 X-1.1886 Y0.7964 
G01 X-1.1866 Y0.7951 
G01 X-1.1315 Y0.7584 
G01 X-1.1284 Y0.7590 
G01 X-1.1216 Y0.7590 
G01 X-1.1151 Y0.7577 
G01 X-1.1089 Y0.7552 
G01 X-1.1033 Y0.7514 
G01 X-1.0986 Y0.7467 
G01 X-1.0948 Y0.7411 
G01 X-1.0923 Y0.7349 
G01 X-1.0910 Y0.7284 
G01 X-1.0910 Y0.7216 
G01 X-1.0923 Y0.7151 
G01 X-1.0948 Y0.7089 
G01 X-1.0986 Y0.7033 
G01 X-1.1033 Y0.6986 
G01 X-1.1089 Y0.6948 
G01 X-1.1151 Y0.6923 
G01 X-1.1216 Y0.6910 
G01 X-1.1284 Y0.6910 
G01 X-1.1349 Y0.6923 
G01 X-1.1411 Y0.6948 
G01 X-1.1467 Y0.6986 
G01 X-1.1514 Y0.7033 
G01 X-1.1552 Y0.7089 
G01 X-1.1577 Y0.7151 
G01 X-1.1583 Y0.7182 
G01 X-1.2073 Y0.7508 
G01 X-1.9774 Y0.7508 
G01 X-1.9821 Y0.7517 
G01 X-1.9865 Y0.7536 
G01 X-1.9904 Y0.7562 
G01 X-2.0406 Y0.8063 
G01 X-2.0439 Y0.8097 
G01 X-2.0466 Y0.8137 
G01 X-2.0484 Y0.8181 
G01 X-2.0493 Y0.8228 
G01 X-2.0493 Y0.9726 
G01 X-2.0916 Y1.0149 
G01 X-2.2164 Y1.0149 
G01 X-2.2196 Y1.0155 
G01 X-2.2559 Y1.0155 
G01 X-2.2575 Y1.0162 
G01 X-2.2588 Y1.0175 
G01 X-2.2595 Y1.0191 
G01 X-2.2595 Y1.0809 
G01 X-2.2588 Y1.0825 
G01 X-2.2575 Y1.0838 
G01 X-2.2559 Y1.0845 
G01 X-2.1941 Y1.0845 
G01 X-2.1925 Y1.0838 
G01 X-2.1912 Y1.0825 
G01 X-2.1905 Y1.0809 
G01 X-2.1905 Y1.0632 
G01 X-2.0792 Y1.0632 
G01 X-2.0745 Y1.0623 
G01 X-2.0701 Y1.0605 
G01 X-2.0662 Y1.0578 
G01 X-2.0063 Y0.9980 
G01 X-2.0037 Y0.9941 
G01 X-2.0019 Y0.9897 
G01 X-2.0010 Y0.9850 
G01 X-2.0010 Y0.8352 
G01 X-1.9650 Y0.7992 
G01 X-1.2000 Y0.7992 
G00 Z0.1000 
G00 X-0.1691 Y0.9655 
G01 Z-0.0070 F10.00 
G01 X-0.2309 Y0.9655 F20.00 
G01 X-0.2325 Y0.9662 
G01 X-0.2338 Y0.9675 
G01 X-0.2345 Y0.9691 
G01 X-0.2345 Y1.0309 
G01 X-0.2338 Y1.0325 
G01 X-0.2325 Y1.0338 
G01 X-0.2309 Y1.0345 
G01 X-0.1691 Y1.0345 
G01 X-0.1675 Y1.0338 
G01 X-0.1662 Y1.0325 
G01 X-0.1655 Y1.0309 
G01 X-0.1655 Y0.9691 
G01 X-0.1662 Y0.9675 
G01 X-0.1675 Y0.9662 
G01 X-0.1691 Y0.9655 
G00 Z0.1000 
G00 X-0.3846 Y0.8690 
G01 Z-0.0070 F10.00 
G01 X-0.3846 Y0.9310 F20.00 
G01 X-0.3839 Y0.9327 
G01 X-0.3827 Y0.9339 
G01 X-0.3810 Y0.9346 
G01 X-0.3190 Y0.9346 
G01 X-0.3173 Y0.9339 
G01 X-0.3161 Y0.9327 
G01 X-0.3154 Y0.9310 
G01 X-0.3154 Y0.8690 
G01 X-0.3161 Y0.8673 
G01 X-0.3173 Y0.8661 
G01 X-0.3190 Y0.8654 
G01 X-0.3810 Y0.8654 
G01 X-0.3827 Y0.8661 
G01 X-0.3839 Y0.8673 
G01 X-0.3846 Y0.8690 
G00 Z0.1000 
G00 X-0.4846 Y0.8690 
G01 Z-0.0070 F10.00 
G01 X-0.4846 Y0.9310 F20.00 
G01 X-0.4839 Y0.9327 
G01 X-0.4827 Y0.9339 
G01 X-0.4810 Y0.9346 
G01 X-0.4190 Y0.9346 
G01 X-0.4173 Y0.9339 
G01 X-0.4161 Y0.9327 
G01 X-0.4154 Y0.9310 
G01 X-0.4154 Y0.8690 
G01 X-0.4161 Y0.8673 
G01 X-0.4173 Y0.8661 
G01 X-0.4190 Y0.8654 
G01 X-0.4810 Y0.8654 
G01 X-0.4827 Y0.8661 
G01 X-0.4839 Y0.8673 
G01 X-0.4846 Y0.8690 
G00 Z0.1000 
G00 X-0.6846 Y0.8690 
G01 Z-0.0070 F10.00 
G01 X-0.6846 Y0.9310 F20.00 
G01 X-0.6839 Y0.9327 
G01 X-0.6827 Y0.9339 
G01 X-0.6810 Y0.9346 
G01 X-0.6190 Y0.9346 
G01 X-0.6173 Y0.9339 
G01 X-0.6161 Y0.9327 
G01 X-0.6154 Y0.9310 
G01 X-0.6154 Y0.8690 
G01 X-0.6161 Y0.8673 
G01 X-0.6173 Y0.8661 
G01 X-0.6190 Y0.8654 
G01 X-0.6810 Y0.8654 
G01 X-0.6827 Y0.8661 
G01 X-0.6839 Y0.8673 
G01 X-0.6846 Y0.8690 
G00 Z0.1000 
G00 X-0.7846 Y0.8690 
G01 Z-0.0070 F10.00 
G01 X-0.7846 Y0.9310 F20.00 
G01 X-0.7839 Y0.9327 
G01 X-0.7827 Y0.9339 
G01 X-0.7810 Y0.9346 
G01 X-0.7190 Y0.9346 
G01 X-0.7173 Y0.9339 
G01 X-0.7161 Y0.9327 
G01 X-0.7154 Y0.9310 
G01 X-0.7154 Y0.8690 
G01 X-0.7161 Y0.8673 
G01 X-0.7173 Y0.8661 
G01 X-0.7190 Y0.8654 
G01 X-0.7810 Y0.8654 
G01 X-0.7827 Y0.8661 
G01 X-0.7839 Y0.8673 
G01 X-0.7846 Y0.8690 
G00 Z0.1000 
G00 X-0.8846 Y0.8690 
G01 Z-0.0070 F10.00 
G01 X-0.8846 Y0.9310 F20.00 
G01 X-0.8839 Y0.9327 
G01 X-0.8827 Y0.9339 
G01 X-0.8810 Y0.9346 
G01 X-0.8190 Y0.9346 
G01 X-0.8173 Y0.9339 
G01 X-0.8161 Y0.9327 
G01 X-0.8154 Y0.9310 
G01 X-0.8154 Y0.8690 
G01 X-0.8161 Y0.8673 
G01 X-0.8173 Y0.8661 
G01 X-0.8190 Y0.8654 
G01 X-0.8810 Y0.8654 
G01 X-0.8827 Y0.8661 
G01 X-0.8839 Y0.8673 
G01 X-0.8846 Y0.8690 
G00 Z0.1000 
G00 X-0.9846 Y0.8690 
G01 Z-0.0070 F10.00 
G01 X-0.9846 Y0.9310 F20.00 
G01 X-0.9839 Y0.9327 
G01 X-0.9827 Y0.9339 
G01 X-0.9810 Y0.9346 
G01 X-0.9190 Y0.9346 
G01 X-0.9173 Y0.9339 
G01 X-0.9161 Y0.9327 
G01 X-0.9154 Y0.9310 
G01 X-0.9154 Y0.8690 
G01 X-0.9161 Y0.8673 
G01 X-0.9173 Y0.8661 
G01 X-0.9190 Y0.8654 
G01 X-0.9810 Y0.8654 
G01 X-0.9827 Y0.8661 
G01 X-0.9839 Y0.8673 
G01 X-0.9846 Y0.8690 
G00 Z0.1000 
G00 X-1.0846 Y0.8690 
G01 Z-0.0070 F10.00 
G01 X-1.0846 Y0.9310 F20.00 
G01 X-1.0839 Y0.9327 
G01 X-1.0827 Y0.9339 
G01 X-1.0810 Y0.9346 
G01 X-1.0190 Y0.9346 
G01 X-1.0173 Y0.9339 
G01 X-1.0161 Y0.9327 
G01 X-1.0154 Y0.9310 
G01 X-1.0154 Y0.8690 
G01 X-1.0161 Y0.8673 
G01 X-1.0173 Y0.8661 
G01 X-1.0190 Y0.8654 
G01 X-1.0810 Y0.8654 
G01 X-1.0827 Y0.8661 
G01 X-1.0839 Y0.8673 
G01 X-1.0846 Y0.8690 
G00 Z0.1000 
G00 X-1.1846 Y0.8690 
G01 Z-0.0070 F10.00 
G01 X-1.1846 Y0.9310 F20.00 
G01 X-1.1839 Y0.9327 
G01 X-1.1827 Y0.9339 
G01 X-1.1810 Y0.9346 
G01 X-1.1190 Y0.9346 
G01 X-1.1173 Y0.9339 
G01 X-1.1161 Y0.9327 
G01 X-1.1154 Y0.9310 
G01 X-1.1154 Y0.8690 
G01 X-1.1161 Y0.8673 
G01 X-1.1173 Y0.8661 
G01 X-1.1190 Y0.8654 
G01 X-1.1810 Y0.8654 
G01 X-1.1827 Y0.8661 
G01 X-1.1839 Y0.8673 
G01 X-1.1846 Y0.8690 
G00 Z0.1000 
G00 X-1.3846 Y0.8690 
G01 Z-0.0070 F10.00 
G01 X-1.3846 Y0.9065 F20.00 
G01 X-1.3850 Y0.9084 
G01 X-1.3850 Y0.9446 
G01 X-1.6553 Y1.2149 
G01 X-2.4694 Y1.2149 
G01 X-2.4899 Y1.1944 
G01 X-2.4899 Y1.1056 
G01 X-2.4694 Y1.0851 
G01 X-2.4336 Y1.0851 
G01 X-2.4304 Y1.0845 
G01 X-2.3941 Y1.0845 
G01 X-2.3925 Y1.0838 
G01 X-2.3912 Y1.0825 
G01 X-2.3905 Y1.0809 
G01 X-2.3905 Y1.0191 
G01 X-2.3912 Y1.0175 
G01 X-2.3925 Y1.0162 
G01 X-2.3941 Y1.0155 
G01 X-2.4559 Y1.0155 
G01 X-2.4575 Y1.0162 
G01 X-2.4588 Y1.0175 
G01 X-2.4595 Y1.0191 
G01 X-2.4595 Y1.0368 
G01 X-2.4818 Y1.0368 
G01 X-2.4865 Y1.0377 
G01 X-2.4909 Y1.0395 
G01 X-2.4949 Y1.0422 
G01 X-2.4982 Y1.0455 
G01 X-2.5295 Y1.0768 
G01 X-2.5328 Y1.0801 
G01 X-2.5355 Y1.0841 
G01 X-2.5373 Y1.0885 
G01 X-2.5382 Y1.0932 
G01 X-2.5382 Y1.2068 
G01 X-2.5373 Y1.2115 
G01 X-2.5355 Y1.2159 
G01 X-2.5328 Y1.2199 
G01 X-2.4982 Y1.2545 
G01 X-2.4949 Y1.2578 
G01 X-2.4909 Y1.2605 
G01 X-2.4865 Y1.2623 
G01 X-2.4818 Y1.2632 
G01 X-1.6429 Y1.2632 
G01 X-1.6382 Y1.2623 
G01 X-1.6338 Y1.2605 
G01 X-1.6299 Y1.2578 
G01 X-1.3420 Y0.9700 
G01 X-1.3394 Y0.9660 
G01 X-1.3376 Y0.9616 
G01 X-1.3366 Y0.9570 
G01 X-1.3366 Y0.9346 
G01 X-1.3190 Y0.9346 
G01 X-1.3173 Y0.9339 
G01 X-1.3161 Y0.9327 
G01 X-1.3154 Y0.9310 
G01 X-1.3154 Y0.8690 
G01 X-1.3161 Y0.8673 
G01 X-1.3173 Y0.8661 
G01 X-1.3190 Y0.8654 
G01 X-1.3810 Y0.8654 
G01 X-1.3827 Y0.8661 
G01 X-1.3839 Y0.8673 
G01 X-1.3846 Y0.8690 
G00 Z0.1000 
G00 X-1.4846 Y0.8690 
G01 Z-0.0070 F10.00 
G01 X-1.4846 Y0.9310 F20.00 
G01 X-1.4839 Y0.9327 
G01 X-1.4827 Y0.9339 
G01 X-1.4810 Y0.9346 
G01 X-1.4190 Y0.9346 
G01 X-1.4173 Y0.9339 
G01 X-1.4161 Y0.9327 
G01 X-1.4154 Y0.9310 
G01 X-1.4154 Y0.8690 
G01 X-1.4161 Y0.8673 
G01 X-1.4173 Y0.8661 
G01 X-1.4190 Y0.8654 
G01 X-1.4810 Y0.8654 
G01 X-1.4827 Y0.8661 
G01 X-1.4839 Y0.8673 
G01 X-1.4846 Y0.8690 
G00 Z0.1000 
G00 X-1.5846 Y0.8690 
G01 Z-0.0070 F10.00 
G01 X-1.5846 Y0.9310 F20.00 
G01 X-1.5839 Y0.9327 
G01 X-1.5827 Y0.9339 
G01 X-1.5810 Y0.9346 
G01 X-1.5190 Y0.9346 
G01 X-1.5173 Y0.9339 
G01 X-1.5161 Y0.9327 
G01 X-1.5154 Y0.9310 
G01 X-1.5154 Y0.8690 
G01 X-1.5161 Y0.8673 
G01 X-1.5173 Y0.8661 
G01 X-1.5190 Y0.8654 
G01 X-1.5810 Y0.8654 
G01 X-1.5827 Y0.8661 
G01 X-1.5839 Y0.8673 
G01 X-1.5846 Y0.8690 
G00 Z0.1000 
G00 X-1.6846 Y0.8690 
G01 Z-0.0070 F10.00 
G01 X-1.6846 Y0.9310 F20.00 
G01 X-1.6839 Y0.9327 
G01 X-1.6827 Y0.9339 
G01 X-1.6810 Y0.9346 
G01 X-1.6190 Y0.9346 
G01 X-1.6173 Y0.9339 
G01 X-1.6161 Y0.9327 
G01 X-1.6154 Y0.9310 
G01 X-1.6154 Y0.8690 
G01 X-1.6161 Y0.8673 
G01 X-1.6173 Y0.8661 
G01 X-1.6190 Y0.8654 
G01 X-1.6810 Y0.8654 
G01 X-1.6827 Y0.8661 
G01 X-1.6839 Y0.8673 
G01 X-1.6846 Y0.8690 
G00 Z0.1000 
G00 X-1.6846 Y0.2690 
G01 Z-0.0070 F10.00 
G01 X-1.6846 Y0.3310 F20.00 
G01 X-1.6839 Y0.3327 
G01 X-1.6827 Y0.3339 
G01 X-1.6810 Y0.3346 
G01 X-1.6190 Y0.3346 
G01 X-1.6173 Y0.3339 
G01 X-1.6161 Y0.3327 
G01 X-1.6154 Y0.3310 
G01 X-1.6154 Y0.2690 
G01 X-1.6161 Y0.2673 
G01 X-1.6173 Y0.2661 
G01 X-1.6190 Y0.2654 
G01 X-1.6810 Y0.2654 
G01 X-1.6827 Y0.2661 
G01 X-1.6839 Y0.2673 
G01 X-1.6846 Y0.2690 
G00 Z0.1000 
G00 X-1.5846 Y0.2690 
G01 Z-0.0070 F10.00 
G01 X-1.5846 Y0.3310 F20.00 
G01 X-1.5839 Y0.3327 
G01 X-1.5827 Y0.3339 
G01 X-1.5810 Y0.3346 
G01 X-1.5190 Y0.3346 
G01 X-1.5173 Y0.3339 
G01 X-1.5161 Y0.3327 
G01 X-1.5154 Y0.3310 
G01 X-1.5154 Y0.2690 
G01 X-1.5161 Y0.2673 
G01 X-1.5173 Y0.2661 
G01 X-1.5190 Y0.2654 
G01 X-1.5810 Y0.2654 
G01 X-1.5827 Y0.2661 
G01 X-1.5839 Y0.2673 
G01 X-1.5846 Y0.2690 
G00 Z0.1000 
G00 X-0.4846 Y0.2690 
G01 Z-0.0070 F10.00 
G01 X-0.4846 Y0.3310 F20.00 
G01 X-0.4839 Y0.3327 
G01 X-0.4827 Y0.3339 
G01 X-0.4810 Y0.3346 
G01 X-0.4190 Y0.3346 
G01 X-0.4173 Y0.3339 
G01 X-0.4161 Y0.3327 
G01 X-0.4154 Y0.3310 
G01 X-0.4154 Y0.2690 
G01 X-0.4161 Y0.2673 
G01 X-0.4173 Y0.2661 
G01 X-0.4190 Y0.2654 
G01 X-0.4810 Y0.2654 
G01 X-0.4827 Y0.2661 
G01 X-0.4839 Y0.2673 
G01 X-0.4846 Y0.2690 
G00 Z0.1000 
G00 X-0.5846 Y0.2690 
G01 Z-0.0070 F10.00 
G01 X-0.5846 Y0.3310 F20.00 
G01 X-0.5839 Y0.3327 
G01 X-0.5827 Y0.3339 
G01 X-0.5810 Y0.3346 
G01 X-0.5190 Y0.3346 
G01 X-0.5173 Y0.3339 
G01 X-0.5161 Y0.3327 
G01 X-0.5154 Y0.3310 
G01 X-0.5154 Y0.2690 
G01 X-0.5161 Y0.2673 
G01 X-0.5173 Y0.2661 
G01 X-0.5190 Y0.2654 
G01 X-0.5810 Y0.2654 
G01 X-0.5827 Y0.2661 
G01 X-0.5839 Y0.2673 
G01 X-0.5846 Y0.2690 
G00 Z0.1000 
G00 X-0.6846 Y0.2690 
G01 Z-0.0070 F10.00 
G01 X-0.6846 Y0.3310 F20.00 
G01 X-0.6839 Y0.3327 
G01 X-0.6827 Y0.3339 
G01 X-0.6810 Y0.3346 
G01 X-0.6190 Y0.3346 
G01 X-0.6173 Y0.3339 
G01 X-0.6161 Y0.3327 
G01 X-0.6154 Y0.3310 
G01 X-0.6154 Y0.2690 
G01 X-0.6161 Y0.2673 
G01 X-0.6173 Y0.2661 
G01 X-0.6190 Y0.2654 
G01 X-0.6810 Y0.2654 
G01 X-0.6827 Y0.2661 
G01 X-0.6839 Y0.2673 
G01 X-0.6846 Y0.2690 
G00 Z0.1000 
G00 X-0.7846 Y0.2690 
G01 Z-0.0070 F10.00 
G01 X-0.7846 Y0.3310 F20.00 
G01 X-0.7839 Y0.3327 
G01 X-0.7827 Y0.3339 
G01 X-0.7810 Y0.3346 
G01 X-0.7190 Y0.3346 
G01 X-0.7173 Y0.3339 
G01 X-0.7161 Y0.3327 
G01 X-0.7154 Y0.3310 
G01 X-0.7154 Y0.2690 
G01 X-0.7161 Y0.2673 
G01 X-0.7173 Y0.2661 
G01 X-0.7190 Y0.2654 
G01 X-0.7810 Y0.2654 
G01 X-0.7827 Y0.2661 
G01 X-0.7839 Y0.2673 
G01 X-0.7846 Y0.2690 
G00 Z0.1000 
G00 X-0.9846 Y0.2690 
G01 Z-0.0070 F10.00 
G01 X-0.9846 Y0.3310 F20.00 
G01 X-0.9839 Y0.3327 
G01 X-0.9827 Y0.3339 
G01 X-0.9810 Y0.3346 
G01 X-0.9190 Y0.3346 
G01 X-0.9173 Y0.3339 
G01 X-0.9161 Y0.3327 
G01 X-0.9154 Y0.3310 
G01 X-0.9154 Y0.2690 
G01 X-0.9161 Y0.2673 
G01 X-0.9173 Y0.2661 
G01 X-0.9190 Y0.2654 
G01 X-0.9810 Y0.2654 
G01 X-0.9827 Y0.2661 
G01 X-0.9839 Y0.2673 
G01 X-0.9846 Y0.2690 
G00 Z0.1000 
G00 X-1.0846 Y0.2690 
G01 Z-0.0070 F10.00 
G01 X-1.0846 Y0.3310 F20.00 
G01 X-1.0839 Y0.3327 
G01 X-1.0827 Y0.3339 
G01 X-1.0810 Y0.3346 
G01 X-1.0190 Y0.3346 
G01 X-1.0173 Y0.3339 
G01 X-1.0161 Y0.3327 
G01 X-1.0154 Y0.3310 
G01 X-1.0154 Y0.2690 
G01 X-1.0161 Y0.2673 
G01 X-1.0173 Y0.2661 
G01 X-1.0190 Y0.2654 
G01 X-1.0810 Y0.2654 
G01 X-1.0827 Y0.2661 
G01 X-1.0839 Y0.2673 
G01 X-1.0846 Y0.2690 
G00 Z0.1000 
G00 X-1.1846 Y0.2690 
G01 Z-0.0070 F10.00 
G01 X-1.1846 Y0.3310 F20.00 
G01 X-1.1839 Y0.3327 
G01 X-1.1827 Y0.3339 
G01 X-1.1810 Y0.3346 
G01 X-1.1190 Y0.3346 
G01 X-1.1173 Y0.3339 
G01 X-1.1161 Y0.3327 
G01 X-1.1154 Y0.3310 
G01 X-1.1154 Y0.2690 
G01 X-1.1161 Y0.2673 
G01 X-1.1173 Y0.2661 
G01 X-1.1190 Y0.2654 
G01 X-1.1810 Y0.2654 
G01 X-1.1827 Y0.2661 
G01 X-1.1839 Y0.2673 
G01 X-1.1846 Y0.2690 
G00 Z0.1000 
G00 X-1.2846 Y0.2690 
G01 Z-0.0070 F10.00 
G01 X-1.2846 Y0.3310 F20.00 
G01 X-1.2839 Y0.3327 
G01 X-1.2827 Y0.3339 
G01 X-1.2810 Y0.3346 
G01 X-1.2190 Y0.3346 
G01 X-1.2173 Y0.3339 
G01 X-1.2161 Y0.3327 
G01 X-1.2154 Y0.3310 
G01 X-1.2154 Y0.2690 
G01 X-1.2161 Y0.2673 
G01 X-1.2173 Y0.2661 
G01 X-1.2190 Y0.2654 
G01 X-1.2810 Y0.2654 
G01 X-1.2827 Y0.2661 
G01 X-1.2839 Y0.2673 
G01 X-1.2846 Y0.2690 
G00 Z0.1000 
G00 X-1.3846 Y0.2690 
G01 Z-0.0070 F10.00 
G01 X-1.3846 Y0.3310 F20.00 
G01 X-1.3839 Y0.3327 
G01 X-1.3827 Y0.3339 
G01 X-1.3810 Y0.3346 
G01 X-1.3190 Y0.3346 
G01 X-1.3173 Y0.3339 
G01 X-1.3161 Y0.3327 
G01 X-1.3154 Y0.3310 
G01 X-1.3154 Y0.2690 
G01 X-1.3161 Y0.2673 
G01 X-1.3173 Y0.2661 
G01 X-1.3190 Y0.2654 
G01 X-1.3810 Y0.2654 
G01 X-1.3827 Y0.2661 
G01 X-1.3839 Y0.2673 
G01 X-1.3846 Y0.2690 
G00 Z0.1000 
G00 X-1.4846 Y0.2690 
G01 Z-0.0070 F10.00 
G01 X-1.4846 Y0.3310 F20.00 
G01 X-1.4839 Y0.3327 
G01 X-1.4827 Y0.3339 
G01 X-1.4810 Y0.3346 
G01 X-1.4190 Y0.3346 
G01 X-1.4173 Y0.3339 
G01 X-1.4161 Y0.3327 
G01 X-1.4154 Y0.3310 
G01 X-1.4154 Y0.2690 
G01 X-1.4161 Y0.2673 
G01 X-1.4173 Y0.2661 
G01 X-1.4190 Y0.2654 
G01 X-1.4810 Y0.2654 
G01 X-1.4827 Y0.2661 
G01 X-1.4839 Y0.2673 
G01 X-1.4846 Y0.2690 
G00 Z0.1000 
G00 X-0.6846 Y0.7690 
G01 Z-0.0070 F10.00 
G01 X-0.6846 Y0.8310 F20.00 
G01 X-0.6839 Y0.8327 
G01 X-0.6827 Y0.8339 
G01 X-0.6810 Y0.8346 
G01 X-0.6190 Y0.8346 
G01 X-0.6173 Y0.8339 
G01 X-0.6161 Y0.8327 
G01 X-0.6154 Y0.8310 
G01 X-0.6154 Y0.7690 
G01 X-0.6161 Y0.7673 
G01 X-0.6173 Y0.7661 
G01 X-0.6190 Y0.7654 
G01 X-0.6810 Y0.7654 
G01 X-0.6827 Y0.7661 
G01 X-0.6839 Y0.7673 
G01 X-0.6846 Y0.7690 
G00 Z0.1000 
G00 X-0.7846 Y0.7690 
G01 Z-0.0070 F10.00 
G01 X-0.7846 Y0.8310 F20.00 
G01 X-0.7839 Y0.8327 
G01 X-0.7827 Y0.8339 
G01 X-0.7810 Y0.8346 
G01 X-0.7190 Y0.8346 
G01 X-0.7173 Y0.8339 
G01 X-0.7161 Y0.8327 
G01 X-0.7154 Y0.8310 
G01 X-0.7154 Y0.7690 
G01 X-0.7161 Y0.7673 
G01 X-0.7173 Y0.7661 
G01 X-0.7190 Y0.7654 
G01 X-0.7810 Y0.7654 
G01 X-0.7827 Y0.7661 
G01 X-0.7839 Y0.7673 
G01 X-0.7846 Y0.7690 
G00 Z0.1000 
G00 X-0.8846 Y0.7690 
G01 Z-0.0070 F10.00 
G01 X-0.8846 Y0.8310 F20.00 
G01 X-0.8839 Y0.8327 
G01 X-0.8827 Y0.8339 
G01 X-0.8810 Y0.8346 
G01 X-0.8190 Y0.8346 
G01 X-0.8173 Y0.8339 
G01 X-0.8161 Y0.8327 
G01 X-0.8154 Y0.8310 
G01 X-0.8154 Y0.7690 
G01 X-0.8161 Y0.7673 
G01 X-0.8173 Y0.7661 
G01 X-0.8190 Y0.7654 
G01 X-0.8810 Y0.7654 
G01 X-0.8827 Y0.7661 
G01 X-0.8839 Y0.7673 
G01 X-0.8846 Y0.7690 
G00 Z0.1000 
G00 X-1.0675 Y1.6467 
G01 Z-0.0070 F10.00 
G01 X-1.0675 Y1.6533 F20.00 
G01 X-1.0665 Y1.6600 
G01 X-1.0644 Y1.6663 
G01 X-1.0613 Y1.6723 
G01 X-1.0574 Y1.6777 
G01 X-1.0527 Y1.6824 
G01 X-1.0473 Y1.6863 
G01 X-1.0413 Y1.6894 
G01 X-1.0350 Y1.6915 
G01 X-1.0283 Y1.6925 
G01 X-1.0217 Y1.6925 
G01 X-1.0150 Y1.6915 
G01 X-1.0087 Y1.6894 
G01 X-1.0027 Y1.6863 
G01 X-0.9973 Y1.6824 
G01 X-0.9926 Y1.6777 
G01 X-0.9887 Y1.6723 
G01 X-0.9856 Y1.6663 
G01 X-0.9835 Y1.6600 
G01 X-0.9825 Y1.6533 
G01 X-0.9825 Y1.6467 
G01 X-0.9835 Y1.6400 
G01 X-0.9856 Y1.6337 
G01 X-0.9887 Y1.6277 
G01 X-0.9926 Y1.6223 
G01 X-0.9973 Y1.6176 
G01 X-1.0027 Y1.6137 
G01 X-1.0087 Y1.6106 
G01 X-1.0150 Y1.6085 
G01 X-1.0217 Y1.6075 
G01 X-1.0283 Y1.6075 
G01 X-1.0350 Y1.6085 
G01 X-1.0413 Y1.6106 
G01 X-1.0473 Y1.6137 
G01 X-1.0527 Y1.6176 
G01 X-1.0574 Y1.6223 
G01 X-1.0613 Y1.6277 
G01 X-1.0644 Y1.6337 
G01 X-1.0665 Y1.6400 
G01 X-1.0675 Y1.6467 
G00 Z0.1000 
G00 X-1.1675 Y1.6467 
G01 Z-0.0070 F10.00 
G01 X-1.1675 Y1.6533 F20.00 
G01 X-1.1665 Y1.6600 
G01 X-1.1644 Y1.6663 
G01 X-1.1613 Y1.6723 
G01 X-1.1574 Y1.6777 
G01 X-1.1527 Y1.6824 
G01 X-1.1473 Y1.6863 
G01 X-1.1413 Y1.6894 
G01 X-1.1350 Y1.6915 
G01 X-1.1283 Y1.6925 
G01 X-1.1217 Y1.6925 
G01 X-1.1150 Y1.6915 
G01 X-1.1087 Y1.6894 
G01 X-1.1027 Y1.6863 
G01 X-1.0973 Y1.6824 
G01 X-1.0926 Y1.6777 
G01 X-1.0887 Y1.6723 
G01 X-1.0856 Y1.6663 
G01 X-1.0835 Y1.6600 
G01 X-1.0825 Y1.6533 
G01 X-1.0825 Y1.6467 
G01 X-1.0835 Y1.6400 
G01 X-1.0856 Y1.6337 
G01 X-1.0887 Y1.6277 
G01 X-1.0926 Y1.6223 
G01 X-1.0973 Y1.6176 
G01 X-1.1027 Y1.6137 
G01 X-1.1087 Y1.6106 
G01 X-1.1150 Y1.6085 
G01 X-1.1217 Y1.6075 
G01 X-1.1283 Y1.6075 
G01 X-1.1350 Y1.6085 
G01 X-1.1413 Y1.6106 
G01 X-1.1473 Y1.6137 
G01 X-1.1527 Y1.6176 
G01 X-1.1574 Y1.6223 
G01 X-1.1613 Y1.6277 
G01 X-1.1644 Y1.6337 
G01 X-1.1665 Y1.6400 
G01 X-1.1675 Y1.6467 
G00 Z0.1000 
G00 X-1.2675 Y1.6467 
G01 Z-0.0070 F10.00 
G01 X-1.2675 Y1.6533 F20.00 
G01 X-1.2665 Y1.6600 
G01 X-1.2644 Y1.6663 
G01 X-1.2613 Y1.6723 
G01 X-1.2574 Y1.6777 
G01 X-1.2527 Y1.6824 
G01 X-1.2473 Y1.6863 
G01 X-1.2413 Y1.6894 
G01 X-1.2350 Y1.6915 
G01 X-1.2283 Y1.6925 
G01 X-1.2217 Y1.6925 
G01 X-1.2150 Y1.6915 
G01 X-1.2087 Y1.6894 
G01 X-1.2027 Y1.6863 
G01 X-1.1973 Y1.6824 
G01 X-1.1926 Y1.6777 
G01 X-1.1887 Y1.6723 
G01 X-1.1856 Y1.6663 
G01 X-1.1835 Y1.6600 
G01 X-1.1825 Y1.6533 
G01 X-1.1825 Y1.6467 
G01 X-1.1835 Y1.6400 
G01 X-1.1856 Y1.6337 
G01 X-1.1887 Y1.6277 
G01 X-1.1926 Y1.6223 
G01 X-1.1973 Y1.6176 
G01 X-1.2027 Y1.6137 
G01 X-1.2087 Y1.6106 
G01 X-1.2150 Y1.6085 
G01 X-1.2217 Y1.6075 
G01 X-1.2283 Y1.6075 
G01 X-1.2350 Y1.6085 
G01 X-1.2413 Y1.6106 
G01 X-1.2473 Y1.6137 
G01 X-1.2527 Y1.6176 
G01 X-1.2574 Y1.6223 
G01 X-1.2613 Y1.6277 
G01 X-1.2644 Y1.6337 
G01 X-1.2665 Y1.6400 
G01 X-1.2675 Y1.6467 
G00 Z0.1000 
G00 X-1.3675 Y1.6467 
G01 Z-0.0070 F10.00 
G01 X-1.3675 Y1.6533 F20.00 
G01 X-1.3665 Y1.6600 
G01 X-1.3644 Y1.6663 
G01 X-1.3613 Y1.6723 
G01 X-1.3574 Y1.6777 
G01 X-1.3527 Y1.6824 
G01 X-1.3473 Y1.6863 
G01 X-1.3413 Y1.6894 
G01 X-1.3350 Y1.6915 
G01 X-1.3283 Y1.6925 
G01 X-1.3217 Y1.6925 
G01 X-1.3150 Y1.6915 
G01 X-1.3087 Y1.6894 
G01 X-1.3027 Y1.6863 
G01 X-1.2973 Y1.6824 
G01 X-1.2926 Y1.6777 
G01 X-1.2887 Y1.6723 
G01 X-1.2856 Y1.6663 
G01 X-1.2835 Y1.6600 
G01 X-1.2825 Y1.6533 
G01 X-1.2825 Y1.6467 
G01 X-1.2835 Y1.6400 
G01 X-1.2856 Y1.6337 
G01 X-1.2887 Y1.6277 
G01 X-1.2926 Y1.6223 
G01 X-1.2973 Y1.6176 
G01 X-1.3027 Y1.6137 
G01 X-1.3087 Y1.6106 
G01 X-1.3150 Y1.6085 
G01 X-1.3217 Y1.6075 
G01 X-1.3283 Y1.6075 
G01 X-1.3350 Y1.6085 
G01 X-1.3413 Y1.6106 
G01 X-1.3473 Y1.6137 
G01 X-1.3527 Y1.6176 
G01 X-1.3574 Y1.6223 
G01 X-1.3613 Y1.6277 
G01 X-1.3644 Y1.6337 
G01 X-1.3665 Y1.6400 
G01 X-1.3675 Y1.6467 
G00 Z0.1000 
G00 X-1.4675 Y1.6467 
G01 Z-0.0070 F10.00 
G01 X-1.4675 Y1.6533 F20.00 
G01 X-1.4665 Y1.6600 
G01 X-1.4644 Y1.6663 
G01 X-1.4613 Y1.6723 
G01 X-1.4574 Y1.6777 
G01 X-1.4527 Y1.6824 
G01 X-1.4473 Y1.6863 
G01 X-1.4413 Y1.6894 
G01 X-1.4350 Y1.6915 
G01 X-1.4283 Y1.6925 
G01 X-1.4217 Y1.6925 
G01 X-1.4150 Y1.6915 
G01 X-1.4087 Y1.6894 
G01 X-1.4027 Y1.6863 
G01 X-1.3973 Y1.6824 
G01 X-1.3926 Y1.6777 
G01 X-1.3887 Y1.6723 
G01 X-1.3856 Y1.6663 
G01 X-1.3835 Y1.6600 
G01 X-1.3825 Y1.6533 
G01 X-1.3825 Y1.6467 
G01 X-1.3835 Y1.6400 
G01 X-1.3856 Y1.6337 
G01 X-1.3887 Y1.6277 
G01 X-1.3926 Y1.6223 
G01 X-1.3973 Y1.6176 
G01 X-1.4027 Y1.6137 
G01 X-1.4087 Y1.6106 
G01 X-1.4150 Y1.6085 
G01 X-1.4217 Y1.6075 
G01 X-1.4283 Y1.6075 
G01 X-1.4350 Y1.6085 
G01 X-1.4413 Y1.6106 
G01 X-1.4473 Y1.6137 
G01 X-1.4527 Y1.6176 
G01 X-1.4574 Y1.6223 
G01 X-1.4613 Y1.6277 
G01 X-1.4644 Y1.6337 
G01 X-1.4665 Y1.6400 
G01 X-1.4675 Y1.6467 
G00 Z0.1000 
G00 X-1.6675 Y1.6467 
G01 Z-0.0070 F10.00 
G01 X-1.6675 Y1.6533 F20.00 
G01 X-1.6665 Y1.6600 
G01 X-1.6644 Y1.6663 
G01 X-1.6613 Y1.6723 
G01 X-1.6574 Y1.6777 
G01 X-1.6527 Y1.6824 
G01 X-1.6473 Y1.6863 
G01 X-1.6413 Y1.6894 
G01 X-1.6350 Y1.6915 
G01 X-1.6283 Y1.6925 
G01 X-1.6217 Y1.6925 
G01 X-1.6150 Y1.6915 
G01 X-1.6087 Y1.6894 
G01 X-1.6027 Y1.6863 
G01 X-1.5973 Y1.6824 
G01 X-1.5926 Y1.6777 
G01 X-1.5887 Y1.6723 
G01 X-1.5856 Y1.6663 
G01 X-1.5835 Y1.6600 
G01 X-1.5825 Y1.6533 
G01 X-1.5825 Y1.6467 
G01 X-1.5835 Y1.6400 
G01 X-1.5856 Y1.6337 
G01 X-1.5887 Y1.6277 
G01 X-1.5926 Y1.6223 
G01 X-1.5965 Y1.6184 
G01 X-1.5022 Y1.5242 
G01 X-0.5489 Y1.5242 
G01 X-0.5467 Y1.5264 
G01 X-0.5411 Y1.5301 
G01 X-0.5349 Y1.5327 
G01 X-0.5283 Y1.5340 
G01 X-0.5217 Y1.5340 
G01 X-0.5151 Y1.5327 
G01 X-0.5089 Y1.5301 
G01 X-0.5033 Y1.5264 
G01 X-0.3783 Y1.4014 
G01 X-0.3736 Y1.3967 
G01 X-0.3699 Y1.3911 
G01 X-0.3673 Y1.3849 
G01 X-0.3660 Y1.3783 
G01 X-0.3660 Y1.1805 
G01 X-0.3505 Y1.1340 
G01 X-0.2321 Y1.1340 
G01 X-0.2309 Y1.1345 
G01 X-0.1691 Y1.1345 
G01 X-0.1675 Y1.1338 
G01 X-0.1662 Y1.1325 
G01 X-0.1655 Y1.1309 
G01 X-0.1655 Y1.0691 
G01 X-0.1662 Y1.0675 
G01 X-0.1675 Y1.0662 
G01 X-0.1691 Y1.0655 
G01 X-0.2309 Y1.0655 
G01 X-0.2321 Y1.0660 
G01 X-0.3729 Y1.0660 
G01 X-0.3741 Y1.0658 
G01 X-0.3762 Y1.0660 
G01 X-0.3783 Y1.0660 
G01 X-0.3795 Y1.0662 
G01 X-0.3808 Y1.0663 
G01 X-0.3828 Y1.0669 
G01 X-0.3849 Y1.0673 
G01 X-0.3860 Y1.0678 
G01 X-0.3872 Y1.0681 
G01 X-0.3891 Y1.0690 
G01 X-0.3911 Y1.0699 
G01 X-0.3921 Y1.0705 
G01 X-0.3932 Y1.0711 
G01 X-0.3949 Y1.0724 
G01 X-0.3967 Y1.0736 
G01 X-0.3975 Y1.0744 
G01 X-0.3985 Y1.0752 
G01 X-0.3999 Y1.0768 
G01 X-0.4014 Y1.0783 
G01 X-0.4021 Y1.0793 
G01 X-0.4029 Y1.0803 
G01 X-0.4039 Y1.0821 
G01 X-0.4051 Y1.0839 
G01 X-0.4056 Y1.0850 
G01 X-0.4062 Y1.0861 
G01 X-0.4069 Y1.0881 
G01 X-0.4077 Y1.0901 
G01 X-0.4079 Y1.0913 
G01 X-0.4319 Y1.1631 
G01 X-0.4327 Y1.1651 
G01 X-0.4329 Y1.1663 
G01 X-0.4333 Y1.1674 
G01 X-0.4336 Y1.1696 
G01 X-0.4340 Y1.1717 
G01 X-0.4340 Y1.1729 
G01 X-0.4342 Y1.1741 
G01 X-0.4340 Y1.1762 
G01 X-0.4340 Y1.3609 
G01 X-0.5489 Y1.4758 
G01 X-1.5146 Y1.4758 
G01 X-1.5193 Y1.4767 
G01 X-1.5237 Y1.4786 
G01 X-1.5277 Y1.4812 
G01 X-1.6408 Y1.5944 
G01 X-1.6435 Y1.5983 
G01 X-1.6453 Y1.6027 
G01 X-1.6462 Y1.6074 
G01 X-1.6462 Y1.6131 
G01 X-1.6473 Y1.6137 
G01 X-1.6527 Y1.6176 
G01 X-1.6574 Y1.6223 
G01 X-1.6613 Y1.6277 
G01 X-1.6644 Y1.6337 
G01 X-1.6665 Y1.6400 
G01 X-1.6675 Y1.6467 
G00 Z0.1000 
G00 X-1.7675 Y1.6467 
G01 Z-0.0070 F10.00 
G01 X-1.7675 Y1.6533 F20.00 
G01 X-1.7665 Y1.6600 
G01 X-1.7644 Y1.6663 
G01 X-1.7613 Y1.6723 
G01 X-1.7574 Y1.6777 
G01 X-1.7527 Y1.6824 
G01 X-1.7473 Y1.6863 
G01 X-1.7413 Y1.6894 
G01 X-1.7350 Y1.6915 
G01 X-1.7283 Y1.6925 
G01 X-1.7217 Y1.6925 
G01 X-1.7150 Y1.6915 
G01 X-1.7087 Y1.6894 
G01 X-1.7027 Y1.6863 
G01 X-1.6973 Y1.6824 
G01 X-1.6926 Y1.6777 
G01 X-1.6887 Y1.6723 
G01 X-1.6856 Y1.6663 
G01 X-1.6835 Y1.6600 
G01 X-1.6825 Y1.6533 
G01 X-1.6825 Y1.6467 
G01 X-1.6835 Y1.6400 
G01 X-1.6856 Y1.6337 
G01 X-1.6887 Y1.6277 
G01 X-1.6926 Y1.6223 
G01 X-1.6973 Y1.6176 
G01 X-1.7027 Y1.6137 
G01 X-1.7087 Y1.6106 
G01 X-1.7150 Y1.6085 
G01 X-1.7217 Y1.6075 
G01 X-1.7283 Y1.6075 
G01 X-1.7350 Y1.6085 
G01 X-1.7413 Y1.6106 
G01 X-1.7473 Y1.6137 
G01 X-1.7527 Y1.6176 
G01 X-1.7574 Y1.6223 
G01 X-1.7613 Y1.6277 
G01 X-1.7644 Y1.6337 
G01 X-1.7665 Y1.6400 
G01 X-1.7675 Y1.6467 
G00 Z0.1000 
G00 X-0.6191 Y1.1155 
G01 Z-0.0070 F10.00 
G01 X-0.6809 Y1.1155 F20.00 
G01 X-0.6825 Y1.1162 
G01 X-0.6838 Y1.1175 
G01 X-0.6845 Y1.1191 
G01 X-0.6845 Y1.1809 
G01 X-0.6838 Y1.1825 
G01 X-0.6825 Y1.1838 
G01 X-0.6809 Y1.1845 
G01 X-0.6191 Y1.1845 
G01 X-0.6175 Y1.1838 
G01 X-0.6162 Y1.1825 
G01 X-0.6155 Y1.1809 
G01 X-0.6155 Y1.1191 
G01 X-0.6162 Y1.1175 
G01 X-0.6175 Y1.1162 
G01 X-0.6191 Y1.1155 
G00 Z0.1000 
G00 X-0.6191 Y1.0155 
G01 Z-0.0070 F10.00 
G01 X-0.6809 Y1.0155 F20.00 
G01 X-0.6825 Y1.0162 
G01 X-0.6838 Y1.0175 
G01 X-0.6845 Y1.0191 
G01 X-0.6845 Y1.0809 
G01 X-0.6838 Y1.0825 
G01 X-0.6825 Y1.0838 
G01 X-0.6809 Y1.0845 
G01 X-0.6191 Y1.0845 
G01 X-0.6175 Y1.0838 
G01 X-0.6162 Y1.0825 
G01 X-0.6155 Y1.0809 
G01 X-0.6155 Y1.0191 
G01 X-0.6162 Y1.0175 
G01 X-0.6175 Y1.0162 
G01 X-0.6191 Y1.0155 
G00 Z0.1000 
G00 X-0.7191 Y1.1155 
G01 Z-0.0070 F10.00 
G01 X-0.7809 Y1.1155 F20.00 
G01 X-0.7825 Y1.1162 
G01 X-0.7838 Y1.1175 
G01 X-0.7845 Y1.1191 
G01 X-0.7845 Y1.1809 
G01 X-0.7838 Y1.1825 
G01 X-0.7825 Y1.1838 
G01 X-0.7809 Y1.1845 
G01 X-0.7191 Y1.1845 
G01 X-0.7175 Y1.1838 
G01 X-0.7162 Y1.1825 
G01 X-0.7155 Y1.1809 
G01 X-0.7155 Y1.1191 
G01 X-0.7162 Y1.1175 
G01 X-0.7175 Y1.1162 
G01 X-0.7191 Y1.1155 
G00 Z0.1000 
G00 X-0.7191 Y1.0155 
G01 Z-0.0070 F10.00 
G01 X-0.7809 Y1.0155 F20.00 
G01 X-0.7825 Y1.0162 
G01 X-0.7838 Y1.0175 
G01 X-0.7845 Y1.0191 
G01 X-0.7845 Y1.0809 
G01 X-0.7838 Y1.0825 
G01 X-0.7825 Y1.0838 
G01 X-0.7809 Y1.0845 
G01 X-0.7191 Y1.0845 
G01 X-0.7175 Y1.0838 
G01 X-0.7162 Y1.0825 
G01 X-0.7155 Y1.0809 
G01 X-0.7155 Y1.0191 
G01 X-0.7162 Y1.0175 
G01 X-0.7175 Y1.0162 
G01 X-0.7191 Y1.0155 
G00 Z0.1000 
G00 X-2.1941 Y0.9155 
G01 Z-0.0070 F10.00 
G01 X-2.2559 Y0.9155 F20.00 
G01 X-2.2575 Y0.9162 
G01 X-2.2588 Y0.9175 
G01 X-2.2595 Y0.9191 
G01 X-2.2595 Y0.9809 
G01 X-2.2588 Y0.9825 
G01 X-2.2575 Y0.9838 
G01 X-2.2559 Y0.9845 
G01 X-2.1941 Y0.9845 
G01 X-2.1925 Y0.9838 
G01 X-2.1912 Y0.9825 
G01 X-2.1905 Y0.9809 
G01 X-2.1905 Y0.9742 
G01 X-2.1015 Y0.9742 
G01 X-2.0968 Y0.9733 
G01 X-2.0924 Y0.9714 
G01 X-2.0885 Y0.9688 
G01 X-2.0851 Y0.9654 
G01 X-2.0824 Y0.9615 
G01 X-2.0806 Y0.9571 
G01 X-2.0797 Y0.9524 
G01 X-2.0797 Y0.8025 
G01 X-1.6905 Y0.4134 
G01 X-0.8930 Y0.4134 
G01 X-0.8884 Y0.4124 
G01 X-0.8840 Y0.4106 
G01 X-0.8800 Y0.4080 
G01 X-0.8766 Y0.4046 
G01 X-0.8454 Y0.3734 
G01 X-0.8420 Y0.3700 
G01 X-0.8394 Y0.3660 
G01 X-0.8376 Y0.3616 
G01 X-0.8366 Y0.3570 
G01 X-0.8366 Y0.3346 
G01 X-0.8190 Y0.3346 
G01 X-0.8173 Y0.3339 
G01 X-0.8161 Y0.3327 
G01 X-0.8154 Y0.3310 
G01 X-0.8154 Y0.2690 
G01 X-0.8161 Y0.2673 
G01 X-0.8173 Y0.2661 
G01 X-0.8190 Y0.2654 
G01 X-0.8810 Y0.2654 
G01 X-0.8827 Y0.2661 
G01 X-0.8839 Y0.2673 
G01 X-0.8846 Y0.2690 
G01 X-0.8846 Y0.3065 
G01 X-0.8850 Y0.3084 
G01 X-0.8850 Y0.3446 
G01 X-0.9054 Y0.3650 
G01 X-1.7029 Y0.3650 
G01 X-1.7076 Y0.3659 
G01 X-1.7120 Y0.3677 
G01 X-1.7159 Y0.3704 
G01 X-1.7193 Y0.3738 
G01 X-2.1193 Y0.7737 
G01 X-2.1227 Y0.7771 
G01 X-2.1253 Y0.7811 
G01 X-2.1271 Y0.7855 
G01 X-2.1281 Y0.7901 
G01 X-2.1281 Y0.9258 
G01 X-2.1905 Y0.9258 
G01 X-2.1905 Y0.9191 
G01 X-2.1912 Y0.9175 
G01 X-2.1925 Y0.9162 
G01 X-2.1941 Y0.9155 
G00 Z0.1000 
G00 X-2.1941 Y0.8155 
G01 Z-0.0070 F10.00 
G01 X-2.2559 Y0.8155 F20.00 
G01 X-2.2575 Y0.8162 
G01 X-2.2588 Y0.8175 
G01 X-2.2595 Y0.8191 
G01 X-2.2595 Y0.8809 
G01 X-2.2588 Y0.8825 
G01 X-2.2575 Y0.8838 
G01 X-2.2559 Y0.8845 
G01 X-2.1941 Y0.8845 
G01 X-2.1925 Y0.8838 
G01 X-2.1912 Y0.8825 
G01 X-2.1905 Y0.8809 
G01 X-2.1905 Y0.8191 
G01 X-2.1912 Y0.8175 
G01 X-2.1925 Y0.8162 
G01 X-2.1941 Y0.8155 
G00 Z0.1000 
G00 X-2.3941 Y0.8155 
G01 Z-0.0070 F10.00 
G01 X-2.4559 Y0.8155 F20.00 
G01 X-2.4575 Y0.8162 
G01 X-2.4588 Y0.8175 
G01 X-2.4595 Y0.8191 
G01 X-2.4595 Y0.8809 
G01 X-2.4588 Y0.8825 
G01 X-2.4575 Y0.8838 
G01 X-2.4559 Y0.8845 
G01 X-2.3941 Y0.8845 
G01 X-2.3925 Y0.8838 
G01 X-2.3912 Y0.8825 
G01 X-2.3905 Y0.8809 
G01 X-2.3905 Y0.8191 
G01 X-2.3912 Y0.8175 
G01 X-2.3925 Y0.8162 
G01 X-2.3941 Y0.8155 
G00 Z0.1000 
G00 X-0.5845 Y1.3716 
G01 Z-0.0070 F10.00 
G01 X-0.5845 Y1.3784 F20.00 
G01 X-0.5832 Y1.3851 
G01 X-0.5806 Y1.3913 
G01 X-0.5768 Y1.3970 
G01 X-0.5720 Y1.4018 
G01 X-0.5663 Y1.4056 
G01 X-0.5601 Y1.4082 
G01 X-0.5534 Y1.4095 
G01 X-0.5466 Y1.4095 
G01 X-0.5399 Y1.4082 
G01 X-0.5337 Y1.4056 
G01 X-0.5280 Y1.4018 
G01 X-0.5232 Y1.3970 
G01 X-0.5194 Y1.3913 
G01 X-0.5168 Y1.3851 
G01 X-0.5155 Y1.3784 
G01 X-0.5155 Y1.3716 
G01 X-0.5160 Y1.3692 
G01 X-0.5160 Y0.9324 
G01 X-0.5154 Y0.9310 
G01 X-0.5154 Y0.8690 
G01 X-0.5161 Y0.8673 
G01 X-0.5173 Y0.8661 
G01 X-0.5190 Y0.8654 
G01 X-0.5810 Y0.8654 
G01 X-0.5827 Y0.8661 
G01 X-0.5839 Y0.8673 
G01 X-0.5846 Y0.8690 
G01 X-0.5846 Y0.9310 
G01 X-0.5840 Y0.9324 
G01 X-0.5840 Y1.3692 
G01 X-0.5845 Y1.3716 
G00 Z0.1000 
G00 X-2.0832 Y1.6166 
G01 Z-0.0070 F10.00 
G01 X-2.0523 Y1.5987 F20.00 
G01 X-2.0178 Y1.5895 
G01 X-1.9822 Y1.5895 
G01 X-1.9477 Y1.5987 
G01 X-1.9168 Y1.6166 
G01 X-1.8916 Y1.6418 
G01 X-1.8737 Y1.6727 
G01 X-1.8645 Y1.7072 
G01 X-1.8645 Y1.7428 
G01 X-1.8737 Y1.7773 
G01 X-1.8916 Y1.8082 
G01 X-1.9168 Y1.8334 
G01 X-1.9477 Y1.8513 
G01 X-1.9822 Y1.8605 
G01 X-2.0178 Y1.8605 
G01 X-2.0523 Y1.8513 
G01 X-2.0832 Y1.8334 
G01 X-2.1084 Y1.8082 
G01 X-2.1263 Y1.7773 
G01 X-2.1355 Y1.7428 
G01 X-2.1355 Y1.7072 
G01 X-2.1263 Y1.6727 
G01 X-2.1084 Y1.6418 
G01 X-2.0832 Y1.6166 
G00 Z0.1000 
G00 X-2.5832 Y0.2416 
G01 Z-0.0070 F10.00 
G01 X-2.5523 Y0.2237 F20.00 
G01 X-2.5178 Y0.2145 
G01 X-2.4822 Y0.2145 
G01 X-2.4477 Y0.2237 
G01 X-2.4168 Y0.2416 
G01 X-2.3916 Y0.2668 
G01 X-2.3737 Y0.2977 
G01 X-2.3645 Y0.3322 
G01 X-2.3645 Y0.3678 
G01 X-2.3737 Y0.4023 
G01 X-2.3916 Y0.4332 
G01 X-2.4168 Y0.4584 
G01 X-2.4477 Y0.4763 
G01 X-2.4822 Y0.4855 
G01 X-2.5178 Y0.4855 
G01 X-2.5523 Y0.4763 
G01 X-2.5832 Y0.4584 
G01 X-2.6084 Y0.4332 
G01 X-2.6263 Y0.4023 
G01 X-2.6355 Y0.3678 
G01 X-2.6355 Y0.3322 
G01 X-2.6263 Y0.2977 
G01 X-2.6084 Y0.2668 
G01 X-2.5832 Y0.2416 
G00 Z0.1000 
G00 X-0.7805 Y1.2855 
G01 Z-0.0070 F10.00 
G01 X-0.7816 Y1.2853 F20.00 
G01 X-0.7826 Y1.2849 
G01 X-0.7835 Y1.2843 
G01 X-0.7843 Y1.2835 
G01 X-0.7849 Y1.2826 
G01 X-0.7853 Y1.2816 
G01 X-0.7855 Y1.2805 
G01 X-0.7855 Y1.2742 
G01 X-0.7845 Y1.2742 
G01 X-0.7845 Y1.2809 
G01 X-0.7838 Y1.2825 
G01 X-0.7825 Y1.2838 
G01 X-0.7809 Y1.2845 
G01 X-0.7742 Y1.2845 
G01 X-0.7742 Y1.2855 
G01 X-0.7805 Y1.2855 
G00 Z0.1000 
G00 X-0.6805 Y1.2855 
G01 Z-0.0070 F10.00 
G01 X-0.6816 Y1.2853 F20.00 
G01 X-0.6826 Y1.2849 
G01 X-0.6835 Y1.2843 
G01 X-0.6846 Y1.2832 
G01 X-0.6869 Y1.2817 
G01 X-0.6885 Y1.2805 
G01 X-0.6919 Y1.2792 
G01 X-0.6929 Y1.2787 
G01 X-0.6957 Y1.2782 
G01 X-0.6976 Y1.2778 
G01 X-0.7000 Y1.2778 
G01 X-0.7024 Y1.2778 
G01 X-0.7051 Y1.2783 
G01 X-0.7071 Y1.2787 
G01 X-0.7099 Y1.2799 
G01 X-0.7115 Y1.2805 
G01 X-0.7134 Y1.2819 
G01 X-0.7154 Y1.2832 
G01 X-0.7165 Y1.2843 
G01 X-0.7174 Y1.2849 
G01 X-0.7184 Y1.2853 
G01 X-0.7195 Y1.2855 
G01 X-0.7258 Y1.2855 
G01 X-0.7258 Y1.2845 
G01 X-0.7191 Y1.2845 
G01 X-0.7175 Y1.2838 
G01 X-0.7162 Y1.2825 
G01 X-0.7155 Y1.2809 
G01 X-0.7155 Y1.2742 
G01 X-0.6845 Y1.2742 
G01 X-0.6845 Y1.2809 
G01 X-0.6838 Y1.2825 
G01 X-0.6825 Y1.2838 
G01 X-0.6809 Y1.2845 
G01 X-0.6742 Y1.2845 
G01 X-0.6742 Y1.2855 
G01 X-0.6805 Y1.2855 
G00 Z0.1000 
G00 X-0.3193 Y0.2644 
G01 Z-0.0070 F10.00 
G01 X-0.3183 Y0.2646 F20.00 
G01 X-0.3173 Y0.2650 
G01 X-0.3164 Y0.2656 
G01 X-0.3156 Y0.2664 
G01 X-0.3150 Y0.2673 
G01 X-0.3146 Y0.2683 
G01 X-0.3144 Y0.2693 
G01 X-0.3144 Y0.2758 
G01 X-0.3154 Y0.2758 
G01 X-0.3154 Y0.2690 
G01 X-0.3161 Y0.2673 
G01 X-0.3173 Y0.2661 
G01 X-0.3190 Y0.2654 
G01 X-0.3258 Y0.2654 
G01 X-0.3258 Y0.2644 
G01 X-0.3193 Y0.2644 
G00 Z0.1000 
G00 X-0.1665 Y1.2343 
G01 Z-0.0070 F10.00 
G01 X-0.1674 Y1.2349 F20.00 
G01 X-0.1684 Y1.2353 
G01 X-0.1695 Y1.2355 
G01 X-0.1758 Y1.2355 
G01 X-0.1758 Y1.2345 
G01 X-0.1691 Y1.2345 
G01 X-0.1675 Y1.2338 
G01 X-0.1662 Y1.2325 
G01 X-0.1655 Y1.2309 
G01 X-0.1655 Y1.2242 
G01 X-0.1645 Y1.2242 
G01 X-0.1645 Y1.2305 
G01 X-0.1647 Y1.2316 
G01 X-0.1651 Y1.2326 
G01 X-0.1657 Y1.2335 
G01 X-0.1665 Y1.2343 
G00 Z0.1000 
G00 X-2.2145 Y0.6555 
G01 Z-0.0070 F10.00 
G01 X-2.2147 Y0.6566 F20.00 
G01 X-2.2151 Y0.6576 
G01 X-2.2157 Y0.6585 
G01 X-2.2165 Y0.6593 
G01 X-2.2174 Y0.6599 
G01 X-2.2184 Y0.6603 
G01 X-2.2195 Y0.6605 
G01 X-2.2258 Y0.6605 
G01 X-2.2258 Y0.6595 
G01 X-2.2191 Y0.6595 
G01 X-2.2175 Y0.6588 
G01 X-2.2162 Y0.6575 
G01 X-2.2155 Y0.6559 
G01 X-2.2155 Y0.6492 
G01 X-2.2145 Y0.6492 
G01 X-2.2145 Y0.6555 
G00 Z0.1000 
G00 X-2.2898 Y0.5768 
G01 Z-0.0070 F10.00 
G01 X-2.2898 Y0.5768 F20.00 
G01 X-2.2888 Y0.5783 
G01 X-2.2872 Y0.5807 
G01 X-2.2838 Y0.5841 
G01 X-2.2798 Y0.5867 
G01 X-2.2754 Y0.5886 
G01 X-2.2742 Y0.5888 
G01 X-2.2742 Y0.5905 
G01 X-2.2809 Y0.5905 
G01 X-2.2825 Y0.5912 
G01 X-2.2838 Y0.5925 
G01 X-2.2845 Y0.5941 
G01 X-2.2845 Y0.6559 
G01 X-2.2838 Y0.6575 
G01 X-2.2825 Y0.6588 
G01 X-2.2809 Y0.6595 
G01 X-2.2742 Y0.6595 
G01 X-2.2742 Y0.6612 
G01 X-2.2754 Y0.6614 
G01 X-2.2798 Y0.6633 
G01 X-2.2838 Y0.6659 
G01 X-2.2872 Y0.6693 
G01 X-2.2880 Y0.6705 
G01 X-2.2898 Y0.6732 
G01 X-2.2904 Y0.6748 
G01 X-2.3002 Y0.6846 
G01 X-2.3131 Y0.6899 
G01 X-2.3869 Y0.6899 
G01 X-2.3929 Y0.6874 
G01 X-2.3932 Y0.6873 
G01 X-2.3976 Y0.6865 
G01 X-2.4024 Y0.6865 
G01 X-2.4071 Y0.6874 
G01 X-2.4115 Y0.6892 
G01 X-2.4131 Y0.6899 
G01 X-2.4869 Y0.6899 
G01 X-2.4998 Y0.6846 
G01 X-2.5096 Y0.6748 
G01 X-2.5149 Y0.6619 
G01 X-2.5149 Y0.5881 
G01 X-2.5096 Y0.5752 
G01 X-2.4998 Y0.5654 
G01 X-2.4869 Y0.5601 
G01 X-2.4131 Y0.5601 
G01 X-2.4115 Y0.5608 
G01 X-2.4073 Y0.5625 
G01 X-2.4071 Y0.5626 
G01 X-2.4068 Y0.5627 
G01 X-2.4024 Y0.5635 
G01 X-2.3976 Y0.5635 
G01 X-2.3929 Y0.5626 
G01 X-2.3926 Y0.5625 
G01 X-2.3869 Y0.5601 
G01 X-2.3067 Y0.5601 
G01 X-2.3030 Y0.5594 
G01 X-2.3020 Y0.5592 
G01 X-2.2992 Y0.5580 
G01 X-2.2976 Y0.5574 
G01 X-2.2961 Y0.5563 
G01 X-2.2957 Y0.5561 
G01 X-2.2960 Y0.5573 
G01 X-2.2960 Y0.5621 
G01 X-2.2951 Y0.5667 
G01 X-2.2932 Y0.5711 
G01 X-2.2906 Y0.5751 
G01 X-2.2904 Y0.5752 
G01 X-2.2898 Y0.5768 
G00 Z0.1000 
G00 X-2.3845 Y0.5941 
G01 Z-0.0070 F10.00 
G01 X-2.3845 Y0.6559 F20.00 
G01 X-2.3838 Y0.6575 
G01 X-2.3825 Y0.6588 
G01 X-2.3809 Y0.6595 
G01 X-2.3191 Y0.6595 
G01 X-2.3175 Y0.6588 
G01 X-2.3162 Y0.6575 
G01 X-2.3155 Y0.6559 
G01 X-2.3155 Y0.5941 
G01 X-2.3162 Y0.5925 
G01 X-2.3175 Y0.5912 
G01 X-2.3191 Y0.5905 
G01 X-2.3809 Y0.5905 
G01 X-2.3825 Y0.5912 
G01 X-2.3838 Y0.5925 
G01 X-2.3845 Y0.5941 
G00 Z0.1000 
G00 X-2.4845 Y0.5941 
G01 Z-0.0070 F10.00 
G01 X-2.4845 Y0.6559 F20.00 
G01 X-2.4838 Y0.6575 
G01 X-2.4825 Y0.6588 
G01 X-2.4809 Y0.6595 
G01 X-2.4191 Y0.6595 
G01 X-2.4175 Y0.6588 
G01 X-2.4162 Y0.6575 
G01 X-2.4155 Y0.6559 
G01 X-2.4155 Y0.5941 
G01 X-2.4162 Y0.5925 
G01 X-2.4175 Y0.5912 
G01 X-2.4191 Y0.5905 
G01 X-2.4809 Y0.5905 
G01 X-2.4825 Y0.5912 
G01 X-2.4838 Y0.5925 
G01 X-2.4845 Y0.5941 
G00 Z0.1000 
G00 X-2.2145 Y0.5305 
G01 Z-0.0070 F10.00 
G01 X-2.2147 Y0.5316 F20.00 
G01 X-2.2151 Y0.5326 
G01 X-2.2157 Y0.5335 
G01 X-2.2165 Y0.5343 
G01 X-2.2174 Y0.5349 
G01 X-2.2184 Y0.5353 
G01 X-2.2195 Y0.5355 
G01 X-2.2258 Y0.5355 
G01 X-2.2258 Y0.5345 
G01 X-2.2191 Y0.5345 
G01 X-2.2175 Y0.5338 
G01 X-2.2162 Y0.5325 
G01 X-2.2155 Y0.5309 
G01 X-2.2155 Y0.5242 
G01 X-2.2145 Y0.5242 
G01 X-2.2145 Y0.5305 
G00 Z0.1000 
G00 X-2.0441 Y0.5345 
G01 Z-0.0070 F10.00 
G01 X-2.0425 Y0.5338 F20.00 
G01 X-2.0412 Y0.5325 
G01 X-2.0405 Y0.5309 
G01 X-2.0405 Y0.5242 
G01 X-2.0395 Y0.5242 
G01 X-2.0395 Y0.5305 
G01 X-2.0397 Y0.5316 
G01 X-2.0401 Y0.5326 
G01 X-2.0407 Y0.5335 
G01 X-2.0415 Y0.5343 
G01 X-2.0424 Y0.5349 
G01 X-2.0434 Y0.5353 
G01 X-2.0445 Y0.5355 
G01 X-2.0508 Y0.5355 
G01 X-2.0508 Y0.5345 
G01 X-2.0441 Y0.5345 
G00 Z0.1000 
G00 X-2.1095 Y0.5309 
G01 Z-0.0070 F10.00 
G01 X-2.1088 Y0.5325 F20.00 
G01 X-2.1075 Y0.5338 
G01 X-2.1059 Y0.5345 
G01 X-2.0992 Y0.5345 
G01 X-2.0992 Y0.5355 
G01 X-2.1055 Y0.5355 
G01 X-2.1066 Y0.5353 
G01 X-2.1076 Y0.5349 
G01 X-2.1085 Y0.5343 
G01 X-2.1093 Y0.5335 
G01 X-2.1099 Y0.5326 
G01 X-2.1103 Y0.5316 
G01 X-2.1105 Y0.5305 
G01 X-2.1105 Y0.5242 
G01 X-2.1095 Y0.5242 
G01 X-2.1095 Y0.5309 
G00 Z0.1000 
G00 X-2.2191 Y0.4655 
G01 Z-0.0070 F10.00 
G01 X-2.2809 Y0.4655 F20.00 
G01 X-2.2825 Y0.4662 
G01 X-2.2838 Y0.4675 
G01 X-2.2845 Y0.4691 
G01 X-2.2845 Y0.4758 
G01 X-2.2862 Y0.4758 
G01 X-2.2864 Y0.4746 
G01 X-2.2883 Y0.4702 
G01 X-2.2909 Y0.4662 
G01 X-2.2943 Y0.4628 
G01 X-2.2955 Y0.4620 
G01 X-2.2982 Y0.4602 
G01 X-2.2998 Y0.4596 
G01 X-2.3096 Y0.4498 
G01 X-2.3149 Y0.4369 
G01 X-2.3149 Y0.3631 
G01 X-2.3124 Y0.3571 
G01 X-2.3123 Y0.3568 
G01 X-2.3115 Y0.3524 
G01 X-2.3115 Y0.3476 
G01 X-2.3124 Y0.3429 
G01 X-2.3142 Y0.3385 
G01 X-2.3149 Y0.3369 
G01 X-2.3149 Y0.2631 
G01 X-2.3096 Y0.2502 
G01 X-2.2998 Y0.2404 
G01 X-2.2869 Y0.2351 
G01 X-2.2131 Y0.2351 
G01 X-2.2002 Y0.2404 
G01 X-2.1904 Y0.2502 
G01 X-2.1839 Y0.2660 
G01 X-2.1813 Y0.2699 
G01 X-2.1779 Y0.2733 
G01 X-2.1740 Y0.2759 
G01 X-2.1722 Y0.2767 
G01 X-2.1696 Y0.2778 
G01 X-2.1649 Y0.2787 
G01 X-2.1601 Y0.2787 
G01 X-2.1592 Y0.2785 
G01 X-2.1554 Y0.2778 
G01 X-2.1510 Y0.2759 
G01 X-2.1471 Y0.2733 
G01 X-2.1437 Y0.2699 
G01 X-2.1411 Y0.2660 
G01 X-2.1402 Y0.2640 
G01 X-2.1392 Y0.2616 
G01 X-2.1346 Y0.2502 
G01 X-2.1248 Y0.2404 
G01 X-2.1119 Y0.2351 
G01 X-2.0381 Y0.2351 
G01 X-2.0252 Y0.2404 
G01 X-2.0154 Y0.2502 
G01 X-2.0101 Y0.2631 
G01 X-2.0101 Y0.3369 
G01 X-2.0126 Y0.3429 
G01 X-2.0127 Y0.3432 
G01 X-2.0135 Y0.3476 
G01 X-2.0135 Y0.3524 
G01 X-2.0126 Y0.3571 
G01 X-2.0108 Y0.3615 
G01 X-2.0101 Y0.3631 
G01 X-2.0101 Y0.4369 
G01 X-2.0154 Y0.4498 
G01 X-2.0252 Y0.4596 
G01 X-2.0268 Y0.4602 
G01 X-2.0283 Y0.4612 
G01 X-2.0307 Y0.4628 
G01 X-2.0341 Y0.4662 
G01 X-2.0367 Y0.4702 
G01 X-2.0386 Y0.4746 
G01 X-2.0388 Y0.4758 
G01 X-2.0405 Y0.4758 
G01 X-2.0405 Y0.4691 
G01 X-2.0412 Y0.4675 
G01 X-2.0425 Y0.4662 
G01 X-2.0441 Y0.4655 
G01 X-2.1059 Y0.4655 
G01 X-2.1075 Y0.4662 
G01 X-2.1088 Y0.4675 
G01 X-2.1095 Y0.4691 
G01 X-2.1095 Y0.4758 
G01 X-2.1112 Y0.4758 
G01 X-2.1114 Y0.4746 
G01 X-2.1119 Y0.4735 
G01 X-2.1133 Y0.4702 
G01 X-2.1159 Y0.4662 
G01 X-2.1176 Y0.4645 
G01 X-2.1193 Y0.4628 
G01 X-2.1208 Y0.4618 
G01 X-2.1232 Y0.4602 
G01 X-2.1248 Y0.4596 
G01 X-2.1346 Y0.4498 
G01 X-2.1392 Y0.4384 
G01 X-2.1402 Y0.4361 
G01 X-2.1411 Y0.4340 
G01 X-2.1437 Y0.4301 
G01 X-2.1471 Y0.4267 
G01 X-2.1510 Y0.4241 
G01 X-2.1554 Y0.4222 
G01 X-2.1591 Y0.4215 
G01 X-2.1601 Y0.4213 
G01 X-2.1649 Y0.4213 
G01 X-2.1696 Y0.4222 
G01 X-2.1721 Y0.4233 
G01 X-2.1740 Y0.4241 
G01 X-2.1779 Y0.4267 
G01 X-2.1813 Y0.4301 
G01 X-2.1839 Y0.4340 
G01 X-2.1904 Y0.4498 
G01 X-2.2002 Y0.4596 
G01 X-2.2018 Y0.4602 
G01 X-2.2033 Y0.4612 
G01 X-2.2057 Y0.4628 
G01 X-2.2091 Y0.4662 
G01 X-2.2117 Y0.4702 
G01 X-2.2136 Y0.4746 
G01 X-2.2138 Y0.4758 
G01 X-2.2155 Y0.4758 
G01 X-2.2155 Y0.4691 
G01 X-2.2162 Y0.4675 
G01 X-2.2175 Y0.4662 
G01 X-2.2191 Y0.4655 
G00 Z0.1000 
G00 X-2.2191 Y0.3655 
G01 Z-0.0070 F10.00 
G01 X-2.2809 Y0.3655 F20.00 
G01 X-2.2825 Y0.3662 
G01 X-2.2838 Y0.3675 
G01 X-2.2845 Y0.3691 
G01 X-2.2845 Y0.4309 
G01 X-2.2838 Y0.4325 
G01 X-2.2825 Y0.4338 
G01 X-2.2809 Y0.4345 
G01 X-2.2191 Y0.4345 
G01 X-2.2175 Y0.4338 
G01 X-2.2162 Y0.4325 
G01 X-2.2155 Y0.4309 
G01 X-2.2155 Y0.3691 
G01 X-2.2162 Y0.3675 
G01 X-2.2175 Y0.3662 
G01 X-2.2191 Y0.3655 
G00 Z0.1000 
G00 X-2.2191 Y0.2655 
G01 Z-0.0070 F10.00 
G01 X-2.2809 Y0.2655 F20.00 
G01 X-2.2825 Y0.2662 
G01 X-2.2838 Y0.2675 
G01 X-2.2845 Y0.2691 
G01 X-2.2845 Y0.3309 
G01 X-2.2838 Y0.3325 
G01 X-2.2825 Y0.3338 
G01 X-2.2809 Y0.3345 
G01 X-2.2191 Y0.3345 
G01 X-2.2175 Y0.3338 
G01 X-2.2162 Y0.3325 
G01 X-2.2155 Y0.3309 
G01 X-2.2155 Y0.2691 
G01 X-2.2162 Y0.2675 
G01 X-2.2175 Y0.2662 
G01 X-2.2191 Y0.2655 
G00 Z0.1000 
G00 X-2.1059 Y0.3345 
G01 Z-0.0070 F10.00 
G01 X-2.0441 Y0.3345 F20.00 
G01 X-2.0425 Y0.3338 
G01 X-2.0412 Y0.3325 
G01 X-2.0405 Y0.3309 
G01 X-2.0405 Y0.2691 
G01 X-2.0412 Y0.2675 
G01 X-2.0425 Y0.2662 
G01 X-2.0441 Y0.2655 
G01 X-2.1059 Y0.2655 
G01 X-2.1075 Y0.2662 
G01 X-2.1088 Y0.2675 
G01 X-2.1095 Y0.2691 
G01 X-2.1095 Y0.3309 
G01 X-2.1088 Y0.3325 
G01 X-2.1075 Y0.3338 
G01 X-2.1059 Y0.3345 
G00 Z0.1000 
G00 X-2.1059 Y0.4345 
G01 Z-0.0070 F10.00 
G01 X-2.0441 Y0.4345 F20.00 
G01 X-2.0425 Y0.4338 
G01 X-2.0412 Y0.4325 
G01 X-2.0405 Y0.4309 
G01 X-2.0405 Y0.3691 
G01 X-2.0412 Y0.3675 
G01 X-2.0425 Y0.3662 
G01 X-2.0441 Y0.3655 
G01 X-2.1059 Y0.3655 
G01 X-2.1075 Y0.3662 
G01 X-2.1088 Y0.3675 
G01 X-2.1095 Y0.3691 
G01 X-2.1095 Y0.4309 
G01 X-2.1088 Y0.4325 
G01 X-2.1075 Y0.4338 
G01 X-2.1059 Y0.4345 
G00 Z0.1000 
G00 X-2.2789 Y0.5364 
G01 Z-0.0070 F10.00 
G01 X-2.2833 Y0.5383 F20.00 
G01 X-2.2851 Y0.5395 
G01 X-2.2849 Y0.5383 
G01 X-2.2849 Y0.5336 
G01 X-2.2855 Y0.5305 
G01 X-2.2855 Y0.5242 
G01 X-2.2845 Y0.5242 
G01 X-2.2845 Y0.5309 
G01 X-2.2838 Y0.5325 
G01 X-2.2825 Y0.5338 
G01 X-2.2809 Y0.5345 
G01 X-2.2742 Y0.5345 
G01 X-2.2742 Y0.5355 
G01 X-2.2789 Y0.5364 
G00 Z0.1000 
G00 X-2.2195 Y0.5895 
G01 Z-0.0070 F10.00 
G01 X-2.2184 Y0.5897 F20.00 
G01 X-2.2174 Y0.5901 
G01 X-2.2165 Y0.5907 
G01 X-2.2157 Y0.5915 
G01 X-2.2151 Y0.5924 
G01 X-2.2147 Y0.5934 
G01 X-2.2145 Y0.5945 
G01 X-2.2145 Y0.6008 
G01 X-2.2155 Y0.6008 
G01 X-2.2155 Y0.5941 
G01 X-2.2162 Y0.5925 
G01 X-2.2175 Y0.5912 
G01 X-2.2191 Y0.5905 
G01 X-2.2258 Y0.5905 
G01 X-2.2258 Y0.5895 
G01 X-2.2195 Y0.5895 
G00 Z0.1000 
G00 X-2.2549 Y2.2820 
G01 Z-0.0070 F10.00 
G01 X-2.2549 Y2.2200 F20.00 
G01 X-2.2556 Y2.2183 
G01 X-2.2568 Y2.2171 
G01 X-2.2585 Y2.2164 
G01 X-2.3205 Y2.2164 
G01 X-2.3222 Y2.2171 
G01 X-2.3234 Y2.2183 
G01 X-2.3241 Y2.2200 
G01 X-2.3241 Y2.2820 
G01 X-2.3234 Y2.2837 
G01 X-2.3222 Y2.2849 
G01 X-2.3205 Y2.2856 
G01 X-2.2585 Y2.2856 
G01 X-2.2568 Y2.2849 
G01 X-2.2556 Y2.2837 
G01 X-2.2549 Y2.2820 
G00 Z0.1000 
G00 X-2.1549 Y2.2820 
G01 Z-0.0070 F10.00 
G01 X-2.1549 Y2.2200 F20.00 
G01 X-2.1556 Y2.2183 
G01 X-2.1568 Y2.2171 
G01 X-2.1585 Y2.2164 
G01 X-2.2205 Y2.2164 
G01 X-2.2222 Y2.2171 
G01 X-2.2234 Y2.2183 
G01 X-2.2241 Y2.2200 
G01 X-2.2241 Y2.2820 
G01 X-2.2234 Y2.2837 
G01 X-2.2222 Y2.2849 
G01 X-2.2205 Y2.2856 
G01 X-2.1585 Y2.2856 
G01 X-2.1568 Y2.2849 
G01 X-2.1556 Y2.2837 
G01 X-2.1549 Y2.2820 
G00 Z0.1000 
G00 X-0.2951 Y1.7690 
G01 Z-0.0070 F10.00 
G01 X-0.2951 Y1.8310 F20.00 
G01 X-0.2944 Y1.8327 
G01 X-0.2931 Y1.8339 
G01 X-0.2915 Y1.8346 
G01 X-0.2846 Y1.8346 
G01 X-0.2846 Y1.8504 
G01 X-0.8100 Y2.3758 
G01 X-2.3742 Y2.3758 
G01 X-2.4545 Y2.2956 
G01 X-2.4545 Y2.2594 
G01 X-2.4549 Y2.2575 
G01 X-2.4549 Y2.2200 
G01 X-2.4556 Y2.2183 
G01 X-2.4568 Y2.2171 
G01 X-2.4585 Y2.2164 
G01 X-2.5205 Y2.2164 
G01 X-2.5222 Y2.2171 
G01 X-2.5234 Y2.2183 
G01 X-2.5241 Y2.2200 
G01 X-2.5241 Y2.2820 
G01 X-2.5234 Y2.2837 
G01 X-2.5222 Y2.2849 
G01 X-2.5205 Y2.2856 
G01 X-2.5029 Y2.2856 
G01 X-2.5029 Y2.3080 
G01 X-2.5019 Y2.3126 
G01 X-2.5001 Y2.3170 
G01 X-2.4975 Y2.3210 
G01 X-2.3997 Y2.4188 
G01 X-2.3957 Y2.4214 
G01 X-2.3913 Y2.4233 
G01 X-2.3866 Y2.4242 
G01 X-0.7976 Y2.4242 
G01 X-0.7929 Y2.4233 
G01 X-0.7885 Y2.4214 
G01 X-0.7846 Y2.4188 
G01 X-0.7812 Y2.4154 
G01 X-0.2417 Y1.8759 
G01 X-0.2390 Y1.8719 
G01 X-0.2372 Y1.8675 
G01 X-0.2363 Y1.8628 
G01 X-0.2363 Y1.8346 
G01 X-0.2294 Y1.8346 
G01 X-0.2278 Y1.8339 
G01 X-0.2265 Y1.8327 
G01 X-0.2258 Y1.8310 
G01 X-0.2258 Y1.7690 
G01 X-0.2265 Y1.7673 
G01 X-0.2278 Y1.7661 
G01 X-0.2294 Y1.7654 
G01 X-0.2915 Y1.7654 
G01 X-0.2931 Y1.7661 
G01 X-0.2944 Y1.7673 
G01 X-0.2951 Y1.7690 
G00 Z0.1000 
G00 X-0.3951 Y1.7690 
G01 Z-0.0070 F10.00 
G01 X-0.3951 Y1.8310 F20.00 
G01 X-0.3944 Y1.8327 
G01 X-0.3931 Y1.8339 
G01 X-0.3915 Y1.8346 
G01 X-0.3294 Y1.8346 
G01 X-0.3278 Y1.8339 
G01 X-0.3265 Y1.8327 
G01 X-0.3258 Y1.8310 
G01 X-0.3258 Y1.8043 
G01 X-0.3254 Y1.8024 
G01 X-0.3254 Y1.7576 
G01 X-0.3234 Y1.7556 
G01 X-0.3208 Y1.7517 
G01 X-0.3201 Y1.7501 
G01 X-0.3103 Y1.7403 
G01 X-0.2975 Y1.7350 
G01 X-0.2234 Y1.7350 
G01 X-0.2106 Y1.7403 
G01 X-0.2008 Y1.7501 
G01 X-0.1955 Y1.7629 
G01 X-0.1955 Y1.8371 
G01 X-0.2009 Y1.8502 
G01 X-0.2031 Y1.8536 
G01 X-0.2050 Y1.8580 
G01 X-0.2059 Y1.8626 
G01 X-0.2059 Y1.8713 
G01 X-0.2142 Y1.8913 
G01 X-0.7477 Y2.4249 
G01 X-0.7504 Y2.4289 
G01 X-0.7522 Y2.4332 
G01 X-0.7531 Y2.4379 
G01 X-0.7531 Y2.4427 
G01 X-0.7522 Y2.4474 
G01 X-0.7504 Y2.4518 
G01 X-0.7477 Y2.4557 
G01 X-0.7444 Y2.4591 
G01 X-0.7404 Y2.4617 
G01 X-0.7361 Y2.4635 
G01 X-0.7313 Y2.4645 
G01 X-0.0573 Y2.4645 
G01 X-0.0526 Y2.4636 
G01 X-0.0482 Y2.4617 
G01 X-0.0443 Y2.4591 
G01 X-0.0409 Y2.4557 
G01 X-0.0383 Y2.4518 
G01 X-0.0364 Y2.4474 
G01 X-0.0355 Y2.4427 
G01 X-0.0355 Y0.0573 
G01 X-0.0364 Y0.0526 
G01 X-0.0383 Y0.0482 
G01 X-0.0409 Y0.0443 
G01 X-0.0443 Y0.0409 
G01 X-0.0482 Y0.0383 
G01 X-0.0526 Y0.0364 
G01 X-0.0573 Y0.0355 
G01 X-2.6927 Y0.0355 
G01 X-2.6974 Y0.0364 
G01 X-2.7018 Y0.0383 
G01 X-2.7057 Y0.0409 
G01 X-2.7091 Y0.0443 
G01 X-2.7117 Y0.0482 
G01 X-2.7136 Y0.0526 
G01 X-2.7145 Y0.0573 
G01 X-2.7145 Y2.4427 
G01 X-2.7136 Y2.4474 
G01 X-2.7117 Y2.4518 
G01 X-2.7091 Y2.4557 
G01 X-2.7057 Y2.4591 
G01 X-2.7018 Y2.4617 
G01 X-2.6974 Y2.4636 
G01 X-2.6927 Y2.4645 
G01 X-2.4529 Y2.4645 
G01 X-2.4482 Y2.4636 
G01 X-2.4438 Y2.4617 
G01 X-2.4399 Y2.4591 
G01 X-2.4365 Y2.4557 
G01 X-2.4339 Y2.4518 
G01 X-2.4320 Y2.4474 
G01 X-2.4311 Y2.4427 
G01 X-2.4311 Y2.4379 
G01 X-2.4320 Y2.4333 
G01 X-2.4339 Y2.4289 
G01 X-2.4365 Y2.4249 
G01 X-2.4399 Y2.4215 
G01 X-2.5249 Y2.3365 
G01 X-2.5302 Y2.3237 
G01 X-2.5309 Y2.3221 
G01 X-2.5320 Y2.3193 
G01 X-2.5347 Y2.3154 
G01 X-2.5380 Y2.3120 
G01 X-2.5492 Y2.3009 
G01 X-2.5545 Y2.2881 
G01 X-2.5545 Y2.2139 
G01 X-2.5492 Y2.2011 
G01 X-2.5394 Y2.1913 
G01 X-2.5266 Y2.1860 
G01 X-2.4524 Y2.1860 
G01 X-2.4396 Y2.1913 
G01 X-2.4298 Y2.2011 
G01 X-2.4292 Y2.2027 
G01 X-2.4281 Y2.2042 
G01 X-2.4265 Y2.2066 
G01 X-2.4232 Y2.2100 
G01 X-2.4192 Y2.2126 
G01 X-2.4148 Y2.2145 
G01 X-2.4137 Y2.2147 
G01 X-2.4137 Y2.2164 
G01 X-2.4205 Y2.2164 
G01 X-2.4222 Y2.2171 
G01 X-2.4234 Y2.2183 
G01 X-2.4241 Y2.2200 
G01 X-2.4241 Y2.2820 
G01 X-2.4234 Y2.2837 
G01 X-2.4222 Y2.2849 
G01 X-2.4205 Y2.2856 
G01 X-2.3585 Y2.2856 
G01 X-2.3568 Y2.2849 
G01 X-2.3556 Y2.2837 
G01 X-2.3549 Y2.2820 
G01 X-2.3549 Y2.2200 
G01 X-2.3556 Y2.2183 
G01 X-2.3568 Y2.2171 
G01 X-2.3585 Y2.2164 
G01 X-2.3653 Y2.2164 
G01 X-2.3653 Y2.2147 
G01 X-2.3642 Y2.2145 
G01 X-2.3598 Y2.2126 
G01 X-2.3558 Y2.2100 
G01 X-2.3525 Y2.2067 
G01 X-2.3509 Y2.2043 
G01 X-2.3498 Y2.2027 
G01 X-2.3492 Y2.2011 
G01 X-2.3394 Y2.1913 
G01 X-2.3266 Y2.1860 
G01 X-2.2524 Y2.1860 
G01 X-2.2510 Y2.1866 
G01 X-2.2466 Y2.1885 
G01 X-2.2428 Y2.1892 
G01 X-2.2419 Y2.1894 
G01 X-2.2371 Y2.1894 
G01 X-2.2325 Y2.1885 
G01 X-2.2266 Y2.1860 
G01 X-2.1524 Y2.1860 
G01 X-2.1396 Y2.1913 
G01 X-2.1298 Y2.2011 
G01 X-2.1245 Y2.2139 
G01 X-2.1245 Y2.2881 
G01 X-2.1298 Y2.3009 
G01 X-2.1348 Y2.3058 
G01 X-2.1374 Y2.3098 
G01 X-2.1393 Y2.3142 
G01 X-2.1398 Y2.3170 
G01 X-2.1402 Y2.3189 
G01 X-2.1402 Y2.3236 
G01 X-2.1393 Y2.3283 
G01 X-2.1374 Y2.3327 
G01 X-2.1357 Y2.3353 
G01 X-2.1348 Y2.3367 
G01 X-2.1314 Y2.3400 
G01 X-2.1275 Y2.3427 
G01 X-2.1231 Y2.3445 
G01 X-2.1203 Y2.3451 
G01 X-2.1184 Y2.3454 
G01 X-0.8302 Y2.3454 
G01 X-0.8256 Y2.3445 
G01 X-0.8212 Y2.3427 
G01 X-0.8172 Y2.3400 
G01 X-0.8138 Y2.3367 
G01 X-0.3524 Y1.8752 
G01 X-0.3497 Y1.8713 
G01 X-0.3479 Y1.8669 
G01 X-0.3470 Y1.8622 
G01 X-0.3470 Y1.8574 
G01 X-0.3479 Y1.8527 
G01 X-0.3497 Y1.8483 
G01 X-0.3524 Y1.8444 
G01 X-0.3557 Y1.8410 
G01 X-0.3597 Y1.8384 
G01 X-0.3641 Y1.8366 
G01 X-0.3688 Y1.8356 
G01 X-0.3763 Y1.8356 
G01 X-0.3787 Y1.8356 
G01 X-0.3811 Y1.8356 
G01 X-0.3826 Y1.8359 
G01 X-0.3858 Y1.8365 
G01 X-0.3868 Y1.8370 
G01 X-0.3902 Y1.8384 
G01 X-0.3941 Y1.8410 
G01 X-0.3958 Y1.8427 
G01 X-0.3975 Y1.8444 
G01 X-0.3985 Y1.8459 
G01 X-0.4001 Y1.8483 
G01 X-0.4008 Y1.8499 
G01 X-0.4106 Y1.8597 
G01 X-0.4234 Y1.8650 
G01 X-0.4975 Y1.8650 
G01 X-0.4990 Y1.8644 
G01 X-0.4999 Y1.8640 
G01 X-0.5034 Y1.8625 
G01 X-0.5052 Y1.8622 
G01 X-0.5081 Y1.8616 
G01 X-0.5128 Y1.8616 
G01 X-0.5156 Y1.8622 
G01 X-0.5175 Y1.8625 
G01 X-0.5234 Y1.8650 
G01 X-0.5975 Y1.8650 
G01 X-0.6103 Y1.8597 
G01 X-0.6201 Y1.8499 
G01 X-0.6254 Y1.8371 
G01 X-0.6254 Y1.7629 
G01 X-0.6201 Y1.7501 
G01 X-0.6103 Y1.7403 
G01 X-0.5975 Y1.7350 
G01 X-0.5234 Y1.7350 
G01 X-0.5175 Y1.7375 
G01 X-0.5157 Y1.7378 
G01 X-0.5128 Y1.7384 
G01 X-0.5081 Y1.7384 
G01 X-0.5053 Y1.7378 
G01 X-0.5034 Y1.7375 
G01 X-0.5003 Y1.7362 
G01 X-0.4990 Y1.7356 
G01 X-0.4975 Y1.7350 
G01 X-0.4234 Y1.7350 
G01 X-0.4106 Y1.7403 
G01 X-0.4008 Y1.7501 
G01 X-0.4001 Y1.7517 
G01 X-0.3991 Y1.7532 
G01 X-0.3975 Y1.7556 
G01 X-0.3941 Y1.7590 
G01 X-0.3935 Y1.7594 
G01 X-0.3935 Y1.7664 
G01 X-0.3944 Y1.7673 
G01 X-0.3951 Y1.7690 
G00 Z0.1000 
G00 X-0.4951 Y1.7690 
G01 Z-0.0070 F10.00 
G01 X-0.4951 Y1.8310 F20.00 
G01 X-0.4944 Y1.8327 
G01 X-0.4931 Y1.8339 
G01 X-0.4915 Y1.8346 
G01 X-0.4294 Y1.8346 
G01 X-0.4278 Y1.8339 
G01 X-0.4265 Y1.8327 
G01 X-0.4258 Y1.8310 
G01 X-0.4258 Y1.7690 
G01 X-0.4265 Y1.7673 
G01 X-0.4278 Y1.7661 
G01 X-0.4294 Y1.7654 
G01 X-0.4915 Y1.7654 
G01 X-0.4931 Y1.7661 
G01 X-0.4944 Y1.7673 
G01 X-0.4951 Y1.7690 
G00 Z0.1000 
G00 X-0.5951 Y1.7690 
G01 Z-0.0070 F10.00 
G01 X-0.5951 Y1.8310 F20.00 
G01 X-0.5944 Y1.8327 
G01 X-0.5931 Y1.8339 
G01 X-0.5915 Y1.8346 
G01 X-0.5294 Y1.8346 
G01 X-0.5278 Y1.8339 
G01 X-0.5265 Y1.8327 
G01 X-0.5258 Y1.8310 
G01 X-0.5258 Y1.7690 
G01 X-0.5265 Y1.7673 
G01 X-0.5278 Y1.7661 
G01 X-0.5294 Y1.7654 
G01 X-0.5915 Y1.7654 
G01 X-0.5931 Y1.7661 
G01 X-0.5944 Y1.7673 
G01 X-0.5951 Y1.7690 
G00 Z0.1000 
G00 X-0.4244 Y1.8600 
G01 Z-0.0070 F10.00 
G01 X-0.4965 Y1.8600 F20.00 
G01 X-0.4966 Y1.8599 
G01 X-0.5004 Y1.8584 
G01 X-0.5019 Y1.8577 
G01 X-0.5041 Y1.8573 
G01 X-0.5076 Y1.8566 
G01 X-0.5133 Y1.8566 
G01 X-0.5170 Y1.8574 
G01 X-0.5190 Y1.8577 
G01 X-0.5244 Y1.8600 
G01 X-0.5965 Y1.8600 
G01 X-0.6075 Y1.8554 
G01 X-0.6159 Y1.8470 
G01 X-0.6204 Y1.8361 
G01 X-0.6204 Y1.7639 
G01 X-0.6159 Y1.7530 
G01 X-0.6075 Y1.7446 
G01 X-0.5965 Y1.7400 
G01 X-0.5244 Y1.7400 
G01 X-0.5190 Y1.7423 
G01 X-0.5171 Y1.7426 
G01 X-0.5133 Y1.7434 
G01 X-0.5076 Y1.7434 
G01 X-0.5043 Y1.7427 
G01 X-0.5019 Y1.7423 
G01 X-0.5006 Y1.7417 
G01 X-0.4966 Y1.7401 
G01 X-0.4965 Y1.7400 
G01 X-0.4244 Y1.7400 
G01 X-0.4134 Y1.7446 
G01 X-0.4050 Y1.7530 
G01 X-0.4046 Y1.7540 
G01 X-0.4014 Y1.7588 
G01 X-0.3994 Y1.7608 
G01 X-0.3985 Y1.7617 
G01 X-0.3985 Y1.7644 
G01 X-0.3986 Y1.7645 
G01 X-0.4001 Y1.7680 
G01 X-0.4001 Y1.8320 
G01 X-0.3986 Y1.8355 
G01 X-0.3971 Y1.8370 
G01 X-0.3973 Y1.8371 
G01 X-0.3986 Y1.8385 
G01 X-0.4014 Y1.8412 
G01 X-0.4024 Y1.8427 
G01 X-0.4046 Y1.8460 
G01 X-0.4050 Y1.8470 
G01 X-0.4134 Y1.8554 
G01 X-0.4244 Y1.8600 
G00 Z0.1000 
G00 X-0.6001 Y1.7680 
G01 Z-0.0070 F10.00 
G01 X-0.6001 Y1.8320 F20.00 
G01 X-0.5986 Y1.8355 
G01 X-0.5959 Y1.8382 
G01 X-0.5924 Y1.8396 
G01 X-0.5284 Y1.8396 
G01 X-0.5249 Y1.8382 
G01 X-0.5223 Y1.8355 
G01 X-0.5208 Y1.8320 
G01 X-0.5208 Y1.7680 
G01 X-0.5223 Y1.7645 
G01 X-0.5249 Y1.7618 
G01 X-0.5284 Y1.7604 
G01 X-0.5924 Y1.7604 
G01 X-0.5959 Y1.7618 
G01 X-0.5986 Y1.7645 
G01 X-0.6001 Y1.7680 
G00 Z0.1000 
G00 X-0.5001 Y1.7680 
G01 Z-0.0070 F10.00 
G01 X-0.5001 Y1.8320 F20.00 
G01 X-0.4986 Y1.8355 
G01 X-0.4959 Y1.8382 
G01 X-0.4924 Y1.8396 
G01 X-0.4284 Y1.8396 
G01 X-0.4249 Y1.8382 
G01 X-0.4223 Y1.8355 
G01 X-0.4208 Y1.8320 
G01 X-0.4208 Y1.7680 
G01 X-0.4223 Y1.7645 
G01 X-0.4249 Y1.7618 
G01 X-0.4284 Y1.7604 
G01 X-0.4924 Y1.7604 
G01 X-0.4959 Y1.7618 
G01 X-0.4986 Y1.7645 
G01 X-0.5001 Y1.7680 
G00 Z0.1000 
G00 X-2.2881 Y0.5896 
G01 Z-0.0070 F10.00 
G01 X-2.2895 Y0.5931 F20.00 
G01 X-2.2895 Y0.6569 
G01 X-2.2881 Y0.6604 
G01 X-2.2866 Y0.6618 
G01 X-2.2870 Y0.6620 
G01 X-2.2910 Y0.6661 
G01 X-2.2942 Y0.6709 
G01 X-2.2947 Y0.6719 
G01 X-2.3031 Y0.6803 
G01 X-2.3141 Y0.6849 
G01 X-2.3859 Y0.6849 
G01 X-2.3862 Y0.6848 
G01 X-2.3915 Y0.6826 
G01 X-2.3968 Y0.6815 
G01 X-2.3971 Y0.6815 
G01 X-2.4029 Y0.6815 
G01 X-2.4085 Y0.6826 
G01 X-2.4110 Y0.6836 
G01 X-2.4141 Y0.6849 
G01 X-2.4859 Y0.6849 
G01 X-2.4969 Y0.6803 
G01 X-2.5053 Y0.6719 
G01 X-2.5099 Y0.6609 
G01 X-2.5099 Y0.5891 
G01 X-2.5053 Y0.5781 
G01 X-2.4969 Y0.5697 
G01 X-2.4859 Y0.5651 
G01 X-2.4141 Y0.5651 
G01 X-2.4109 Y0.5664 
G01 X-2.4085 Y0.5674 
G01 X-2.4032 Y0.5685 
G01 X-2.4029 Y0.5685 
G01 X-2.3971 Y0.5685 
G01 X-2.3915 Y0.5674 
G01 X-2.3862 Y0.5652 
G01 X-2.3859 Y0.5651 
G01 X-2.3062 Y0.5651 
G01 X-2.3007 Y0.5640 
G01 X-2.2999 Y0.5682 
G01 X-2.2977 Y0.5735 
G01 X-2.2948 Y0.5778 
G01 X-2.2942 Y0.5791 
G01 X-2.2910 Y0.5839 
G01 X-2.2890 Y0.5859 
G01 X-2.2870 Y0.5880 
G01 X-2.2866 Y0.5882 
G01 X-2.2881 Y0.5896 
G00 Z0.1000 
G00 X-2.4895 Y0.5931 
G01 Z-0.0070 F10.00 
G01 X-2.4895 Y0.6569 F20.00 
G01 X-2.4881 Y0.6604 
G01 X-2.4854 Y0.6631 
G01 X-2.4819 Y0.6645 
G01 X-2.4181 Y0.6645 
G01 X-2.4146 Y0.6631 
G01 X-2.4119 Y0.6604 
G01 X-2.4105 Y0.6569 
G01 X-2.4105 Y0.5931 
G01 X-2.4119 Y0.5896 
G01 X-2.4146 Y0.5869 
G01 X-2.4181 Y0.5855 
G01 X-2.4819 Y0.5855 
G01 X-2.4854 Y0.5869 
G01 X-2.4881 Y0.5896 
G01 X-2.4895 Y0.5931 
G00 Z0.1000 
G00 X-2.3895 Y0.5931 
G01 Z-0.0070 F10.00 
G01 X-2.3895 Y0.6569 F20.00 
G01 X-2.3881 Y0.6604 
G01 X-2.3854 Y0.6631 
G01 X-2.3819 Y0.6645 
G01 X-2.3181 Y0.6645 
G01 X-2.3146 Y0.6631 
G01 X-2.3119 Y0.6604 
G01 X-2.3105 Y0.6569 
G01 X-2.3105 Y0.5931 
G01 X-2.3119 Y0.5896 
G01 X-2.3146 Y0.5869 
G01 X-2.3181 Y0.5855 
G01 X-2.3819 Y0.5855 
G01 X-2.3854 Y0.5869 
G01 X-2.3881 Y0.5896 
G01 X-2.3895 Y0.5931 
G00 Z0.1000 
G00 X-2.2181 Y0.4605 
G01 Z-0.0070 F10.00 
G01 X-2.2819 Y0.4605 F20.00 
G01 X-2.2854 Y0.4619 
G01 X-2.2868 Y0.4634 
G01 X-2.2870 Y0.4630 
G01 X-2.2911 Y0.4590 
G01 X-2.2959 Y0.4558 
G01 X-2.2969 Y0.4553 
G01 X-2.3053 Y0.4469 
G01 X-2.3099 Y0.4359 
G01 X-2.3099 Y0.3641 
G01 X-2.3098 Y0.3638 
G01 X-2.3076 Y0.3585 
G01 X-2.3065 Y0.3532 
G01 X-2.3065 Y0.3529 
G01 X-2.3065 Y0.3471 
G01 X-2.3076 Y0.3415 
G01 X-2.3086 Y0.3390 
G01 X-2.3099 Y0.3359 
G01 X-2.3099 Y0.2641 
G01 X-2.3053 Y0.2531 
G01 X-2.2969 Y0.2447 
G01 X-2.2859 Y0.2401 
G01 X-2.2141 Y0.2401 
G01 X-2.2031 Y0.2447 
G01 X-2.1947 Y0.2531 
G01 X-2.1906 Y0.2630 
G01 X-2.1895 Y0.2657 
G01 X-2.1884 Y0.2683 
G01 X-2.1852 Y0.2731 
G01 X-2.1832 Y0.2751 
G01 X-2.1811 Y0.2772 
G01 X-2.1763 Y0.2804 
G01 X-2.1755 Y0.2807 
G01 X-2.1710 Y0.2826 
G01 X-2.1654 Y0.2837 
G01 X-2.1596 Y0.2837 
G01 X-2.1574 Y0.2833 
G01 X-2.1540 Y0.2826 
G01 X-2.1487 Y0.2804 
G01 X-2.1439 Y0.2772 
G01 X-2.1419 Y0.2752 
G01 X-2.1398 Y0.2731 
G01 X-2.1366 Y0.2683 
G01 X-2.1359 Y0.2666 
G01 X-2.1344 Y0.2630 
G01 X-2.1303 Y0.2531 
G01 X-2.1219 Y0.2447 
G01 X-2.1109 Y0.2401 
G01 X-2.0391 Y0.2401 
G01 X-2.0281 Y0.2447 
G01 X-2.0197 Y0.2531 
G01 X-2.0151 Y0.2641 
G01 X-2.0151 Y0.3359 
G01 X-2.0152 Y0.3362 
G01 X-2.0174 Y0.3415 
G01 X-2.0185 Y0.3468 
G01 X-2.0185 Y0.3471 
G01 X-2.0185 Y0.3529 
G01 X-2.0174 Y0.3585 
G01 X-2.0164 Y0.3610 
G01 X-2.0151 Y0.3641 
G01 X-2.0151 Y0.4359 
G01 X-2.0197 Y0.4469 
G01 X-2.0281 Y0.4553 
G01 X-2.0291 Y0.4558 
G01 X-2.0339 Y0.4590 
G01 X-2.0359 Y0.4610 
G01 X-2.0380 Y0.4630 
G01 X-2.0382 Y0.4634 
G01 X-2.0396 Y0.4619 
G01 X-2.0431 Y0.4605 
G01 X-2.1069 Y0.4605 
G01 X-2.1104 Y0.4619 
G01 X-2.1118 Y0.4634 
G01 X-2.1120 Y0.4630 
G01 X-2.1133 Y0.4617 
G01 X-2.1161 Y0.4590 
G01 X-2.1176 Y0.4580 
G01 X-2.1209 Y0.4558 
G01 X-2.1219 Y0.4553 
G01 X-2.1303 Y0.4469 
G01 X-2.1344 Y0.4370 
G01 X-2.1358 Y0.4336 
G01 X-2.1366 Y0.4317 
G01 X-2.1398 Y0.4269 
G01 X-2.1418 Y0.4249 
G01 X-2.1439 Y0.4228 
G01 X-2.1487 Y0.4196 
G01 X-2.1540 Y0.4174 
G01 X-2.1573 Y0.4168 
G01 X-2.1596 Y0.4163 
G01 X-2.1654 Y0.4163 
G01 X-2.1710 Y0.4174 
G01 X-2.1753 Y0.4192 
G01 X-2.1763 Y0.4196 
G01 X-2.1811 Y0.4228 
G01 X-2.1831 Y0.4248 
G01 X-2.1852 Y0.4269 
G01 X-2.1884 Y0.4317 
G01 X-2.1893 Y0.4340 
G01 X-2.1906 Y0.4370 
G01 X-2.1947 Y0.4469 
G01 X-2.2031 Y0.4553 
G01 X-2.2041 Y0.4558 
G01 X-2.2089 Y0.4590 
G01 X-2.2109 Y0.4610 
G01 X-2.2130 Y0.4630 
G01 X-2.2132 Y0.4634 
G01 X-2.2146 Y0.4619 
G01 X-2.2181 Y0.4605 
G00 Z0.1000 
G00 X-2.1069 Y0.4395 
G01 Z-0.0070 F10.00 
G01 X-2.0431 Y0.4395 F20.00 
G01 X-2.0396 Y0.4381 
G01 X-2.0369 Y0.4354 
G01 X-2.0355 Y0.4319 
G01 X-2.0355 Y0.3681 
G01 X-2.0369 Y0.3646 
G01 X-2.0396 Y0.3619 
G01 X-2.0431 Y0.3605 
G01 X-2.1069 Y0.3605 
G01 X-2.1104 Y0.3619 
G01 X-2.1131 Y0.3646 
G01 X-2.1145 Y0.3681 
G01 X-2.1145 Y0.4319 
G01 X-2.1131 Y0.4354 
G01 X-2.1104 Y0.4381 
G01 X-2.1069 Y0.4395 
G00 Z0.1000 
G00 X-2.1069 Y0.3395 
G01 Z-0.0070 F10.00 
G01 X-2.0431 Y0.3395 F20.00 
G01 X-2.0396 Y0.3381 
G01 X-2.0369 Y0.3354 
G01 X-2.0355 Y0.3319 
G01 X-2.0355 Y0.2681 
G01 X-2.0369 Y0.2646 
G01 X-2.0396 Y0.2619 
G01 X-2.0431 Y0.2605 
G01 X-2.1069 Y0.2605 
G01 X-2.1104 Y0.2619 
G01 X-2.1131 Y0.2646 
G01 X-2.1145 Y0.2681 
G01 X-2.1145 Y0.3319 
G01 X-2.1131 Y0.3354 
G01 X-2.1104 Y0.3381 
G01 X-2.1069 Y0.3395 
G00 Z0.1000 
G00 X-2.2181 Y0.2605 
G01 Z-0.0070 F10.00 
G01 X-2.2819 Y0.2605 F20.00 
G01 X-2.2854 Y0.2619 
G01 X-2.2881 Y0.2646 
G01 X-2.2895 Y0.2681 
G01 X-2.2895 Y0.3319 
G01 X-2.2881 Y0.3354 
G01 X-2.2854 Y0.3381 
G01 X-2.2819 Y0.3395 
G01 X-2.2181 Y0.3395 
G01 X-2.2146 Y0.3381 
G01 X-2.2119 Y0.3354 
G01 X-2.2105 Y0.3319 
G01 X-2.2105 Y0.2681 
G01 X-2.2119 Y0.2646 
G01 X-2.2146 Y0.2619 
G01 X-2.2181 Y0.2605 
G00 Z0.1000 
G00 X-2.2181 Y0.3605 
G01 Z-0.0070 F10.00 
G01 X-2.2819 Y0.3605 F20.00 
G01 X-2.2854 Y0.3619 
G01 X-2.2881 Y0.3646 
G01 X-2.2895 Y0.3681 
G01 X-2.2895 Y0.4319 
G01 X-2.2881 Y0.4354 
G01 X-2.2854 Y0.4381 
G01 X-2.2819 Y0.4395 
G01 X-2.2181 Y0.4395 
G01 X-2.2146 Y0.4381 
G01 X-2.2119 Y0.4354 
G01 X-2.2105 Y0.4319 
G01 X-2.2105 Y0.3681 
G01 X-2.2119 Y0.3646 
G01 X-2.2146 Y0.3619 
G01 X-2.2181 Y0.3605 
G00 Z0.1000 
G00 X-2.3931 Y1.1105 
G01 Z-0.0070 F10.00 
G01 X-2.4569 Y1.1105 F20.00 
G01 X-2.4604 Y1.1119 
G01 X-2.4631 Y1.1146 
G01 X-2.4645 Y1.1181 
G01 X-2.4645 Y1.1819 
G01 X-2.4631 Y1.1854 
G01 X-2.4604 Y1.1881 
G01 X-2.4569 Y1.1895 
G01 X-2.3931 Y1.1895 
G01 X-2.3896 Y1.1881 
G01 X-2.3869 Y1.1854 
G01 X-2.3855 Y1.1819 
G01 X-2.3855 Y1.1814 
G01 X-2.3839 Y1.1830 
G01 X-2.3791 Y1.1862 
G01 X-2.3738 Y1.1884 
G01 X-2.3682 Y1.1895 
G01 X-2.2818 Y1.1895 
G01 X-2.2762 Y1.1884 
G01 X-2.2709 Y1.1862 
G01 X-2.2661 Y1.1830 
G01 X-2.2645 Y1.1814 
G01 X-2.2645 Y1.1819 
G01 X-2.2631 Y1.1854 
G01 X-2.2604 Y1.1881 
G01 X-2.2569 Y1.1895 
G01 X-2.1931 Y1.1895 
G01 X-2.1896 Y1.1881 
G01 X-2.1869 Y1.1854 
G01 X-2.1855 Y1.1819 
G01 X-2.1855 Y1.1814 
G01 X-2.1839 Y1.1830 
G01 X-2.1791 Y1.1862 
G01 X-2.1738 Y1.1884 
G01 X-2.1682 Y1.1895 
G01 X-1.6750 Y1.1895 
G01 X-1.6694 Y1.1884 
G01 X-1.6641 Y1.1862 
G01 X-1.6593 Y1.1830 
G01 X-1.6566 Y1.1802 
G01 X-1.4872 Y1.0109 
G01 X-1.4859 Y1.0096 
G01 X-1.4831 Y1.0068 
G01 X-1.4816 Y1.0045 
G01 X-1.4800 Y1.0020 
G01 X-1.4794 Y1.0006 
G01 X-1.4778 Y0.9967 
G01 X-1.4766 Y0.9911 
G01 X-1.4766 Y0.9853 
G01 X-1.4778 Y0.9797 
G01 X-1.4800 Y0.9744 
G01 X-1.4820 Y0.9713 
G01 X-1.4831 Y0.9696 
G01 X-1.4872 Y0.9655 
G01 X-1.4895 Y0.9640 
G01 X-1.4920 Y0.9623 
G01 X-1.4934 Y0.9617 
G01 X-1.4973 Y0.9601 
G01 X-1.5029 Y0.9590 
G01 X-1.5087 Y0.9590 
G01 X-1.5135 Y0.9600 
G01 X-1.5861 Y0.9600 
G01 X-1.5862 Y0.9599 
G01 X-1.5900 Y0.9584 
G01 X-1.5915 Y0.9577 
G01 X-1.5937 Y0.9573 
G01 X-1.5971 Y0.9566 
G01 X-1.6029 Y0.9566 
G01 X-1.6066 Y0.9574 
G01 X-1.6085 Y0.9577 
G01 X-1.6139 Y0.9600 
G01 X-1.6861 Y0.9600 
G01 X-1.6970 Y0.9554 
G01 X-1.7054 Y0.9470 
G01 X-1.7100 Y0.9361 
G01 X-1.7100 Y0.8639 
G01 X-1.7093 Y0.8623 
G01 X-1.7087 Y0.8595 
G01 X-1.7082 Y0.8566 
G01 X-1.7082 Y0.8509 
G01 X-1.7087 Y0.8481 
G01 X-1.7093 Y0.8452 
G01 X-1.7115 Y0.8399 
G01 X-1.7125 Y0.8384 
G01 X-1.7147 Y0.8351 
G01 X-1.7187 Y0.8311 
G01 X-1.7206 Y0.8298 
G01 X-1.7235 Y0.8279 
G01 X-1.7288 Y0.8257 
G01 X-1.7316 Y0.8251 
G01 X-1.7345 Y0.8246 
G01 X-1.9453 Y0.8246 
G01 X-1.9494 Y0.8254 
G01 X-1.9509 Y0.8257 
G01 X-1.9543 Y0.8271 
G01 X-1.9562 Y0.8279 
G01 X-1.9609 Y0.8310 
G01 X-1.9636 Y0.8337 
G01 X-1.9651 Y0.8351 
G01 X-1.9664 Y0.8365 
G01 X-1.9691 Y0.8391 
G01 X-1.9723 Y0.8439 
G01 X-1.9740 Y0.8480 
G01 X-1.9745 Y0.8492 
G01 X-1.9748 Y0.8512 
G01 X-1.9756 Y0.8549 
G01 X-1.9756 Y0.9925 
G01 X-1.9831 Y1.0107 
G01 X-2.0535 Y1.0811 
G01 X-2.0717 Y1.0886 
G01 X-2.1522 Y1.0886 
G01 X-2.1578 Y1.0897 
G01 X-2.1631 Y1.0919 
G01 X-2.1679 Y1.0951 
G01 X-2.1719 Y1.0992 
G01 X-2.1781 Y1.1053 
G01 X-2.1791 Y1.1058 
G01 X-2.1830 Y1.1083 
G01 X-2.1839 Y1.1090 
G01 X-2.1880 Y1.1130 
G01 X-2.1882 Y1.1134 
G01 X-2.1896 Y1.1119 
G01 X-2.1931 Y1.1105 
G01 X-2.2569 Y1.1105 
G01 X-2.2604 Y1.1119 
G01 X-2.2618 Y1.1134 
G01 X-2.2620 Y1.1130 
G01 X-2.2661 Y1.1090 
G01 X-2.2709 Y1.1058 
G01 X-2.2719 Y1.1053 
G01 X-2.2803 Y1.0969 
G01 X-2.2849 Y1.0859 
G01 X-2.2849 Y1.0141 
G01 X-2.2848 Y1.0138 
G01 X-2.2826 Y1.0085 
G01 X-2.2815 Y1.0032 
G01 X-2.2815 Y1.0029 
G01 X-2.2815 Y0.9971 
G01 X-2.2826 Y0.9915 
G01 X-2.2836 Y0.9890 
G01 X-2.2849 Y0.9859 
G01 X-2.2849 Y0.9141 
G01 X-2.2836 Y0.9109 
G01 X-2.2826 Y0.9085 
G01 X-2.2815 Y0.9032 
G01 X-2.2815 Y0.9029 
G01 X-2.2815 Y0.8971 
G01 X-2.2826 Y0.8915 
G01 X-2.2848 Y0.8862 
G01 X-2.2849 Y0.8859 
G01 X-2.2849 Y0.8141 
G01 X-2.2803 Y0.8031 
G01 X-2.2719 Y0.7947 
G01 X-2.2609 Y0.7901 
G01 X-2.1891 Y0.7901 
G01 X-2.1856 Y0.7916 
G01 X-2.1800 Y0.7927 
G01 X-2.1742 Y0.7927 
G01 X-2.1686 Y0.7916 
G01 X-2.1642 Y0.7898 
G01 X-2.1633 Y0.7894 
G01 X-2.1609 Y0.7878 
G01 X-2.1585 Y0.7862 
G01 X-2.1544 Y0.7821 
G01 X-2.1512 Y0.7773 
G01 X-2.1490 Y0.7720 
G01 X-2.1459 Y0.7644 
G01 X-1.7286 Y0.3472 
G01 X-1.7253 Y0.3458 
G01 X-1.7206 Y0.3426 
G01 X-1.7165 Y0.3386 
G01 X-1.7133 Y0.3338 
G01 X-1.7111 Y0.3285 
G01 X-1.7110 Y0.3281 
G01 X-1.7100 Y0.3228 
G01 X-1.7100 Y0.2639 
G01 X-1.7054 Y0.2530 
G01 X-1.6970 Y0.2446 
G01 X-1.6861 Y0.2400 
G01 X-1.6139 Y0.2400 
G01 X-1.6138 Y0.2401 
G01 X-1.6100 Y0.2416 
G01 X-1.6085 Y0.2423 
G01 X-1.6063 Y0.2427 
G01 X-1.6029 Y0.2434 
G01 X-1.5971 Y0.2434 
G01 X-1.5934 Y0.2426 
G01 X-1.5915 Y0.2423 
G01 X-1.5861 Y0.2400 
G01 X-1.5139 Y0.2400 
G01 X-1.5138 Y0.2401 
G01 X-1.5085 Y0.2423 
G01 X-1.5048 Y0.2430 
G01 X-1.5029 Y0.2434 
G01 X-1.4971 Y0.2434 
G01 X-1.4915 Y0.2423 
G01 X-1.4876 Y0.2407 
G01 X-1.4862 Y0.2401 
G01 X-1.4861 Y0.2400 
G01 X-1.4139 Y0.2400 
G01 X-1.4085 Y0.2423 
G01 X-1.4067 Y0.2426 
G01 X-1.4029 Y0.2434 
G01 X-1.3971 Y0.2434 
G01 X-1.3938 Y0.2427 
G01 X-1.3915 Y0.2423 
G01 X-1.3901 Y0.2417 
G01 X-1.3862 Y0.2401 
G01 X-1.3861 Y0.2400 
G01 X-1.3139 Y0.2400 
G01 X-1.3085 Y0.2423 
G01 X-1.3067 Y0.2426 
G01 X-1.3029 Y0.2434 
G01 X-1.2971 Y0.2434 
G01 X-1.2938 Y0.2427 
G01 X-1.2915 Y0.2423 
G01 X-1.2901 Y0.2417 
G01 X-1.2862 Y0.2401 
G01 X-1.2861 Y0.2400 
G01 X-1.2139 Y0.2400 
G01 X-1.2138 Y0.2401 
G01 X-1.2100 Y0.2416 
G01 X-1.2085 Y0.2423 
G01 X-1.2063 Y0.2427 
G01 X-1.2029 Y0.2434 
G01 X-1.1971 Y0.2434 
G01 X-1.1934 Y0.2426 
G01 X-1.1915 Y0.2423 
G01 X-1.1861 Y0.2400 
G01 X-1.1139 Y0.2400 
G01 X-1.1085 Y0.2423 
G01 X-1.1067 Y0.2426 
G01 X-1.1029 Y0.2434 
G01 X-1.0971 Y0.2434 
G01 X-1.0938 Y0.2427 
G01 X-1.0915 Y0.2423 
G01 X-1.0901 Y0.2417 
G01 X-1.0862 Y0.2401 
G01 X-1.0861 Y0.2400 
G01 X-1.0139 Y0.2400 
G01 X-1.0085 Y0.2423 
G01 X-1.0067 Y0.2426 
G01 X-1.0029 Y0.2434 
G01 X-0.9971 Y0.2434 
G01 X-0.9938 Y0.2427 
G01 X-0.9915 Y0.2423 
G01 X-0.9901 Y0.2417 
G01 X-0.9862 Y0.2401 
G01 X-0.9861 Y0.2400 
G01 X-0.9139 Y0.2400 
G01 X-0.9085 Y0.2423 
G01 X-0.9067 Y0.2426 
G01 X-0.9029 Y0.2434 
G01 X-0.8971 Y0.2434 
G01 X-0.8938 Y0.2427 
G01 X-0.8915 Y0.2423 
G01 X-0.8901 Y0.2417 
G01 X-0.8862 Y0.2401 
G01 X-0.8861 Y0.2400 
G01 X-0.8139 Y0.2400 
G01 X-0.8085 Y0.2423 
G01 X-0.8067 Y0.2426 
G01 X-0.8029 Y0.2434 
G01 X-0.7971 Y0.2434 
G01 X-0.7938 Y0.2427 
G01 X-0.7915 Y0.2423 
G01 X-0.7901 Y0.2417 
G01 X-0.7862 Y0.2401 
G01 X-0.7861 Y0.2400 
G01 X-0.7139 Y0.2400 
G01 X-0.7085 Y0.2423 
G01 X-0.7067 Y0.2426 
G01 X-0.7029 Y0.2434 
G01 X-0.6971 Y0.2434 
G01 X-0.6938 Y0.2427 
G01 X-0.6915 Y0.2423 
G01 X-0.6901 Y0.2417 
G01 X-0.6862 Y0.2401 
G01 X-0.6861 Y0.2400 
G01 X-0.6139 Y0.2400 
G01 X-0.6085 Y0.2423 
G01 X-0.6067 Y0.2426 
G01 X-0.6029 Y0.2434 
G01 X-0.5971 Y0.2434 
G01 X-0.5938 Y0.2427 
G01 X-0.5915 Y0.2423 
G01 X-0.5901 Y0.2417 
G01 X-0.5862 Y0.2401 
G01 X-0.5861 Y0.2400 
G01 X-0.5139 Y0.2400 
G01 X-0.5085 Y0.2423 
G01 X-0.5067 Y0.2426 
G01 X-0.5029 Y0.2434 
G01 X-0.4971 Y0.2434 
G01 X-0.4938 Y0.2427 
G01 X-0.4915 Y0.2423 
G01 X-0.4901 Y0.2417 
G01 X-0.4862 Y0.2401 
G01 X-0.4861 Y0.2400 
G01 X-0.4139 Y0.2400 
G01 X-0.4030 Y0.2446 
G01 X-0.3946 Y0.2530 
G01 X-0.3941 Y0.2540 
G01 X-0.3909 Y0.2588 
G01 X-0.3889 Y0.2608 
G01 X-0.3869 Y0.2629 
G01 X-0.3867 Y0.2630 
G01 X-0.3882 Y0.2645 
G01 X-0.3896 Y0.2680 
G01 X-0.3896 Y0.3320 
G01 X-0.3882 Y0.3355 
G01 X-0.3867 Y0.3370 
G01 X-0.3869 Y0.3371 
G01 X-0.3909 Y0.3412 
G01 X-0.3941 Y0.3460 
G01 X-0.3946 Y0.3470 
G01 X-0.4030 Y0.3554 
G01 X-0.4139 Y0.3600 
G01 X-0.4861 Y0.3600 
G01 X-0.4862 Y0.3599 
G01 X-0.4900 Y0.3584 
G01 X-0.4915 Y0.3577 
G01 X-0.4937 Y0.3573 
G01 X-0.4971 Y0.3566 
G01 X-0.5029 Y0.3566 
G01 X-0.5066 Y0.3574 
G01 X-0.5085 Y0.3577 
G01 X-0.5139 Y0.3600 
G01 X-0.5861 Y0.3600 
G01 X-0.5862 Y0.3599 
G01 X-0.5915 Y0.3577 
G01 X-0.5960 Y0.3568 
G01 X-0.5971 Y0.3566 
G01 X-0.6029 Y0.3566 
G01 X-0.6085 Y0.3577 
G01 X-0.6139 Y0.3600 
G01 X-0.6861 Y0.3600 
G01 X-0.6862 Y0.3599 
G01 X-0.6900 Y0.3584 
G01 X-0.6915 Y0.3577 
G01 X-0.6937 Y0.3573 
G01 X-0.6971 Y0.3566 
G01 X-0.7029 Y0.3566 
G01 X-0.7066 Y0.3574 
G01 X-0.7085 Y0.3577 
G01 X-0.7139 Y0.3600 
G01 X-0.7928 Y0.3600 
G01 X-0.7984 Y0.3611 
G01 X-0.8038 Y0.3633 
G01 X-0.8075 Y0.3658 
G01 X-0.8085 Y0.3665 
G01 X-0.8126 Y0.3706 
G01 X-0.8158 Y0.3753 
G01 X-0.8174 Y0.3792 
G01 X-0.8180 Y0.3807 
G01 X-0.8188 Y0.3827 
G01 X-0.8351 Y0.3989 
G01 X-0.8473 Y0.4111 
G01 X-0.8511 Y0.4149 
G01 X-0.8513 Y0.4152 
G01 X-0.8673 Y0.4312 
G01 X-0.8856 Y0.4387 
G01 X-1.6708 Y0.4387 
G01 X-1.6764 Y0.4398 
G01 X-1.6817 Y0.4420 
G01 X-1.6865 Y0.4452 
G01 X-1.6902 Y0.4489 
G01 X-1.9149 Y0.6736 
G01 X-1.9153 Y0.6740 
G01 X-1.9189 Y0.6777 
G01 X-1.9221 Y0.6824 
G01 X-1.9243 Y0.6877 
G01 X-1.9254 Y0.6934 
G01 X-1.9254 Y0.6991 
G01 X-1.9243 Y0.7048 
G01 X-1.9221 Y0.7101 
G01 X-1.9189 Y0.7149 
G01 X-1.9149 Y0.7189 
G01 X-1.9101 Y0.7221 
G01 X-1.9048 Y0.7243 
G01 X-1.8991 Y0.7254 
G01 X-1.2238 Y0.7254 
G01 X-1.2210 Y0.7254 
G01 X-1.2181 Y0.7249 
G01 X-1.2154 Y0.7243 
G01 X-1.2127 Y0.7232 
G01 X-1.2100 Y0.7221 
G01 X-1.2076 Y0.7205 
G01 X-1.1895 Y0.7084 
G01 X-1.1871 Y0.7068 
G01 X-1.1847 Y0.7053 
G01 X-1.1827 Y0.7032 
G01 X-1.1807 Y0.7012 
G01 X-1.1791 Y0.6988 
G01 X-1.1775 Y0.6964 
G01 X-1.1764 Y0.6938 
G01 X-1.1753 Y0.6913 
G01 X-1.1586 Y0.6746 
G01 X-1.1368 Y0.6656 
G01 X-1.1132 Y0.6656 
G01 X-1.0914 Y0.6746 
G01 X-1.0746 Y0.6914 
G01 X-1.0656 Y0.7132 
G01 X-1.0656 Y0.7368 
G01 X-1.0746 Y0.7586 
G01 X-1.0914 Y0.7754 
G01 X-1.1183 Y0.7865 
G01 X-1.1215 Y0.7887 
G01 X-1.1230 Y0.7897 
G01 X-1.1270 Y0.7937 
G01 X-1.1292 Y0.7969 
G01 X-1.1303 Y0.7985 
G01 X-1.1305 Y0.7991 
G01 X-1.1325 Y0.8038 
G01 X-1.1336 Y0.8095 
G01 X-1.1336 Y0.8152 
G01 X-1.1331 Y0.8180 
G01 X-1.1325 Y0.8209 
G01 X-1.1321 Y0.8217 
G01 X-1.1303 Y0.8262 
G01 X-1.1281 Y0.8294 
G01 X-1.1271 Y0.8310 
G01 X-1.1231 Y0.8350 
G01 X-1.1199 Y0.8371 
G01 X-1.1183 Y0.8382 
G01 X-1.1175 Y0.8385 
G01 X-1.1129 Y0.8404 
G01 X-1.1085 Y0.8423 
G01 X-1.1039 Y0.8432 
G01 X-1.1029 Y0.8434 
G01 X-1.0971 Y0.8434 
G01 X-1.0918 Y0.8423 
G01 X-1.0915 Y0.8423 
G01 X-1.0908 Y0.8420 
G01 X-1.0861 Y0.8400 
G01 X-1.0139 Y0.8400 
G01 X-1.0085 Y0.8423 
G01 X-1.0067 Y0.8426 
G01 X-1.0029 Y0.8434 
G01 X-0.9971 Y0.8434 
G01 X-0.9938 Y0.8427 
G01 X-0.9915 Y0.8423 
G01 X-0.9901 Y0.8417 
G01 X-0.9862 Y0.8401 
G01 X-0.9861 Y0.8400 
G01 X-0.9363 Y0.8400 
G01 X-0.9307 Y0.8389 
G01 X-0.9253 Y0.8367 
G01 X-0.9206 Y0.8335 
G01 X-0.9165 Y0.8294 
G01 X-0.9133 Y0.8247 
G01 X-0.9111 Y0.8193 
G01 X-0.9100 Y0.8137 
G01 X-0.9100 Y0.7639 
G01 X-0.9054 Y0.7530 
G01 X-0.8970 Y0.7446 
G01 X-0.8861 Y0.7400 
G01 X-0.8139 Y0.7400 
G01 X-0.8085 Y0.7423 
G01 X-0.8067 Y0.7426 
G01 X-0.8029 Y0.7434 
G01 X-0.7971 Y0.7434 
G01 X-0.7938 Y0.7427 
G01 X-0.7915 Y0.7423 
G01 X-0.7901 Y0.7417 
G01 X-0.7862 Y0.7401 
G01 X-0.7861 Y0.7400 
G01 X-0.7139 Y0.7400 
G01 X-0.7085 Y0.7423 
G01 X-0.7067 Y0.7426 
G01 X-0.7029 Y0.7434 
G01 X-0.6971 Y0.7434 
G01 X-0.6938 Y0.7427 
G01 X-0.6915 Y0.7423 
G01 X-0.6901 Y0.7417 
G01 X-0.6862 Y0.7401 
G01 X-0.6861 Y0.7400 
G01 X-0.6139 Y0.7400 
G01 X-0.6030 Y0.7446 
G01 X-0.5946 Y0.7530 
G01 X-0.5900 Y0.7639 
G01 X-0.5900 Y0.8137 
G01 X-0.5889 Y0.8193 
G01 X-0.5867 Y0.8247 
G01 X-0.5835 Y0.8294 
G01 X-0.5794 Y0.8335 
G01 X-0.5747 Y0.8367 
G01 X-0.5693 Y0.8389 
G01 X-0.5637 Y0.8400 
G01 X-0.5139 Y0.8400 
G01 X-0.5085 Y0.8423 
G01 X-0.5067 Y0.8426 
G01 X-0.5029 Y0.8434 
G01 X-0.4971 Y0.8434 
G01 X-0.4938 Y0.8427 
G01 X-0.4915 Y0.8423 
G01 X-0.4901 Y0.8417 
G01 X-0.4862 Y0.8401 
G01 X-0.4861 Y0.8400 
G01 X-0.4139 Y0.8400 
G01 X-0.4085 Y0.8423 
G01 X-0.4067 Y0.8426 
G01 X-0.4029 Y0.8434 
G01 X-0.3971 Y0.8434 
G01 X-0.3938 Y0.8427 
G01 X-0.3915 Y0.8423 
G01 X-0.3901 Y0.8417 
G01 X-0.3862 Y0.8401 
G01 X-0.3861 Y0.8400 
G01 X-0.3139 Y0.8400 
G01 X-0.3030 Y0.8446 
G01 X-0.2946 Y0.8530 
G01 X-0.2900 Y0.8639 
G01 X-0.2900 Y0.9217 
G01 X-0.2889 Y0.9274 
G01 X-0.2867 Y0.9327 
G01 X-0.2835 Y0.9375 
G01 X-0.2794 Y0.9415 
G01 X-0.2747 Y0.9447 
G01 X-0.2695 Y0.9468 
G01 X-0.2693 Y0.9469 
G01 X-0.2637 Y0.9480 
G01 X-0.2580 Y0.9480 
G01 X-0.2523 Y0.9469 
G01 X-0.2521 Y0.9468 
G01 X-0.2359 Y0.9401 
G01 X-0.1641 Y0.9401 
G01 X-0.1531 Y0.9447 
G01 X-0.1447 Y0.9531 
G01 X-0.1401 Y0.9641 
G01 X-0.1401 Y1.0359 
G01 X-0.1414 Y1.0391 
G01 X-0.1424 Y1.0415 
G01 X-0.1435 Y1.0468 
G01 X-0.1435 Y1.0471 
G01 X-0.1435 Y1.0529 
G01 X-0.1424 Y1.0585 
G01 X-0.1402 Y1.0638 
G01 X-0.1401 Y1.0641 
G01 X-0.1401 Y1.1359 
G01 X-0.1447 Y1.1469 
G01 X-0.1531 Y1.1553 
G01 X-0.1541 Y1.1558 
G01 X-0.1589 Y1.1590 
G01 X-0.1609 Y1.1610 
G01 X-0.1630 Y1.1630 
G01 X-0.1632 Y1.1634 
G01 X-0.1646 Y1.1619 
G01 X-0.1681 Y1.1605 
G01 X-0.2319 Y1.1605 
G01 X-0.2354 Y1.1619 
G01 X-0.2381 Y1.1646 
G01 X-0.2393 Y1.1677 
G01 X-0.2411 Y1.1659 
G01 X-0.2459 Y1.1627 
G01 X-0.2512 Y1.1605 
G01 X-0.2568 Y1.1594 
G01 X-0.3093 Y1.1594 
G01 X-0.3104 Y1.1592 
G01 X-0.3122 Y1.1594 
G01 X-0.3140 Y1.1594 
G01 X-0.3151 Y1.1596 
G01 X-0.3161 Y1.1596 
G01 X-0.3179 Y1.1601 
G01 X-0.3197 Y1.1605 
G01 X-0.3206 Y1.1609 
G01 X-0.3217 Y1.1612 
G01 X-0.3233 Y1.1620 
G01 X-0.3250 Y1.1627 
G01 X-0.3259 Y1.1633 
G01 X-0.3268 Y1.1637 
G01 X-0.3282 Y1.1649 
G01 X-0.3298 Y1.1659 
G01 X-0.3305 Y1.1666 
G01 X-0.3313 Y1.1673 
G01 X-0.3325 Y1.1687 
G01 X-0.3338 Y1.1700 
G01 X-0.3344 Y1.1708 
G01 X-0.3351 Y1.1716 
G01 X-0.3360 Y1.1732 
G01 X-0.3370 Y1.1747 
G01 X-0.3374 Y1.1757 
G01 X-0.3380 Y1.1766 
G01 X-0.3385 Y1.1783 
G01 X-0.3392 Y1.1800 
G01 X-0.3393 Y1.1803 
G01 X-0.3395 Y1.1809 
G01 X-0.3397 Y1.1819 
G01 X-0.3400 Y1.1829 
G01 X-0.3403 Y1.1847 
G01 X-0.3406 Y1.1865 
G01 X-0.3406 Y1.1875 
G01 X-0.3408 Y1.1886 
G01 X-0.3406 Y1.1904 
G01 X-0.3406 Y1.3868 
G01 X-0.3497 Y1.4086 
G01 X-0.3725 Y1.4315 
G01 X-0.4914 Y1.5503 
G01 X-0.5132 Y1.5594 
G01 X-0.5368 Y1.5594 
G01 X-0.5525 Y1.5529 
G01 X-0.5578 Y1.5507 
G01 X-0.5634 Y1.5496 
G01 X-0.9619 Y1.5496 
G01 X-0.9675 Y1.5507 
G01 X-0.9728 Y1.5529 
G01 X-0.9747 Y1.5541 
G01 X-0.9776 Y1.5561 
G01 X-0.9817 Y1.5601 
G01 X-0.9830 Y1.5621 
G01 X-0.9849 Y1.5649 
G01 X-0.9864 Y1.5686 
G01 X-0.9871 Y1.5702 
G01 X-0.9882 Y1.5759 
G01 X-0.9882 Y1.5816 
G01 X-0.9871 Y1.5873 
G01 X-0.9849 Y1.5926 
G01 X-0.9836 Y1.5944 
G01 X-0.9817 Y1.5973 
G01 X-0.9776 Y1.6014 
G01 X-0.9675 Y1.6116 
G01 X-0.9571 Y1.6365 
G01 X-0.9571 Y1.6635 
G01 X-0.9675 Y1.6884 
G01 X-0.9866 Y1.7075 
G01 X-1.0115 Y1.7179 
G01 X-1.0385 Y1.7179 
G01 X-1.0665 Y1.7063 
G01 X-1.0721 Y1.7052 
G01 X-1.0779 Y1.7052 
G01 X-1.0832 Y1.7062 
G01 X-1.0835 Y1.7063 
G01 X-1.0837 Y1.7064 
G01 X-1.1115 Y1.7179 
G01 X-1.1385 Y1.7179 
G01 X-1.1665 Y1.7063 
G01 X-1.1721 Y1.7052 
G01 X-1.1779 Y1.7052 
G01 X-1.1832 Y1.7062 
G01 X-1.1835 Y1.7063 
G01 X-1.1837 Y1.7064 
G01 X-1.2115 Y1.7179 
