(.../pcb-gcode-3_6_0_4/pcb-gcode.ulp)
(Copyright 2005 - 2012 by John Johnson)
(See readme.txt for licensing terms.)
(This file generated from the board:)
(.../PolarStormControlBoard_smol_275_gnd.brd)
(Current profile is .../pcb-gcode-3_6_0_4/profiles/generic.pp  )
(This file generated 1/30/2018 12:21 PM)
(Settings from pcb-machine.h)
(  Tool Size)
(0.0070 )
(Z Axis Settings)
(  High     Up        Down     Drill)
(0.5000 	0.1000 	-0.0070 	-0.0320 )
(spindle on time = 3.0000)
(milling depth = -0.0100)
(text depth = -0.0050)
(tool change at 0.5000 0.6000 1.0000 )
(feed rate xy = F20.00 )
(feed rate z  = F10.00 )
(Settings from pcb-defaults.h)
(isolate min = 0.0010)
(isolate max = 0.0200)
(isolate step = 0.0050)
(Generated top outlines, top drill, bottom outlines, bottom drill, )
(Unit of measure: inch)
( Tool|       Size       |  Min Sub |  Max Sub |   Count )
( T01  5.080mm 0.2000in 0.0000in 0.0000in )
( T02  1.000mm 0.0394in 0.0000in 0.0000in )
( T03  1.016mm 0.0400in 0.0000in 0.0000in )
( T04  1.020mm 0.0402in 0.0000in 0.0000in )
(Inch Mode)
G20
(Absolute Coordinates)
G90
M05
G00 Z1.0000 
G00 X0.5000 Y0.6000 
M06 T01  ; 0.2000 
G01 Z0.0000 F10.00 
M06 T01  ; 0.2000 
G00 Z0.1000 
M03
G04 P3.000000
G00 Z0.100000
G00 X2.0000 Y1.7250 
G01 Z-0.0320 F10.00 
G01 Z0.100000
(R0.1000  P1.000000)
(G00 Z0.100000)
G00 X2.5000 Y1.5250 
G01 Z-0.032000
G01 Z0.100000
(G00 Z0.100000)
G00 X2.5000 Y0.3500 
G01 Z-0.032000
G01 Z0.100000
M05
G00 Z1.0000 
M06 T02  ; 0.0394 
G01 Z0.0000 F10.00 
M06 T02  ; 0.0394 
G00 Z0.1000 
M03
G04 P3.000000
G00 Z0.100000
G00 X1.3250 Y1.6500 
G01 Z-0.0320 F10.00 
G01 Z0.100000
(R0.1000  P1.000000)
(G00 Z0.100000)
G00 X1.4250 Y1.6500 
G01 Z-0.032000
G01 Z0.100000
(G00 Z0.100000)
G00 X1.5250 Y1.6500 
G01 Z-0.032000
G01 Z0.100000
(G00 Z0.100000)
G00 X1.6250 Y1.6500 
G01 Z-0.032000
G01 Z0.100000
(G00 Z0.100000)
G00 X1.7250 Y1.6500 
G01 Z-0.032000
G01 Z0.100000
(G00 Z0.100000)
G00 X1.0250 Y1.6500 
G01 Z-0.032000
G01 Z0.100000
(G00 Z0.100000)
G00 X1.1250 Y1.6500 
G01 Z-0.032000
G01 Z0.100000
(G00 Z0.100000)
G00 X1.1250 Y0.7250 
G01 Z-0.032000
G01 Z0.100000
(G00 Z0.100000)
G00 X1.2250 Y1.6500 
G01 Z-0.032000
G01 Z0.100000
M05
G00 Z1.0000 
M06 T03  ; 0.0400 
G01 Z0.0000 F10.00 
M06 T03  ; 0.0400 
G00 Z0.1000 
M03
G04 P3.000000
G00 Z0.100000
G00 X0.2000 Y1.0000 
G01 Z-0.0320 F10.00 
G01 Z0.100000
(R0.1000  P1.000000)
(G00 Z0.100000)
G00 X0.2000 Y1.1000 
G01 Z-0.032000
G01 Z0.100000
(G00 Z0.100000)
G00 X0.2000 Y1.2000 
G01 Z-0.032000
G01 Z0.100000
(G00 Z0.100000)
G00 X2.0750 Y0.3000 
G01 Z-0.032000
G01 Z0.100000
(G00 Z0.100000)
G00 X2.0750 Y0.4000 
G01 Z-0.032000
G01 Z0.100000
(G00 Z0.100000)
G00 X2.0750 Y0.5000 
G01 Z-0.032000
G01 Z0.100000
(G00 Z0.100000)
G00 X2.1154 Y1.4346 
G01 Z-0.032000
G01 Z0.100000
(G00 Z0.100000)
G00 X2.2250 Y0.8500 
G01 Z-0.032000
G01 Z0.100000
(G00 Z0.100000)
G00 X2.2250 Y0.9500 
G01 Z-0.032000
G01 Z0.100000
(G00 Z0.100000)
G00 X2.2250 Y1.0500 
G01 Z-0.032000
G01 Z0.100000
(G00 Z0.100000)
G00 X2.2250 Y1.1500 
G01 Z-0.032000
G01 Z0.100000
(G00 Z0.100000)
G00 X2.2500 Y0.3000 
G01 Z-0.032000
G01 Z0.100000
(G00 Z0.100000)
G00 X2.2500 Y0.4000 
G01 Z-0.032000
G01 Z0.100000
(G00 Z0.100000)
G00 X2.2500 Y0.5000 
G01 Z-0.032000
G01 Z0.100000
(G00 Z0.100000)
G00 X2.2500 Y0.6250 
G01 Z-0.032000
G01 Z0.100000
(G00 Z0.100000)
G00 X2.3500 Y0.6250 
G01 Z-0.032000
G01 Z0.100000
(G00 Z0.100000)
G00 X2.4250 Y0.8500 
G01 Z-0.032000
G01 Z0.100000
(G00 Z0.100000)
G00 X2.4250 Y0.9500 
G01 Z-0.032000
G01 Z0.100000
(G00 Z0.100000)
G00 X2.4250 Y1.0500 
G01 Z-0.032000
G01 Z0.100000
(G00 Z0.100000)
G00 X2.4250 Y1.1500 
G01 Z-0.032000
G01 Z0.100000
(G00 Z0.100000)
G00 X2.4500 Y0.6250 
G01 Z-0.032000
G01 Z0.100000
(G00 Z0.100000)
G00 X0.5500 Y1.3750 
G01 Z-0.032000
G01 Z0.100000
(G00 Z0.100000)
G00 X0.6500 Y1.2500 
G01 Z-0.032000
G01 Z0.100000
(G00 Z0.100000)
G00 X0.6500 Y1.0500 
G01 Z-0.032000
G01 Z0.100000
(G00 Z0.100000)
G00 X0.6500 Y1.1500 
G01 Z-0.032000
G01 Z0.100000
(G00 Z0.100000)
G00 X0.7500 Y1.2500 
G01 Z-0.032000
G01 Z0.100000
(G00 Z0.100000)
G00 X0.7500 Y1.0500 
G01 Z-0.032000
G01 Z0.100000
(G00 Z0.100000)
G00 X0.7500 Y1.1500 
G01 Z-0.032000
G01 Z0.100000
M05
G00 Z1.0000 
M06 T04  ; 0.0402 
G01 Z0.0000 F10.00 
M06 T04  ; 0.0402 
G00 Z0.1000 
M03
G04 P3.000000
G00 Z0.100000
G00 X1.2500 Y0.3000 
G01 Z-0.0320 F10.00 
G01 Z0.100000
(R0.1000  P1.000000)
(G00 Z0.100000)
G00 X1.2500 Y0.9000 
G01 Z-0.032000
G01 Z0.100000
(G00 Z0.100000)
G00 X1.3500 Y0.3000 
G01 Z-0.032000
G01 Z0.100000
(G00 Z0.100000)
G00 X1.3500 Y0.9000 
G01 Z-0.032000
G01 Z0.100000
(G00 Z0.100000)
G00 X1.4500 Y0.3000 
G01 Z-0.032000
G01 Z0.100000
(G00 Z0.100000)
G00 X1.4500 Y0.9000 
G01 Z-0.032000
G01 Z0.100000
(G00 Z0.100000)
G00 X1.5500 Y0.3000 
G01 Z-0.032000
G01 Z0.100000
(G00 Z0.100000)
G00 X1.5500 Y0.9000 
G01 Z-0.032000
G01 Z0.100000
(G00 Z0.100000)
G00 X1.6500 Y0.3000 
G01 Z-0.032000
G01 Z0.100000
(G00 Z0.100000)
G00 X1.6500 Y0.9000 
G01 Z-0.032000
G01 Z0.100000
(G00 Z0.100000)
G00 X2.1895 Y2.2510 
G01 Z-0.032000
G01 Z0.100000
(G00 Z0.100000)
G00 X2.2895 Y2.2510 
G01 Z-0.032000
G01 Z0.100000
(G00 Z0.100000)
G00 X2.3895 Y2.2510 
G01 Z-0.032000
G01 Z0.100000
(G00 Z0.100000)
G00 X2.4895 Y2.2510 
G01 Z-0.032000
G01 Z0.100000
(G00 Z0.100000)
G00 X0.2604 Y1.8000 
G01 Z-0.032000
G01 Z0.100000
(G00 Z0.100000)
G00 X0.3500 Y0.3000 
G01 Z-0.032000
G01 Z0.100000
(G00 Z0.100000)
G00 X0.3500 Y0.9000 
G01 Z-0.032000
G01 Z0.100000
(G00 Z0.100000)
G00 X0.3604 Y1.8000 
G01 Z-0.032000
G01 Z0.100000
(G00 Z0.100000)
G00 X0.4500 Y0.3000 
G01 Z-0.032000
G01 Z0.100000
(G00 Z0.100000)
G00 X0.4500 Y0.9000 
G01 Z-0.032000
G01 Z0.100000
(G00 Z0.100000)
G00 X0.4604 Y1.8000 
G01 Z-0.032000
G01 Z0.100000
(G00 Z0.100000)
G00 X0.5500 Y0.3000 
G01 Z-0.032000
G01 Z0.100000
(G00 Z0.100000)
G00 X0.5500 Y0.9000 
G01 Z-0.032000
G01 Z0.100000
(G00 Z0.100000)
G00 X0.5604 Y1.8000 
G01 Z-0.032000
G01 Z0.100000
(G00 Z0.100000)
G00 X0.6500 Y0.3000 
G01 Z-0.032000
G01 Z0.100000
(G00 Z0.100000)
G00 X0.6500 Y0.8000 
G01 Z-0.032000
G01 Z0.100000
(G00 Z0.100000)
G00 X0.6500 Y0.9000 
G01 Z-0.032000
G01 Z0.100000
(G00 Z0.100000)
G00 X0.7500 Y0.3000 
G01 Z-0.032000
G01 Z0.100000
(G00 Z0.100000)
G00 X0.7500 Y0.8000 
G01 Z-0.032000
G01 Z0.100000
(G00 Z0.100000)
G00 X0.7500 Y0.9000 
G01 Z-0.032000
G01 Z0.100000
(G00 Z0.100000)
G00 X0.8500 Y0.3000 
G01 Z-0.032000
G01 Z0.100000
(G00 Z0.100000)
G00 X0.8500 Y0.8000 
G01 Z-0.032000
G01 Z0.100000
(G00 Z0.100000)
G00 X0.8500 Y0.9000 
G01 Z-0.032000
G01 Z0.100000
(G00 Z0.100000)
G00 X0.9500 Y0.3000 
G01 Z-0.032000
G01 Z0.100000
(G00 Z0.100000)
G00 X0.9500 Y0.9000 
G01 Z-0.032000
G01 Z0.100000
(G00 Z0.100000)
G00 X1.0500 Y0.3000 
G01 Z-0.032000
G01 Z0.100000
(G00 Z0.100000)
G00 X1.0500 Y0.9000 
G01 Z-0.032000
G01 Z0.100000
(G00 Z0.100000)
G00 X1.1500 Y0.3000 
G01 Z-0.032000
G01 Z0.100000
(G00 Z0.100000)
G00 X1.1500 Y0.9000 
G01 Z-0.032000
G01 Z0.100000
T01 
G00 Z0.5000 
M05
M02
